!!!!SEGMENT: pl-cz--iii-693--001_volckmer-augustin--litaniae-lauretanae-a-kyrie.krn
!!!cenid: 18xx:1126
!!!COM: Volckmer, Augustin
!!!COM-rismid: pe30020656
!!!CDT: 1755-~1820
!!!CNT:
!!!OPR: Litaniae Lauretanae A
!!!OTL: Kyrie
!!!OMV: 001
!!!PDT:
!!!AGN: Sacred; Mass
!!!SMS-siglum: PL-CZ
!!!SMS-shelfmark: III-693
!!!SMS-shelfwork: 001-001 M
!!!SMS-variant:
!!!SMS-altvar:
!!!NIFC-rismid: 300001388
!!!URL-scan: http://repozytorium.nifc.pl/skany/pl-cz-nut--iii-693
!!!ONB-nifc: UWAGA: części Litanii: Kyrie, Mater christi, Virgo prudentissima, Rosa mystica, Salus infirmorum, Regina angelorum, Agnus Dei, Miserere nobis.
!!!key: A
**kern	**fba	**dynam	**kern	**dynam	**kern	**kern	**dynam	**kern	**dynam	**kern	**text	**dynam	**kern	**text	**dynam	**kern	**text	**kern	**text	**dynam	**kern	**kern	**kern	**dynam	**kern	**dynam	**kern	**dynam	**kern	**dynam	**kern
*part16	*part16	*part16	*part15	*part15	*part14	*part13	*part13	*part12	*part12	*part11	*part11	*part11	*part10	*part10	*part10	*part9	*part9	*part8	*part8	*part8	*part7	*part6	*part5	*part5	*part4	*part4	*part3	*part3	*part2	*part2	*part1
*staff16	*	*	*staff15	*	*staff14	*staff13	*	*staff12	*	*staff11	*staff11	*	*staff10	*staff10	*	*staff9	*staff9	*staff8	*staff8	*	*staff7	*staff6	*staff5	*	*staff4	*	*staff3	*	*staff2	*	*staff1
*Iorgan	*	*	*Iempty	*	*Iempty	*Ivioln	*	*Ivioln	*	*Iempty	*	*	*Itenor	*	*	*Ialto	*	*Ivox	*	*	*Iempty	*Iempty	*Iempty	*	*Iempty	*	*Ioboe	*	*Ioboe	*	*Iempty
*I"Organo.	*	*	*I"Viola obl:	*	*I"Viola. Solo.	*I"Violino Secondo	*	*I"Violino Primo.	*	*I"Baſso	*	*	*I"Tenore	*	*	*I"Alto.	*	*I"Canto	*	*	*I"Tympano ex D.	*I"Clarino in D.	*I"Cornu Secondo in A	*	*I"Cornu Primo in Adur	*	*I"Oboe Secondo	*	*I"Oboe Primo	*	*I"Oboe Primo Solo
*I'Org.	*	*	*I'Vla. obl:	*	*I'Vla.	*I'Vn II	*	*I'Vn I	*	*I'B.	*	*	*I'T.	*	*	*I'A.	*	*I'C.	*	*	*I'Timp. ex D	*I'Clno. in D.	*I'C. II in A	*	*I'C. I in A.	*	*I'Ob. II	*	*I'Ob. I	*	*I'Ob. I S.
*ICklav	*	*	*ICstr	*	*ICstr	*ICstr	*	*ICstr	*	*ICvox	*	*	*ICvox	*	*	*ICvox	*	*ICvox	*	*	*ICidio	*ICbras	*ICbras	*	*ICbras	*	*ICww	*	*ICww	*	*ICww
*clefF4	*	*	*clefC3	*	*clefC3	*clefG2	*	*clefG2	*	*clefF4	*	*	*clefC4	*	*	*clefC3	*	*clefC1	*	*	*clefF4	*clefG2	*clefG2	*	*clefG2	*	*clefG2	*	*clefG2	*	*clefG2
*	*	*	*	*	*	*	*	*	*	*	*	*	*	*	*	*	*	*	*	*	*ITrd-1c-2	*ITrd-1c-2	*ITrd2c3	*	*ITrd2c3	*	*	*	*	*	*
*k[f#c#g#]	*	*	*k[f#c#g#]	*	*k[f#c#g#]	*k[f#c#g#]	*	*k[f#g#c#]	*	*k[f#g#c#]	*	*	*k[c#f#g#]	*	*	*k[f#g#c#]	*	*k[f#c#g#]	*	*	*k[f#c#g#]	*k[f#c#g#]	*k[f#c#g#]	*	*k[f#c#g#]	*	*k[f#c#g#]	*	*k[f#c#g#]	*	*k[f#c#g#]
*A:	*	*	*A:	*	*A:	*A:	*	*A:	*	*A:	*	*	*A:	*	*	*A:	*	*A:	*	*	*A:	*A:	*	*	*	*	*A:	*	*A:	*	*A:
*M6/4	*	*	*M6/4	*	*M6/4	*M6/4	*	*M6/4	*	*M6/4	*	*	*M6/4	*	*	*M6/4	*	*M6/4	*	*	*M6/4	*M6/4	*M6/4	*	*M6/4	*	*M6/4	*	*M6/4	*	*M6/4
*	*	*	*	*	*	*	*	*	*below	*	*	*	*	*	*	*	*	*	*	*	*	*	*	*	*	*	*	*	*	*	*
!LO:TX:a:rj:i:t=Andante	!	!	!LO:TX:a:rj:i:t=Andante molto	!	!	!LO:TX:a:rj:i:t=Andante molto	!	!LO:TX:a:rj:i:t=Andante	!	!LO:TX:a:rj:i:t=Andante molto	!	!	!LO:TX:a:rj:i:t=Andante molto	!	!	!LO:TX:a:rj:i:t=Andante molto	!	!LO:TX:a:rj:i:t=Andante molto	!	!	!	!	!LO:TX:a:rj:i:t=Andante molto	!	!LO:TX:a:rj:i:t=Andante molto	!	!LO:TX:a:rj:i:t=Andante molto	!	!LO:TX:a:rj:i:t=And(ante) molto	!	!LO:TX:b:t=[Tacet]
!	!	!	!LO:TX:t=P:problem=znaki przykluczowe pierwotnie pominięte, dopisana przed kluczem ołówkiem	!	!LO:TX:b:t=[Tacet]	!	!	!	!	!	!	!	!	!	!	!	!	!	!	!	!LO:TX:b:t=[Tacet]	!LO:TX:b:t=[Tacet]	!	!	!	!	!	!	!	!	!LO:TX:a:i:t=Andante molto
!	!	!	!	!	!	!	!	!	!	!	!	!	!	!	!	!	!	!LO:TX:a:i:t=	!	!	!	!	!	!	!	!	!	!	!	!	!
!LO:TX:a:rj:i:t=Andante	!	!	!	!	!	!	!LO:DY:t=p&colon;	!	!LO:DY:b:t=po	!	!	!	!	!	!	!LO:TX:t=P:problem= kolejność znaków f#g#c#	!	!LO:TX:t=P:problem= znaki c#f#f#	!	!	!	!	!	!	!	!	!	!	!	!	!LO:TX:t=P::problem=caudy drobnych nut nieregularnie - prawo, lewo, środek&colon; global
4r	.	.	4r	.	4ryy	4e/	p	4e/	p	4r	.	.	4r	.	.	4r	.	4r	.	.	4ryy	4ryy	4r	.	4r	.	4r	.	4r	.	4ryy
=1	=1	=1	=1	=1	=1	=1	=1	=1	=1	=1	=1	=1	=1	=1	=1	=1	=1	=1	=1	=1	=1	=1	=1	=1	=1	=1	=1	=1	=1	=1	=1
*2\right	*	*	*	*	*	*	*	*	*	*	*	*	*	*	*	*	*	*	*	*	*	*	*	*	*	*	*	*	*	*	*
!LO:TX:a:rj:i:t=Solo	!	!	!	!	!	!	!	!	!	!	!	!	!	!	!	!	!	!	!	!	!	!	!	!	!	!	!	!	!	!	!
2A\	.	.	2E/	.	1.ryy	(2c#/	.	2a/	.	00.r	.	.	00.r	.	.	00.r	.	00.r	.	.	1.ryy	1.ryy	0.r	.	0.r	.	0.r	.	0.r	.	1.ryy
4E\	7	.	4E/	.	.	4d/)	.	(8b/L	.	.	.	.	.	.	.	.	.	.	.	.	.	.	.	.	.	.	.	.	.	.	.
.	.	.	.	.	.	.	.	8g#/J)	.	.	.	.	.	.	.	.	.	.	.	.	.	.	.	.	.	.	.	.	.	.	.
4AA/	.	.	4A/	.	.	4c#/	.	(4a/	.	.	.	.	.	.	.	.	.	.	.	.	.	.	.	.	.	.	.	.	.	.	.
4r	.	.	4r	.	.	4e'/	.	4ee\)	.	.	.	.	.	.	.	.	.	.	.	.	.	.	.	.	.	.	.	.	.	.	.
4r	.	.	4r	.	.	4c#'/	.	4cc#|\	.	.	.	.	.	.	.	.	.	.	.	.	.	.	.	.	.	.	.	.	.	.	.
=2	=2	=2	=2	=2	=2	=2	=2	=2	=2	=2	=2	=2	=2	=2	=2	=2	=2	=2	=2	=2	=2	=2	=2	=2	=2	=2	=2	=2	=2	=2	=2
4D\	6 3	.	4d\	.	1.ryy	(4f#/	.	(4b\	.	.	.	.	.	.	.	.	.	.	.	.	1.ryy	1.ryy	.	.	.	.	.	.	.	.	1.ryy
4C#\	8 3	.	4c#\	.	.	4e/)	.	4cc#\	.	.	.	.	.	.	.	.	.	.	.	.	.	.	.	.	.	.	.	.	.	.	.
4BB\	x 3	.	4B\	.	.	4d/	.	4dd\)	.	.	.	.	.	.	.	.	.	.	.	.	.	.	.	.	.	.	.	.	.	.	.
*	*	*	*2\right	*	*	*	*	*	*	*	*	*	*	*	*	*	*	*	*	*	*	*	*	*	*	*	*	*	*	*	*
2E\	6 4	.	2e\	.	.	(2c#/	.	(2a/	.	.	.	.	.	.	.	.	.	.	.	.	.	.	.	.	.	.	.	.	.	.	.
4EE/	5 3	.	4e\	.	.	4B/)	.	4g#/)	.	.	.	.	.	.	.	.	.	.	.	.	.	.	.	.	.	.	.	.	.	.	.
=3	=3	=3	=3	=3	=3	=3	=3	=3	=3	=3	=3	=3	=3	=3	=3	=3	=3	=3	=3	=3	=3	=3	=3	=3	=3	=3	=3	=3	=3	=3	=3
*	*	*	*	*	*	*^	*	*^	*	*	*	*	*	*	*	*	*	*	*	*	*	*	*	*	*	*	*	*	*	*	*
4E\	7 5	.	4e\	.	1.ryy	4b\	4ryy	.	4dd|\	4ryy	.	.	.	.	.	.	.	.	.	.	.	.	1.ryy	1.ryy	4r	.	4r	.	4r	.	4r	.	1.ryy
!	!	!	!	!	!	!	!	!	!LO:TX:b:t=Oboi	!	!	!	!	!	!	!	!	!	!	!	!	!	!	!	!	!	!	!	!LO:TX:a:i:t=Solo	!	!LO:TX:a:i:t=Solo	!	!
*	*	*	*	*	*	*	*cue	*	*	*cue	*	*	*	*	*	*	*	*	*	*	*	*	*	*	*	*	*	*	*	*	*	*	*
4r	.	.	4r	.	.	4r	4g#/	.	4r	4b\	.	.	.	.	.	.	.	.	.	.	.	.	.	.	4e/	.	4b\	.	4g#|/	.	4b\	.	.
!	!	!	!	!	!	!	!	!	!	!	!	!	!	!	!	!	!	!	!	!	!	!	!	!	!LO:TX:a:i:t=Solo	!	!	!	!	!	!	!	!
4E\	.	.	4e\	.	.	4r	4g#/	.	4r	4b\	.	.	.	.	.	.	.	.	.	.	.	.	.	.	4e/	.	4b\	.	4g#|/	.	4b\	.	.
4A\	3	.	4a\	.	.	4cc#\	4ryy	.	4ee|\	4ryy	.	.	.	.	.	.	.	.	.	.	.	.	.	.	4r	.	4r	.	4r	.	4r	.	.
4r	.	.	4r	.	.	4r	4a\	.	4rg	4cc#/	.	.	.	.	.	.	.	.	.	.	.	.	.	.	4a\	.	4cc#\	.	4a|/	.	4cc#\	.	.
4A\	.	.	4a\	.	.	4r	4a\	.	4rg	4cc#/	.	.	.	.	.	.	.	.	.	.	.	.	.	.	4a\	.	4cc#\	.	4a|/	.	4cc#\	.	.
*	*	*	*	*	*	*v	*v	*	*v	*v	*	*	*	*	*	*	*	*	*	*	*	*	*	*	*	*	*	*	*	*	*	*	*
!LO:LB:g=original	!	!	!	!	!	!	!	!	!	!	!	!	!	!	!	!	!	!	!	!	!	!	!	!	!	!	!	!	!	!	!
=4	=4	=4	=4	=4	=4	=4	=4	=4	=4	=4	=4	=4	=4	=4	=4	=4	=4	=4	=4	=4	=4	=4	=4	=4	=4	=4	=4	=4	=4	=4	=4
!	!	!	!	!	!	!	!	!LO:TX:t=P:problem=mixed beam	!	!	!	!	!	!	!	!	!	!	!	!	!	!	!	!	!	!	!	!	!	!	!
4D\	.	.	4f#\	.	1.ryy	8d/L	.	(8b\L	.	.	.	.	.	.	.	.	.	.	.	.	1.ryy	1.ryy	4r	.	4r	.	4r	.	4r	.	1.ryy
.	.	.	.	.	.	8f#/	.	8dd\)	.	.	.	.	.	.	.	.	.	.	.	.	.	.	.	.	.	.	.	.	.	.	.
4E\	.	.	4e\	.	.	8e/	.	(8cc#\	.	.	.	.	.	.	.	.	.	.	.	.	.	.	4r	.	4r	.	4r	.	4r	.	.
.	.	.	.	.	.	8c#/	.	8ee\)	.	.	.	.	.	.	.	.	.	.	.	.	.	.	.	.	.	.	.	.	.	.	.
4EE/	.	.	4e\	.	.	8B/	.	(8g#/	.	.	.	.	.	.	.	.	.	.	.	.	.	.	4e/	.	4b\	.	4b/	.	4dd\	.	.
.	.	.	.	.	.	8d/J	.	8b/J)	.	.	.	.	.	.	.	.	.	.	.	.	.	.	.	.	.	.	.	.	.	.	.
*	*	*	*	*	*	*	*	*2\right	*	*	*	*	*	*	*	*	*	*	*	*	*	*	*	*	*2\right	*	*	*	*2\right	*	*
4A\	.	.	2e\	.	.	2d/	.	(2b\	.	.	.	.	.	.	.	.	.	.	.	.	.	.	2e/	.	2b\	.	2b/	.	2dd\	.	.
4E\	.	.	.	.	.	.	.	.	.	.	.	.	.	.	.	.	.	.	.	.	.	.	.	.	.	.	.	.	.	.	.
4AA/	.	.	4e\	.	.	4c#/	.	4a\)	.	.	.	.	.	.	.	.	.	.	.	.	.	.	4c#/	.	4a\	.	4a/	.	4cc#\	.	.
!	!	!	!	!	!	!	!	!LO:LB:g=original	!	!	!	!	!	!	!	!	!	!	!	!	!	!	!	!	!	!	!	!	!	!	!
=5	=5	=5	=5	=5	=5	=5	=5	=5	=5	=5	=5	=5	=5	=5	=5	=5	=5	=5	=5	=5	=5	=5	=5	=5	=5	=5	=5	=5	=5	=5	=5
!	!	!LO:DY:b:t=po.	!	!	!	!	!	!	!LO:DY:b:t=for	!	!	!	!	!	!	!	!	!	!	!	!	!	!	!	!	!	!	!	!	!	!
4AA/ 4A/	.	p	4A/	.	1.ryy	4cc#\	.	4aa\	f	00.r	.	.	1.r	.	.	00.r	.	4aa\	Ky-	.	1.ryy	1.ryy	0.r	.	0.r	.	0.r	.	0.r	.	1.ryy
4r	.	.	4r	.	.	8cc#\L	.	(8ee\L	.	.	.	.	.	.	.	.	.	(8ee\L	.	.	.	.	.	.	.	.	.	.	.	.	.
.	.	.	.	.	.	8a\	.	8cc#\)	.	.	.	.	.	.	.	.	.	8cc#\)	.	.	.	.	.	.	.	.	.	.	.	.	.
4D\	.	.	4d\	.	.	8dd\	.	(8ff#\	.	.	.	.	.	.	.	.	.	(8ff#\	.	.	.	.	.	.	.	.	.	.	.	.	.
.	.	.	.	.	.	8b\J	.	8dd\J)	.	.	.	.	.	.	.	.	.	8dd\J)	-rie	.	.	.	.	.	.	.	.	.	.	.	.
*	*	*	*	*	*	*	*	*	*	*	*	*	*	*	*	*	*	*2\right	*	*	*	*	*	*	*	*	*	*	*	*	*
4E\	.	.	4e\	.	.	2g#/	.	2b\	.	.	.	.	.	.	.	.	.	2b\	.	.	.	.	.	.	.	.	.	.	.	.	.
4EE/	.	.	4E/	.	.	.	.	.	.	.	.	.	.	.	.	.	.	.	.	.	.	.	.	.	.	.	.	.	.	.	.
4D\	.	.	4d\	.	.	8a/L	.	(8cc#\L	.	.	.	.	.	.	.	.	.	8cc#\L	e-	.	.	.	.	.	.	.	.	.	.	.	.
.	.	.	.	.	.	8b/J	.	8dd\J)	.	.	.	.	.	.	.	.	.	8dd\J	.	.	.	.	.	.	.	.	.	.	.	.	.
!	!	!	!LO:LB:g=original	!	!	!LO:LB:g=original	!	!	!	!	!	!	!	!	!	!	!	!	!	!	!	!	!	!	!	!	!	!	!	!	!
=6	=6	=6	=6	=6	=6	=6	=6	=6	=6	=6	=6	=6	=6	=6	=6	=6	=6	=6	=6	=6	=6	=6	=6	=6	=6	=6	=6	=6	=6	=6	=6
8C#\L	.	.	8c#\L	.	1.ryy	8cc#/L	.	(8ee\L	.	.	.	.	2r	.	.	.	.	8ee\L	-lei-	.	1.ryy	1.ryy	.	.	.	.	.	.	.	.	1.ryy
8D\J	.	.	8d\J	.	.	8a/J	.	8cc#\J)	.	.	.	.	.	.	.	.	.	(8cc#\J	.	.	.	.	.	.	.	.	.	.	.	.	.
4E\	.	.	4e\	.	.	4c#/	.	4a/	.	.	.	.	.	.	.	.	.	4a\	.	.	.	.	.	.	.	.	.	.	.	.	.
4EE/	.	.	4e\	.	.	4B/	.	4g#/	.	.	.	.	4r	.	.	.	.	4g#\)	.	.	.	.	.	.	.	.	.	.	.	.	.
.	.	.	.	.	.	.	.	.	.	.	.	.	.	.	.	.	.	8qqb/	.	.	.	.	.	.	.	.	.	.	.	.	.
!	!	!	!	!	!	!	!	!	!LO:DY:b:t=po	!	!	!	!	!	!	!	!	!	!	!	!	!	!	!	!	!	!	!	!	!	!
4AA/	.	.	4e\	.	.	4c#/	.	4a/	p	.	.	.	4r	.	.	.	.	4a\	-son	.	.	.	.	.	.	.	.	.	.	.	.
4r	.	.	4r	.	.	4r	.	4e|/	.	.	.	.	4F#/	Chri-	.	.	.	4r	.	.	.	.	.	.	.	.	.	.	.	.	.
4AA/	.	.	4e\	.	.	4c#/	.	4a|/	.	.	.	.	4A/	-ste	.	.	.	4r	.	.	.	.	.	.	.	.	.	.	.	.	.
=7	=7	=7	=7	=7	=7	=7	=7	=7	=7	=7	=7	=7	=7	=7	=7	=7	=7	=7	=7	=7	=7	=7	=7	=7	=7	=7	=7	=7	=7	=7	=7
*	*	*	*	*	*	*	*	*	*	*	*	*	*	*ij	*	*	*	*	*	*	*	*	*	*	*	*	*	*	*	*	*
2E\	.	.	2d\	.	1.ryy	2B/	.	(4a/	.	.	.	.	4A/	Chri-	.	.	.	0.r	.	.	1.ryy	1.ryy	1.r	.	1.r	.	1.r	.	1.r	.	1.ryy
.	.	.	.	.	.	.	.	4g#/)	.	.	.	.	4G#/	-ste	.	.	.	.	.	.	.	.	.	.	.	.	.	.	.	.	.
*	*	*	*	*	*	*	*	*	*	*	*	*	*	*Xij	*	*	*	*	*	*	*	*	*	*	*	*	*	*	*	*	*
4AA/	.	.	4e\	.	.	4c#/	.	4a|/	.	.	.	.	4A/	e-	.	.	.	.	.	.	.	.	.	.	.	.	.	.	.	.	.
4D\	3	.	4f#\	.	.	4d/	.	(8cc#\L	.	.	.	.	(8c#\L	.	.	.	.	.	.	.	.	.	.	.	.	.	.	.	.	.	.
.	.	.	.	.	.	.	.	8b\)	.	.	.	.	8B\	.	.	.	.	.	.	.	.	.	.	.	.	.	.	.	.	.	.
4r	.	.	4r	.	.	4r	.	(8ee\	.	.	.	.	8e\	.	.	.	.	.	.	.	.	.	.	.	.	.	.	.	.	.	.
.	.	.	.	.	.	.	.	8dd\	.	.	.	.	8d\	.	.	.	.	.	.	.	.	.	.	.	.	.	.	.	.	.	.
4D\	.	.	4f#\	.	.	4d/	.	8cc#\	.	.	.	.	8c#\	.	.	.	.	.	.	.	.	.	.	.	.	.	.	.	.	.	.
.	.	.	.	.	.	.	.	8b\J)	.	.	.	.	8B\J)	.	.	.	.	.	.	.	.	.	.	.	.	.	.	.	.	.	.
=8	=8	=8	=8	=8	=8	=8	=8	=8	=8	=8	=8	=8	=8	=8	=8	=8	=8	=8	=8	=8	=8	=8	=8	=8	=8	=8	=8	=8	=8	=8	=8
*	*	*	*	*	*	*^	*	*^	*	*	*	*	*	*	*	*	*	*	*	*	*	*	*	*	*	*	*	*	*	*	*
4E\	.	.	4e\	.	1.ryy	(4c#/	1ryy	.	(4a/	1ryy\	.	.	.	.	4A\	-lei-	.	.	.	.	.	.	1.ryy	1.ryy	4r	.	4r	.	4r	.	4r	.	1.ryy
4EE/	.	.	4e\	.	.	4B/)	.	.	4g#/)	.	.	.	.	.	4G#\	-son	.	.	.	.	.	.	.	.	4r	.	4r	.	4r	.	4r	.	.
!	!	!	!	!	!	!	!	!	!	!	!LO:DY:b:t=for	!	!	!	!	!	!	!	!	!	!	!	!	!	!	!	!	!	!	!	!	!	!
4r	.	.	4r	.	.	(4e/	.	.	4e/	.	f	.	.	.	4r	.	.	.	.	.	.	.	.	.	4r	.	4r	.	4r	.	4r	.	.
4E\	.	.	4g#\	.	.	4b\)	.	.	4dd\	.	.	.	.	.	4r	.	.	.	.	.	.	.	.	.	4r	.	4r	.	4r	.	4r	.	.
!	!	!	!	!	!	!	!	!	!	!	!	!	!	!	!	!	!	!	!	!	!	!	!	!	!LO:TX:a:i:t=Solo	!	!	!	!	!	!	!	!
4r	.	.	4g#\	.	.	4r	4g#\	.	4rg	4b/	.	.	.	.	4B|\	Chri-	.	.	.	.	.	.	.	.	4e/	.	4b\	.	4g#/	.	4b\	.	.
4r	.	.	4g#\	.	.	4r	4g#\	.	4rg	4b/	.	.	.	.	4B|\	-ste	.	.	.	.	.	.	.	.	4e/	.	4b\	.	4g#/	.	4b\	.	.
*	*	*	*	*	*	*v	*v	*	*v	*v	*	*	*	*	*	*	*	*	*	*	*	*	*	*	*	*	*	*	*	*	*	*	*
!LO:LB:g=original	!	!	!	!	!	!	!	!	!	!	!	!	!	!LO:LB:g=original	!	!	!	!	!	!	!	!	!	!	!	!	!	!	!	!	!
=9	=9	=9	=9	=9	=9	=9	=9	=9	=9	=9	=9	=9	=9	=9	=9	=9	=9	=9	=9	=9	=9	=9	=9	=9	=9	=9	=9	=9	=9	=9	=9
4AA/	.	.	4a\	.	1.ryy	4cc#|\	.	4ee|\	.	0.r	.	.	4e\	Chri-	.	0.r	.	1.r	.	.	1.ryy	1.ryy	4c#/	.	4a\	.	4cc#\	.	4ee\	.	1.ryy
4BB/	.	.	4g#\	.	.	4b|\	.	4dd|\	.	.	.	.	(4d\	.	.	.	.	.	.	.	.	.	4e/	.	4b\	.	4b\	.	4dd\	.	.
4C#/	.	.	4a\	.	.	4a|\	.	4cc#|\	.	.	.	.	4c#\)	-ste	.	.	.	.	.	.	.	.	4a\	.	4cc#\	.	4a\	.	4cc#\	.	.
!	!	!	!	!	!	!	!	!	!	!	!	!	!	!	!	!	!	!	!	!	!	!	!	!	!LO:LB:g=original	!	!	!	!	!	!
4D/	.	.	4f#\	.	.	4d/	.	8b\L	.	.	.	.	8B\L	e-	.	.	.	.	.	.	.	.	4r	.	4r	.	8b\L	.	4dd\	.	.
.	.	.	.	.	.	.	.	8cc#\J	.	.	.	.	8c#\J	.	.	.	.	.	.	.	.	.	.	.	.	.	8cc#\J	.	.	.	.
4E\	.	.	4e\	.	.	4c#/	.	4a/	.	.	.	.	4A\	-le-	.	.	.	.	.	.	.	.	4a\	.	4cc#\	.	4a/	.	4cc#\	.	.
4EE/	.	.	4e\	.	.	4B/	.	4g#/	.	.	.	.	4G#\	-i-	.	.	.	.	.	.	.	.	4e/	.	4b\	.	4g#/	.	4b\	.	.
!	!	!	!	!	!	!	!	!	!	!	!	!	!	!	!	!	!	!LO:LB:g=original	!	!	!	!	!	!	!	!	!	!	!	!	!
=10	=10	=10	=10	=10	=10	=10	=10	=10	=10	=10	=10	=10	=10	=10	=10	=10	=10	=10	=10	=10	=10	=10	=10	=10	=10	=10	=10	=10	=10	=10	=10
!	!	!	!	!	!	!	!	!	!LO:DY:b:rj:t=for	!	!	!	!	!	!	!	!	!	!	!	!	!	!	!	!	!	!	!	!	!	!
4AA/	.	.	4A/	.	1.ryy	4c#/	.	4a\ 4aa\	f	.	.	.	4A\	-son	.	.	.	4aa\	Ky-	.	1.ryy	1.ryy	4A/	.	4a\	.	4a/	.	4a/	.	1.ryy
4r	.	.	4r	.	.	8cc#\L	.	(8ee\L	.	.	.	.	4r	.	.	.	.	(8ee\L	.	.	.	.	4r	.	4r	.	4r	.	4r	.	.
.	.	.	.	.	.	8a\	.	8cc#\)	.	.	.	.	.	.	.	.	.	8cc#\J)	.	.	.	.	.	.	.	.	.	.	.	.	.
4D\	.	.	4d\	.	.	8dd\	.	(8ff#\	.	.	.	.	4r	.	.	.	.	8ff#\L	.	.	.	.	4r	.	4r	.	4r	.	4r	.	.
.	.	.	.	.	.	8b\J	.	8dd\J)	.	.	.	.	.	.	.	.	.	8dd\J	-rie	.	.	.	.	.	.	.	.	.	.	.	.
!	!	!	!	!	!	!	!	!	!	!	!	!	!	!	!	!	!	!	!	!	!	!	!	!	!	!	!LO:LB:g=original	!	!	!	!
4E\	.	.	4e\	.	.	2g#/	.	2b\	.	.	.	.	2r	.	.	.	.	2b\	.	.	.	.	4r	.	4r	.	4r	.	4r	.	.
4EE/	.	.	4E/	.	.	.	.	.	.	.	.	.	.	.	.	.	.	.	.	.	.	.	4r	.	4r	.	4r	.	4r	.	.
4D\	.	.	4d\	.	.	8a/L	.	(8cc#\L	.	.	.	.	4r	.	.	.	.	8cc#\L	e-	.	.	.	4r	.	4r	.	4r	.	4r	.	.
.	.	.	.	.	.	8b/J	.	8dd\J)	.	.	.	.	.	.	.	.	.	8dd\J	.	.	.	.	.	.	.	.	.	.	.	.	.
=11	=11	=11	=11	=11	=11	=11	=11	=11	=11	=11	=11	=11	=11	=11	=11	=11	=11	=11	=11	=11	=11	=11	=11	=11	=11	=11	=11	=11	=11	=11	=11
8C#\L	.	.	8c#\L	.	1.ryy	8cc#\L	.	8ee\L	.	1.r	.	.	1.r	.	.	1.r	.	8ee\L	-lei-	.	1.ryy	1.ryy	1.r	.	1.r	.	1.r	.	1.r	.	1.ryy
8D\J	.	.	8d\J	.	.	8a\J	.	8cc#\J	.	.	.	.	.	.	.	.	.	8cc#\J	.	.	.	.	.	.	.	.	.	.	.	.	.
4E\	.	.	4e\	.	.	4c#/	.	4a/	.	.	.	.	.	.	.	.	.	4a\	.	.	.	.	.	.	.	.	.	.	.	.	.
4EE/	.	.	4E/	.	.	4B/	.	4g#/	.	.	.	.	.	.	.	.	.	4g#\	.	.	.	.	.	.	.	.	.	.	.	.	.
.	.	.	.	.	.	.	.	.	.	.	.	.	.	.	.	.	.	8qqb/	.	.	.	.	.	.	.	.	.	.	.	.	.
4AA/	.	.	2A/	.	.	2c#/	.	2a/	.	.	.	.	.	.	.	.	.	2a\	-son	.	.	.	.	.	.	.	.	.	.	.	.
4A\	.	.	.	.	.	.	.	.	.	.	.	.	.	.	.	.	.	.	.	.	.	.	.	.	.	.	.	.	.	.	.
4r	.	.	4r	.	.	4r	.	4r	.	.	.	.	.	.	.	.	.	4r	.	.	.	.	.	.	.	.	.	.	.	.	.
!	!	!	!	!	!	!	!	!LO:LB:g=original	!	!	!	!	!	!	!	!	!	!	!	!	!	!	!LO:LB:g=original	!	!	!	!	!	!LO:LB:g=original	!	!
=12	=12	=12	=12	=12	=12	=12	=12	=12	=12	=12	=12	=12	=12	=12	=12	=12	=12	=12	=12	=12	=12	=12	=12	=12	=12	=12	=12	=12	=12	=12	=12
*	*	*	*	*	*	*	*	*	*	*2\right	*	*	*2\right	*	*	*2\right	*	*	*	*	*	*	*	*	*	*	*	*	*	*	*
4BB/	#	.	(16B\LL	.	1.ryy	8a/L	.	(16b\LL	.	2.A\	Chri-	.	2.B\	Chri-	.	2.f#\	Chri-	2.dd#X\	Chri-	.	1.ryy	1.ryy	4b\	.	4b\	.	2.a/	.	2.dd#X\	.	1.ryy
.	.	.	16d#X\	.	.	.	.	16dd#X\	.	.	.	.	.	.	.	.	.	.	.	.	.	.	.	.	.	.	.	.	.	.	.
.	.	.	16f#\	.	.	(8b/	.	16ff#\	.	.	.	.	.	.	.	.	.	.	.	.	.	.	.	.	.	.	.	.	.	.	.
.	.	.	16d#\JJ)	.	.	.	.	16dd#\JJ)	.	.	.	.	.	.	.	.	.	.	.	.	.	.	.	.	.	.	.	.	.	.	.
4A\	.	.	8B|\L	.	.	8a/	.	8b|\L	.	.	.	.	.	.	.	.	.	.	.	.	.	.	4r	.	4r	.	.	.	.	.	.
.	.	.	(8B\	.	.	(8b/)	.	8b|\	.	.	.	.	.	.	.	.	.	.	.	.	.	.	.	.	.	.	.	.	.	.	.
4F#\	.	.	8c#\	.	.	(8a/)	.	8cc#|\	.	.	.	.	.	.	.	.	.	.	.	.	.	.	4r	.	4r	.	.	.	.	.	.
.	.	.	8d#\J)	.	.	8b/J)	.	8dd#|\J	.	.	.	.	.	.	.	.	.	.	.	.	.	.	.	.	.	.	.	.	.	.	.
*	*	*	*	*	*	*	*	*	*	*	*	*	*	*	*	*	*	*	*	*	*	*	*2\right	*	*	*	*	*	*	*	*
4G#\	.	.	(8e\L	.	.	(8g#\L	.	(8ee\L	.	2.G#\	-ste	.	2.B\	-ste	.	2.g#\	-ste	2.ee\	-ste	.	.	.	2.e\	.	2.b\	.	2.g#/	.	2.ee\	.	.
.	.	.	8d#\)	.	.	8b\)	.	8dd#\)	.	.	.	.	.	.	.	.	.	.	.	.	.	.	.	.	.	.	.	.	.	.	.
4E\	.	.	8e|\	.	.	(8g#\	.	8ee|\	.	.	.	.	.	.	.	.	.	.	.	.	.	.	.	.	.	.	.	.	.	.	.
.	.	.	8f#|\	.	.	8b\)	.	8ff#|\	.	.	.	.	.	.	.	.	.	.	.	.	.	.	.	.	.	.	.	.	.	.	.
4r	.	.	8g#|\	.	.	(8g#\	.	8gg#|\	.	.	.	.	.	.	.	.	.	.	.	.	.	.	.	.	.	.	.	.	.	.	.
.	.	.	8e|\J	.	.	8b\J)	.	8ee|\J	.	.	.	.	.	.	.	.	.	.	.	.	.	.	.	.	.	.	.	.	.	.	.
!	!	!	!LO:LB:g=original	!	!	!LO:LB:g=original	!	!	!	!	!	!	!	!	!	!	!	!	!	!	!	!	!	!	!	!	!	!	!	!	!
=13	=13	=13	=13	=13	=13	=13	=13	=13	=13	=13	=13	=13	=13	=13	=13	=13	=13	=13	=13	=13	=13	=13	=13	=13	=13	=13	=13	=13	=13	=13	=13
*	*	*	*	*	*	*	*	*	*	*	*	*	*	*	*	*	*	*	*	*	*	*	*	*	*	*	*2\right	*	*	*	*
4F#\	.	.	(8b\L	.	1.ryy	(8f#/L	.	8bb\L	.	2D#X\	au-	.	2B\	au-	.	2a\	au-	2ff#\	au-	.	1.ryy	1.ryy	4b\	.	4b\	.	2.ff#\	.	2.aa\	.	1.ryy
.	.	.	8a\	.	.	8b/)	.	(8aa\	.	.	.	.	.	.	.	.	.	.	.	.	.	.	.	.	.	.	.	.	.	.	.
4D#X\	.	.	8f#\	.	.	(8f#/	.	8ff#\	.	.	.	.	.	.	.	.	.	.	.	.	.	.	4r	.	4r	.	.	.	.	.	.
.	.	.	8d#X\	.	.	8b/)	.	8dd#X\	.	.	.	.	.	.	.	.	.	.	.	.	.	.	.	.	.	.	.	.	.	.	.
4F#\	.	.	8B\	.	.	(8f#/	.	8b\)	.	4D#\	-di	.	4B\	-di	.	4a\	-di	4ff#\	-di	.	.	.	4r	.	4r	.	.	.	.	.	.
.	.	.	8A\J)	.	.	8b/J)	.	8a\J	.	.	.	.	.	.	.	.	.	.	.	.	.	.	.	.	.	.	.	.	.	.	.
!	!	!	!LO:TX:t=P:problem=mixed beam	!	!	!	!	!LO:TX:t=P:problem=mixed beam	!	!	!	!	!	!	!	!	!	!	!	!	!	!	!	!	!	!	!	!	!	!	!
4E\	.	.	(8G#/L	.	.	(8e/L	.	(8g#/L	.	2E\	nos	.	2B\	nos	.	2g#\	nos	2ee\	nos	.	.	.	8r	.	8r	.	2.ee\	.	2.gg#\	.	.
.	.	.	8b\)	.	.	8b/)	.	8bb\)	.	.	.	.	.	.	.	.	.	.	.	.	.	.	8e/L	.	8b\L	.	.	.	.	.	.
4G#\	.	.	8b|\	.	.	(8g#/	.	8bb|\	.	.	.	.	.	.	.	.	.	.	.	.	.	.	8e/	.	8b\	.	.	.	.	.	.
.	.	.	8b|\	.	.	8b/)	.	8bb|\	.	.	.	.	.	.	.	.	.	.	.	.	.	.	8e/	.	8b\	.	.	.	.	.	.
4r	.	.	8b|\	.	.	(8g#/	.	8bb|\	.	4r	.	.	4r	.	.	4r	.	4r	.	.	.	.	8e/	.	8b\	.	.	.	.	.	.
.	.	.	8b|\J	.	.	8b/J)	.	8bb|\J	.	.	.	.	.	.	.	.	.	.	.	.	.	.	8e/J	.	8b\J	.	.	.	.	.	.
=14	=14	=14	=14	=14	=14	=14	=14	=14	=14	=14	=14	=14	=14	=14	=14	=14	=14	=14	=14	=14	=14	=14	=14	=14	=14	=14	=14	=14	=14	=14	=14
4AA/	.	.	(16e\LL	.	1.ryy	(8a/L	.	(16ee\LL	.	2.A\	(Chri)-	.	2.B\	Chri-	.	2.f#\	Chri-	2.dd#X\	Chri-	.	1.ryy	1.ryy	4b\	.	4b\	.	2.a/	p	2.dd#X\	p	1.ryy
.	.	.	16d#X\	.	.	.	.	16dd#X\	.	.	.	.	.	.	.	.	.	.	.	.	.	.	.	.	.	.	.	.	.	.	.
!	!	!	!	!	!	!	!	!	!LO:DY:b:t=po	!	!	!	!	!	!	!	!	!	!	!	!	!	!	!	!	!	!	!	!	!	!
.	.	.	16f#\	.	.	8b/)	.	16ff#\	p	.	.	.	.	.	.	.	.	.	.	.	.	.	.	.	.	.	.	.	.	.	.
.	.	.	16d#\JJ)	.	.	.	.	16dd#\JJ)	.	.	.	.	.	.	.	.	.	.	.	.	.	.	.	.	.	.	.	.	.	.	.
4A\	.	.	8B|\L	.	.	(8a/	.	8b|\L	.	.	.	.	.	.	.	.	.	.	.	.	.	.	4r	.	4r	.	.	.	.	.	.
.	.	.	8B|\	.	.	8b/)	.	8b|\	.	.	.	.	.	.	.	.	.	.	.	.	.	.	.	.	.	.	.	.	.	.	.
4F#\	.	.	8c#|\	.	.	(8a/	.	8cc#|\	.	.	.	.	.	.	.	.	.	.	.	.	.	.	4b\	.	4b\	.	.	.	.	.	.
.	.	.	8d#|\J	.	.	8b/J)	.	8dd#|\J	.	.	.	.	.	.	.	.	.	.	.	.	.	.	.	.	.	.	.	.	.	.	.
!LO:LB:g=original	!	!	!	!	!	!	!	!	!	!	!	!	!	!	!	!	!	!	!	!	!	!	!	!	!	!	!	!	!	!	!
4G#\	.	.	(8e\L	.	.	(8g#/L	.	(8ee\L	.	2G#\	-ste	.	2B\	-ste	.	2g#\	-ste	2ee\	-ste	.	.	.	2.e/	.	2.b\	.	2.g#/	.	2.ee\	.	.
.	.	.	8d#\)	.	.	8b/)	.	8dd#\)	.	.	.	.	.	.	.	.	.	.	.	.	.	.	.	.	.	.	.	.	.	.	.
4F#\	.	.	8e|\	.	.	(8g#/	.	8ee|\	.	.	.	.	.	.	.	.	.	.	.	.	.	.	.	.	.	.	.	.	.	.	.
.	.	.	8f#|\	.	.	8b/)	.	8ff#|\	.	.	.	.	.	.	.	.	.	.	.	.	.	.	.	.	.	.	.	.	.	.	.
4E\	.	.	8g#|\	.	.	(8g#/	.	(8gg#\	.	4G#\	ex-	.	4B\	ex-	.	4g#\	ex-	4ee\	ex-	.	.	.	.	.	.	.	.	.	.	.	.
.	.	.	8e|\J	.	.	8b/J)	.	8ee\J)	.	.	.	.	.	.	.	.	.	.	.	.	.	.	.	.	.	.	.	.	.	.	.
=15	=15	=15	=15	=15	=15	=15	=15	=15	=15	=15	=15	=15	=15	=15	=15	=15	=15	=15	=15	=15	=15	=15	=15	=15	=15	=15	=15	=15	=15	=15	=15
4D#X\	.	.	(8b\L	.	1.ryy	(8f#/L	.	8bb\L	.	2D#X\	-au-	.	2B\	-au-	.	2a\	-au-	2ff#\	-au-	.	1.ryy	1.ryy	4b\	.	4b\	.	2.ff#\	.	2.aa\	.	1.ryy
.	.	.	8a\	.	.	8b/)	.	(8aa\	.	.	.	.	.	.	.	.	.	.	.	.	.	.	.	.	.	.	.	.	.	.	.
4F#\	.	.	8f#\)	.	.	(8f#/	.	8ff#\	.	.	.	.	.	.	.	.	.	.	.	.	.	.	4r	.	4r	.	.	.	.	.	.
.	.	.	(8d#X\	.	.	8b/)	.	8dd#X\	.	.	.	.	.	.	.	.	.	.	.	.	.	.	.	.	.	.	.	.	.	.	.
4D#\	.	.	(8B\)	.	.	(8f#/	.	8b\)	.	4D#\	-di	.	4B\	-di	.	4a\	-di	4ff#\	-di	.	.	.	4b\	.	4b\	.	.	.	.	.	.
.	.	.	8A\J)	.	.	8b/J)	.	(8a\J	.	.	.	.	.	.	.	.	.	.	.	.	.	.	.	.	.	.	.	.	.	.	.
!	!	!	!	!	!	!	!	!	!	!LO:LB:g=original	!	!	!	!	!	!	!	!	!	!	!	!	!	!	!	!	!	!	!	!	!
4E\	.	.	8G#\L	.	.	8e/L	.	8g#\L	.	2E\	nos	.	2B\	nos	.	2g#\	nos	2ee\	nos	.	.	.	2e/	.	2b\	.	2ee\	.	2gg#\	.	.
.	.	.	(8B\	.	.	8b/	.	8b\)	.	.	.	.	.	.	.	.	.	.	.	.	.	.	.	.	.	.	.	.	.	.	.
4G#\	.	.	8d#\	.	.	8g#/	.	8dd#|\	.	.	.	.	.	.	.	.	.	.	.	.	.	.	.	.	.	.	.	.	.	.	.
.	.	.	8e\	.	.	8b/	.	8ee|\	.	.	.	.	.	.	.	.	.	.	.	.	.	.	.	.	.	.	.	.	.	.	.
4r	.	.	8g#\	.	.	8e/	.	8gg#|\	.	4r	.	.	4r	.	.	4r	.	4r	.	.	.	.	4r	.	4r	.	4r	.	4r	.	.
.	.	.	8e\J)	.	.	8g#/J	.	8bb|\J	.	.	.	.	.	.	.	.	.	.	.	.	.	.	.	.	.	.	.	.	.	.	.
=16	=16	=16	=16	=16	=16	=16	=16	=16	=16	=16	=16	=16	=16	=16	=16	=16	=16	=16	=16	=16	=16	=16	=16	=16	=16	=16	=16	=16	=16	=16	=16
*	*	*	*	*	*	*2\right	*	*	*	*	*	*	*	*	*	*	*	*	*	*	*	*	*	*	*	*	*	*	*	*	*
4A\	.	.	2a\	.	1.ryy	2cc#\	.	4ccc#|\	.	4r	.	.	4r	.	.	4r	.	4r	.	.	1.ryy	1.ryy	2a\	.	2cc#\	.	4cc#\	.	4r	.	1.ryy
!	!	!	!	!	!	!	!	!	!LO:DY:b:t=for	!	!	!	!	!	!	!	!	!	!	!	!	!	!	!	!	!	!	!	!	!	!
4r	.	.	.	.	.	.	.	4ff#|\	f	4A\	(Chri)-	.	4c#\	Chri-	.	4a\	Chri-	4ff#\	Chri-	.	.	.	.	.	.	.	2cc#\	.	4ff#|\	.	.
4A\	.	.	4a\	.	.	4cc#\	.	4aa|\	.	4F#\	-ste	.	4c#\	-ste	.	4a\	-ste	4aa\	-ste	.	.	.	4r	.	4r	.	.	.	4aa|\	f	.
!	!	!	!	!	!	!	!	!LO:LB:g=original	!	!	!	!	!	!	!	!	!	!LO:LB:g=original	!	!	!	!	!	!	!	!	!	!	!	!	!
8B\L	.	.	2b\	.	.	2f#/	.	(2dd#X\	.	8B\L	au-	.	2B\	au-	.	2f#\	au-	2dd#X\	au-	.	.	.	2a\	.	2b\	.	2a/	.	(2dd#X\	.	.
8A\	.	.	.	.	.	.	.	.	.	8A\J	.	.	.	.	.	.	.	.	.	.	.	.	.	.	.	.	.	.	.	.	.
8G#\	.	.	.	.	.	.	.	.	.	8G#\L	-di	.	.	.	.	.	.	.	.	.	.	.	.	.	.	.	.	.	.	.	.
8F#\	.	.	.	.	.	.	.	.	.	8F#\J	.	.	.	.	.	.	.	.	.	.	.	.	.	.	.	.	.	.	.	.	.
8G#\	.	.	4b\	.	.	4g#/	.	4ee\)	.	4E\	nos	.	4B\	-di	.	4g#\	-di	4ee\	-di	.	.	.	4e/	.	4b\	.	4g#/	.	4ee\)	.	.
8E\J	.	.	.	.	.	.	.	.	.	.	.	.	.	.	.	.	.	.	.	.	.	.	.	.	.	.	.	.	.	.	.
!	!	!	!	!	!	!	!	!	!	!	!	!	!LO:LB:g=original	!	!	!LO:LB:g=original	!	!	!	!	!	!	!	!	!	!	!	!	!	!	!
=17	=17	=17	=17	=17	=17	=17	=17	=17	=17	=17	=17	=17	=17	=17	=17	=17	=17	=17	=17	=17	=17	=17	=17	=17	=17	=17	=17	=17	=17	=17	=17
4A\	.	.	2cc#\	.	1.ryy	2a/	.	(4ff#\	.	4A\	ex-	.	4c#\	ex-	.	4a\	ex-	4ff#\	ex-	.	1.ryy	1.ryy	4r	.	4r	.	2cc#\	.	(4ff#\	.	1.ryy
4F#\	.	.	.	.	.	.	.	4aa\)	.	4F#\	-au-	.	4c#\	-au-	.	4a\	-au-	4aa\	-au-	.	.	.	4r	.	4r	.	.	.	4aa\)	.	.
4B\	.	.	4a\	.	.	4f#/	.	4dd#X|\	.	4B\	-di	.	4A\	-di	.	4f#\	-di	4dd#X\	-di	.	.	.	4r	.	4r	.	4b\	.	4dd#X,\	.	.
4E\	.	.	2b\	.	.	(2a/	.	(2ff#\	.	2E\	nos	.	2.B\	nos	.	2a\	nos	(2ff#\	no	.	.	.	2a\	.	2b\	.	2a/	.	(2ff#\	.	.
4BB/	.	.	.	.	.	.	.	.	.	.	.	.	.	.	.	.	.	.	.	.	.	.	.	.	.	.	.	.	.	.	.
4EE/	.	.	4b\	.	.	4g#/)	.	4ee\)	.	4E\	.	.	.	.	.	4g#\	.	4ee\)	.	.	.	.	4e/	.	4b\	.	4g#/	.	4ee\)	.	.
!	!	!	!	!	!	!	!	!	!	!	!	!	!	!	!	!	!	!	!	!	!	!	!	!	!LO:LB:g=original	!	!	!	!	!	!
=18	=18	=18	=18	=18	=18	=18	=18	=18	=18	=18	=18	=18	=18	=18	=18	=18	=18	=18	=18	=18	=18	=18	=18	=18	=18	=18	=18	=18	=18	=18	=18
!	!	!	!	!	!	!	!	!	!LO:DY:b:t=po.	!	!	!	!	!	!	!	!	!	!	!	!	!	!	!	!	!	!LO:TX:a:t=2	!	!	!	!
4E\	3	.	4e\	.	1.ryy	4g#/	.	2.b\	p	0.r	.	.	0.r	.	.	0.r	.	(2.b\	Pa-	.	1.ryy	1.ryy	0.r	.	0.r	.	0.r	.	0.r	.	1.ryy
4D#X\	3	.	4d#X\	.	.	4f#/	.	.	.	.	.	.	.	.	.	.	.	.	.	.	.	.	.	.	.	.	.	.	.	.	.
4F#\	3	.	4f#\	.	.	4a/	.	.	.	.	.	.	.	.	.	.	.	.	.	.	.	.	.	.	.	.	.	.	.	.	.
4E\	3	.	4e\	.	.	4g#/	.	(4b\	.	.	.	.	.	.	.	.	.	4b\	.	.	.	.	.	.	.	.	.	.	.	.	.
4r	.	.	4r	.	.	4r	.	4ee\)	.	.	.	.	.	.	.	.	.	4ee\)	.	.	.	.	.	.	.	.	.	.	.	.	.
4G#\	.	.	4B/	.	.	4B/	.	4a/	.	.	.	.	.	.	.	.	.	4g#\	-ter	.	.	.	.	.	.	.	.	.	.	.	.
!	!	!	!LO:LB:g=original	!	!	!	!	!	!	!	!	!	!	!	!	!	!	!	!	!	!	!	!	!	!	!	!	!	!	!	!
=19	=19	=19	=19	=19	=19	=19	=19	=19	=19	=19	=19	=19	=19	=19	=19	=19	=19	=19	=19	=19	=19	=19	=19	=19	=19	=19	=19	=19	=19	=19	=19
4A\	.	.	4A/	.	1.ryy	(4c#/	.	(4f#/	.	.	.	.	.	.	.	.	.	4f#/	de	.	1.ryy	1.ryy	.	.	.	.	.	.	.	.	1.ryy
4G#\	.	.	4G#/	.	.	4B/)	.	4g#/	.	.	.	.	.	.	.	.	.	4g#/	Cae-	.	.	.	.	.	.	.	.	.	.	.	.
4F#\	.	.	4F#/	.	.	4A/	.	4a/)	.	.	.	.	.	.	.	.	.	4a/	-lis	.	.	.	.	.	.	.	.	.	.	.	.
2B\	4	.	2G#/	.	.	2B/	.	(2e/	.	.	.	.	.	.	.	.	.	2e/	De-	.	.	.	.	.	.	.	.	.	.	.	.
4BB/	#	.	4F#/	.	.	4B/	.	4d#X/)	.	.	.	.	.	.	.	.	.	4d#X/	-us	.	.	.	.	.	.	.	.	.	.	.	.
!LO:LB:g=original	!	!	!	!	!	!LO:LB:g=original	!	!	!	!	!	!	!	!	!	!	!	!	!	!	!	!	!	!	!	!	!	!	!	!	!
=20	=20	=20	=20	=20	=20	=20	=20	=20	=20	=20	=20	=20	=20	=20	=20	=20	=20	=20	=20	=20	=20	=20	=20	=20	=20	=20	=20	=20	=20	=20	=20
4BB/	#	.	4d#X\	.	1.ryy	4a\ 4ff#\	.	4f#\ 4b\ 4aa\	f	4BB/	Mi-	.	4A\	mi-	.	4f#\	Mi-	4dd#X\	mi-	.	1.ryy	1.ryy	4b\	.	4b\	.	4ff#\	.	4aa\	.	1.ryy
4r	.	.	4r	.	.	4r	.	16aa\LL	.	4r	.	.	4r	.	.	4r	.	4r	.	.	.	.	4r	.	4r	.	4r	.	(16aa\LL	.	.
.	.	.	.	.	.	.	.	(16gg#\	.	.	.	.	.	.	.	.	.	.	.	.	.	.	.	.	.	.	.	.	16gg#\	.	.
.	.	.	.	.	.	.	.	16ff#\	.	.	.	.	.	.	.	.	.	.	.	.	.	.	.	.	.	.	.	.	16ff#\	.	.
.	.	.	.	.	.	.	.	16ee\JJ)	.	.	.	.	.	.	.	.	.	.	.	.	.	.	.	.	.	.	.	.	16ee\JJ)	.	.
4BB/	.	.	4d#\	.	.	4a\ 4ff#\	.	(16dd#X\LL	.	4BB/	-se-	.	4A\	-se-	.	4f#\	-se-	4dd#\	-se-	.	.	.	4r	.	4r	.	4ff#\	.	16dd#X\LL	.	.
.	.	.	.	.	.	.	.	16cc#\	.	.	.	.	.	.	.	.	.	.	.	.	.	.	.	.	.	.	.	.	16cc#\	.	.
.	.	.	.	.	.	.	.	16b\	.	.	.	.	.	.	.	.	.	.	.	.	.	.	.	.	.	.	.	.	16b\	.	.
.	.	.	.	.	.	.	.	(16a\JJ)	.	.	.	.	.	.	.	.	.	.	.	.	.	.	.	.	.	.	.	.	(16a\JJ	.	.
4E\	.	.	4B/	.	.	4ee\	.	8g#\L	.	4E\	-re-	.	4B\	-re-	.	4g#\	-re-	4ee\	-re-	.	.	.	2e/	.	2b\	.	4ee\	.	8g#\L	.	.
.	.	.	.	.	.	.	.	8b\)	.	.	.	.	.	.	.	.	.	.	.	.	.	.	.	.	.	.	.	.	8b\)	.	.
4r	.	.	4r	.	.	4r	.	8ee|\	.	4r	.	.	4r	.	.	4r	.	4r	.	.	.	.	.	.	.	.	4r	.	8ee|\	.	.
.	.	.	.	.	.	.	.	8gg#|\	.	.	.	.	.	.	.	.	.	.	.	.	.	.	.	.	.	.	.	.	8gg#|\	.	.
4E\	.	.	4B/	.	.	4ee\	.	8bb|\	.	4E\	-re	.	4B\	-re	.	4g#\	-re	4ee\	-re	.	.	.	4e/	.	4b\	.	8ee\L	.	8bb|\	.	.
.	.	.	.	.	.	.	.	8gg#|\J	.	.	.	.	.	.	.	.	.	.	.	.	.	.	.	.	.	.	8b\J	.	8gg#|\J	.	.
=21	=21	=21	=21	=21	=21	=21	=21	=21	=21	=21	=21	=21	=21	=21	=21	=21	=21	=21	=21	=21	=21	=21	=21	=21	=21	=21	=21	=21	=21	=21	=21
4A\	.	.	4c#/	.	1.ryy	4ff#\	.	(8ff#\L	.	4A\	no-	.	(4c#\	no-	.	(4a\	no-	(4ff#\	no-	.	1.ryy	1.ryy	4a\	.	4cc#\	.	4a/	.	4ff#\	.	1.ryy
.	.	.	.	.	.	.	.	8aa\)	.	.	.	.	.	.	.	.	.	.	.	.	.	.	.	.	.	.	.	.	.	.	.
4B\	.	.	4B/	.	.	8ee\L	.	8gg#|\	.	4B\	.	.	1B\)	.	.	4g#\)	.	4ee\)	.	.	.	.	4b\	.	4b\	.	4g#/	.	4ee\	.	.
.	.	.	.	.	.	8g#\	.	8ee|\	.	.	.	.	.	.	.	.	.	.	.	.	.	.	.	.	.	.	.	.	.	.	.
4BB/	#	.	4B/	.	.	8f#\	.	8dd#X|\	.	4BB/	.	.	.	.	.	4f#\	.	4dd#X\	.	.	.	.	4b\	.	4b\	.	4f#/	.	4dd#X\	.	.
.	.	.	.	.	.	8a\J	.	8ff#|\J	.	.	.	.	.	.	.	.	.	.	.	.	.	.	.	.	.	.	.	.	.	.	.
!	!	!	!	!	!	!	!	!	!	!	!	!	!	!	!	!	!	!	!	!	!	!	!	!	!	!	!	!	!LO:LB:g=original	!	!
4E\	.	.	2b\	.	.	2a/	.	2ff#\	.	4E\	.	.	.	.	.	2f#\	.	2dd#\	.	.	.	.	2b\	.	2b\	.	2f#/	.	2dd#\	.	.
4BB/	.	.	.	.	.	.	.	.	.	4BB/	.	.	.	.	.	.	.	.	.	.	.	.	.	.	.	.	.	.	.	.	.
4EE/ 4E/	.	.	4b\	.	.	4g#/	.	4ee\	.	4E\	-bis	.	4B\	-bis	.	4g#\	-bis	4ee\	-bis	.	.	.	4b\	.	4b\	.	4g#/	.	4ee\	.	.
!	!	!	!	!	!	!	!	!	!	!LO:LB:g=original	!	!	!	!	!	!	!	!	!	!	!	!	!	!	!	!	!	!	!	!	!
=22	=22	=22	=22	=22	=22	=22	=22	=22	=22	=22	=22	=22	=22	=22	=22	=22	=22	=22	=22	=22	=22	=22	=22	=22	=22	=22	=22	=22	=22	=22	=22
!LO:TX:t=P:problem=przed nutą jeden skreślony takt	!	!	!	!	!	!	!	!	!	!	!	!	!	!	!	!	!	!	!	!	!	!	!	!	!	!	!	!	!	!	!
4E\	.	.	4B/	.	1.ryy	4g#/	.	4b/	p	0.r	.	.	4B\	Fi-	.	0.r	.	0.r	.	.	1.ryy	1.ryy	00.r	.	00.r	.	0.r	.	0.r	.	1.ryy
4r	.	.	4G#/	.	.	4e/	.	4g#/	.	.	.	.	4G#/	-li	.	.	.	.	.	.	.	.	.	.	.	.	.	.	.	.	.
4r	.	.	4B/	.	.	4g#/	.	(4b/	.	.	.	.	4B\	Re-	.	.	.	.	.	.	.	.	.	.	.	.	.	.	.	.	.
2E\	.	.	4B/	.	.	2g#/	.	4b\	.	.	.	.	(4B\	-dem-	.	.	.	.	.	.	.	.	.	.	.	.	.	.	.	.	.
.	.	.	4r	.	.	.	.	4ee\)	.	.	.	.	4e\)	.	.	.	.	.	.	.	.	.	.	.	.	.	.	.	.	.	.
4G#\	.	.	4B/	.	.	4B/	.	4g#/	.	.	.	.	4G#/	-ptor	.	.	.	.	.	.	.	.	.	.	.	.	.	.	.	.	.
!	!	!	!	!	!	!	!	!LO:LB:g=original	!	!	!	!	!	!	!	!	!	!	!	!	!	!	!	!	!	!	!	!	!	!	!
=23	=23	=23	=23	=23	=23	=23	=23	=23	=23	=23	=23	=23	=23	=23	=23	=23	=23	=23	=23	=23	=23	=23	=23	=23	=23	=23	=23	=23	=23	=23	=23
4A\	.	.	4A/	.	1.ryy	4c#/	.	4f#/	.	.	.	.	4F#/	mun-	.	.	.	.	.	.	1.ryy	1.ryy	.	.	.	.	.	.	.	.	1.ryy
4G#\	.	.	4G#/	.	.	4B/	.	4g#/	.	.	.	.	4G#/	.	.	.	.	.	.	.	.	.	.	.	.	.	.	.	.	.	.
4F#\	.	.	4F#/	.	.	4A/	.	4a/	.	.	.	.	4A/	-di	.	.	.	.	.	.	.	.	.	.	.	.	.	.	.	.	.
2B\	.	.	2G#/	.	.	2B/	.	(2e/	.	.	.	.	2E/	de-	.	.	.	.	.	.	.	.	.	.	.	.	.	.	.	.	.
4BB/	#	.	4F#/	.	.	4B/	.	4d#X/)	.	.	.	.	4D#X/	-us	.	.	.	.	.	.	.	.	.	.	.	.	.	.	.	.	.
!	!	!	!	!	!	!	!	!	!	!	!	!	!	!	!	!	!	!LO:LB:g=original	!	!	!	!	!	!	!	!	!	!	!	!	!
=24	=24	=24	=24	=24	=24	=24	=24	=24	=24	=24	=24	=24	=24	=24	=24	=24	=24	=24	=24	=24	=24	=24	=24	=24	=24	=24	=24	=24	=24	=24	=24
!LO:TX:t=P:problem=mixed beam	!	!	!	!	!	!	!	!	!	!	!	!	!	!	!	!	!	!	!	!	!	!	!	!	!	!	!	!	!	!	!
(8AA#X/L	5 3	.	2a#X\	.	1.ryy	2cc#\	.	2ee\	f	1F#\	Spi-	.	(2.A#X\	Spi-	.	(2.cc#\	Spi-	2.ee\	Spi-	.	1.ryy	1.ryy	.	.	.	.	1.f#/	.	1.ff#\	.	1.ryy
8F#\)	.	.	.	.	.	.	.	.	.	.	.	.	.	.	.	.	.	.	.	.	.	.	.	.	.	.	.	.	.	.	.
(8AA#/	.	.	.	.	.	.	.	.	.	.	.	.	.	.	.	.	.	.	.	.	.	.	.	.	.	.	.	.	.	.	.
8F#\)	.	.	.	.	.	.	.	.	.	.	.	.	.	.	.	.	.	.	.	.	.	.	.	.	.	.	.	.	.	.	.
(8AA#/	.	.	4a#|\	.	.	4cc#|\	.	4ee|\	.	.	.	.	.	.	.	.	.	.	.	.	.	.	.	.	.	.	.	.	.	.	.
8F#\J)	.	.	.	.	.	.	.	.	.	.	.	.	.	.	.	.	.	.	.	.	.	.	.	.	.	.	.	.	.	.	.
!LO:LB:g=original	!	!	!	!	!	!	!	!	!	!	!	!	!	!	!	!	!	!	!	!	!	!	!	!	!	!	!	!	!	!	!
(8BB/L	#	.	(4b\	.	.	(4b\	.	(4dd#X\	.	.	.	.	4B\	-ri-	.	4b\)	.	(4dd#X\	-ri-	.	.	.	.	.	.	.	.	.	.	.	.
8F#/)	.	.	.	.	.	.	.	.	.	.	.	.	.	.	.	.	.	.	.	.	.	.	.	.	.	.	.	.	.	.	.
(8C#/	.	.	4cc#\	.	.	4e/)	.	4cc#\)	.	4F#\	-ri-	.	4c#\	-tus	.	4e\	-ri-	4cc#\)	.	.	.	.	.	.	.	.	.	.	.	.	.
8F#/)	.	.	.	.	.	.	.	.	.	.	.	.	.	.	.	.	.	.	.	.	.	.	.	.	.	.	.	.	.	.	.
(8D#X/	.	.	4dd#X\)	.	.	4d#X/	.	4b|\	.	4F#\	-tus	.	4d#X\)	.	.	4d#X\	-tus	4b\	-tus	.	.	.	.	.	.	.	.	.	.	.	.
8F#/J)	.	.	.	.	.	.	.	.	.	.	.	.	.	.	.	.	.	.	.	.	.	.	.	.	.	.	.	.	.	.	.
!	!	!	!	!	!	!	!	!	!	!	!	!	!LO:LB:g=original	!	!	!	!	!	!	!	!	!	!	!	!	!	!	!	!	!	!
=25	=25	=25	=25	=25	=25	=25	=25	=25	=25	=25	=25	=25	=25	=25	=25	=25	=25	=25	=25	=25	=25	=25	=25	=25	=25	=25	=25	=25	=25	=25	=25
(8E\L	4+ 2	.	2ee\	.	1.ryy	2c#/	.	2a#X/	.	(1F#\	San-	.	2.e\	San-	.	(2.c#\	Sanc-	(2.a#X\	San-	.	1.ryy	1.ryy	.	.	.	.	1.f#/	.	1.ff#\	.	1.ryy
8F#\)	.	.	.	.	.	.	.	.	.	.	.	.	.	.	.	.	.	.	.	.	.	.	.	.	.	.	.	.	.	.	.
(8E\	.	.	.	.	.	.	.	.	.	.	.	.	.	.	.	.	.	.	.	.	.	.	.	.	.	.	.	.	.	.	.
8F#\)	.	.	.	.	.	.	.	.	.	.	.	.	.	.	.	.	.	.	.	.	.	.	.	.	.	.	.	.	.	.	.
(8E\	.	.	4ee\	.	.	4c#/	.	4a#|/	.	.	.	.	.	.	.	.	.	.	.	.	.	.	.	.	.	.	.	.	.	.	.
8F#\J)	.	.	.	.	.	.	.	.	.	.	.	.	.	.	.	.	.	.	.	.	.	.	.	.	.	.	.	.	.	.	.
8D#X\L	.	.	(4dd#X\	.	.	4d#X/	.	(4b\	.	.	.	.	(4d#X\	.	.	4d#X\)	-te	4b\	.	.	.	.	.	.	.	.	.	.	.	.	.
8F#\	.	.	.	.	.	.	.	.	.	.	.	.	.	.	.	.	.	.	.	.	.	.	.	.	.	.	.	.	.	.	.
8C#\	.	.	4cc#\)	.	.	4a#X/	.	4cc#\)	.	4F#\)	-cte	.	4c#\	.	.	4a#X\	.	4cc#\)	.	.	.	.	.	.	.	.	.	.	.	.	.
8F#\	.	.	.	.	.	.	.	.	.	.	.	.	.	.	.	.	.	.	.	.	.	.	.	.	.	.	.	.	.	.	.
8BB\	.	.	4b|\	.	.	4b/	.	4dd|\	.	4F#\	.	.	4B\)	-cte	.	4b\	.	4dd#X\	-cte	.	.	.	.	.	.	.	.	.	.	.	.
8F#\J	#	.	.	.	.	.	.	.	.	.	.	.	.	.	.	.	.	.	.	.	.	.	.	.	.	.	.	.	.	.	.
!	!	!	!	!	!	!	!	!	!	!	!	!	!	!	!	!	!	!	!	!	!	!	!	!	!	!	!LO:LB:g=original	!	!	!	!
=26	=26	=26	=26	=26	=26	=26	=26	=26	=26	=26	=26	=26	=26	=26	=26	=26	=26	=26	=26	=26	=26	=26	=26	=26	=26	=26	=26	=26	=26	=26	=26
!LO:TX:t=P:problem=mixed beam	!	!	!	!	!	!	!	!	!	!LO:N:vis=2	!	!	!	!	!	!	!	!	!	!	!	!	!	!	!	!	!	!	!	!	!
8AA#X/L	5 3	.	(2a#X\	.	1.ryy	2cc#\	.	2ee\	.	1F#\	de-	.	2.A#X\	de-	.	2.cc#\	De-	(2.ee\	de-	.	1.ryy	1.ryy	00.r	.	00.r	.	1.f#/	.	1.ff#\	.	1.ryy
8F#\	.	.	.	.	.	.	.	.	.	.	.	.	.	.	.	.	.	.	.	.	.	.	.	.	.	.	.	.	.	.	.
8AA#/	.	.	.	.	.	.	.	.	.	.	.	.	.	.	.	.	.	.	.	.	.	.	.	.	.	.	.	.	.	.	.
8F#\	.	.	.	.	.	.	.	.	.	.	.	.	.	.	.	.	.	.	.	.	.	.	.	.	.	.	.	.	.	.	.
8AA#/	.	.	4a#\)	.	.	4cc#\	.	4ee|\	.	.	.	.	.	.	.	.	.	.	.	.	.	.	.	.	.	.	.	.	.	.	.
8F#\J	.	.	.	.	.	.	.	.	.	.	.	.	.	.	.	.	.	.	.	.	.	.	.	.	.	.	.	.	.	.	.
!	!	!	!LO:LB:g=original	!	!	!	!	!	!	!	!	!	!	!	!	!	!	!	!	!	!	!	!	!	!	!	!	!	!	!	!
8BB/L	#	.	4b\	.	.	4b\	.	(4dd#X\	.	.	.	.	(4B\	.	.	(4b\	.	4dd#X\	.	.	.	.	.	.	.	.	.	.	.	.	.
8F#/	.	.	.	.	.	.	.	.	.	.	.	.	.	.	.	.	.	.	.	.	.	.	.	.	.	.	.	.	.	.	.
8C#/	.	.	4cc#\	.	.	4e/	.	4cc#\)	.	4F#\	.	.	4c#\	.	.	4e\)	-us	4cc#\)	.	.	.	.	.	.	.	.	.	.	.	.	.
8F#/	.	.	.	.	.	.	.	.	.	.	.	.	.	.	.	.	.	.	.	.	.	.	.	.	.	.	.	.	.	.	.
8D#X/	.	.	4dd#X\	.	.	4d#X/	.	4b|\	.	4F#\	-us	.	4d#X\)	-us	.	4d#X\	.	4b\	-us	.	.	.	.	.	.	.	.	.	.	.	.
8F#/J	.	.	.	.	.	.	.	.	.	.	.	.	.	.	.	.	.	.	.	.	.	.	.	.	.	.	.	.	.	.	.
=27	=27	=27	=27	=27	=27	=27	=27	=27	=27	=27	=27	=27	=27	=27	=27	=27	=27	=27	=27	=27	=27	=27	=27	=27	=27	=27	=27	=27	=27	=27	=27
4E\	3	.	4ee\	.	1.ryy	4c#|/	.	4gg#|\	.	4E\	mi-	.	4e\	mi-	.	4cc#\	Mi-	4gg#\	mi-	.	1.ryy	1.ryy	.	.	.	.	4e/	.	4gg#\	.	1.ryy
!	!	!	!	!	!	!	!	!	!LO:DY:t=p	!	!	!	!	!	!	!	!	!	!	!	!	!	!	!	!	!	!	!	!	!	!
4r	.	.	4r	.	.	(4d#X/	.	(4b#X\	p	4r	.	.	4r	.	.	4r	.	4r	.	.	.	.	.	.	.	.	4r	.	4r	.	.
4r	.	.	4r	.	.	4e/)	.	4cc#\)	.	4r	.	.	4r	.	.	4r	.	4r	.	.	.	.	.	.	.	.	4r	.	4r	.	.
4D#X\	7	.	4dd#X\	.	.	4B|/	.	4ff#|\	f	4D#X\	-se-	.	4d#X\	-se-	.	4b\	-se-	4ff#\	-se-	.	.	.	.	.	.	.	4dd#X\	.	4ff#\	.	.
4r	.	.	4r	.	.	(4A#X/	.	(4a#X/	p	4r	.	.	4r	.	.	4r	.	4r	.	.	.	.	.	.	.	.	4r	.	4r	.	.
4r	.	.	4r	.	.	4B/)	.	4b#/)	.	4r	.	.	4r	.	.	4r	.	4r	.	.	.	.	.	.	.	.	4r	.	4r	.	.
!	!	!	!	!	!	!LO:LB:g=original	!	!	!	!	!	!	!	!	!	!LO:LB:g=original	!	!	!	!	!	!	!	!	!	!	!	!	!	!	!
=28	=28	=28	=28	=28	=28	=28	=28	=28	=28	=28	=28	=28	=28	=28	=28	=28	=28	=28	=28	=28	=28	=28	=28	=28	=28	=28	=28	=28	=28	=28	=28
*	*	*	*	*	*	*^	*	*	*	*	*	*	*	*	*	*	*	*	*	*	*	*	*	*	*	*	*	*	*	*	*
*	*	*	*	*	*	*	*Xcue	*	*	*	*	*	*	*	*	*	*	*	*	*	*	*	*	*	*	*	*	*	*	*	*	*
!LO:TX:t=P:problem=mixed beam	!	!	!	!	!	!	!	!	!	!	!	!	!	!	!	!	!	!	!	!	!	!	!	!	!	!	!	!	!	!	!	!
8C#/L	3	.	8r	.	1.ryy	2cc#/	2f#\	.	2ee\	f	8r	.	.	2F#/	-re-	.	2cc#\	-re-	2ee\	-re-	.	1.ryy	1.ryy	.	.	.	.	2cc#\	.	2ee\	.	1.ryy
(8c#\	.	.	8cc#|\L	.	.	.	.	.	.	.	8c#\L	-re-	.	.	.	.	.	.	.	.	.	.	.	.	.	.	.	.	.	.	.	.
8B\	.	.	8b|\	.	.	.	.	.	.	.	8B\	.	.	.	.	.	.	.	.	.	.	.	.	.	.	.	.	.	.	.	.	.
8A#X\	.	.	8a#X|\	.	.	.	.	.	.	.	8A#X\J	-re	.	.	.	.	.	.	.	.	.	.	.	.	.	.	.	.	.	.	.	.
8G#\)	.	.	8g#|\	.	.	4cc#/	4f#\	.	4ee\	.	8G#\L	no-	.	4F#/	-re	.	4cc#\	-re	4ee\	-re	.	.	.	.	.	.	.	4cc#\	.	4ee\	.	.
8F#\J	.	.	8f#|\J	.	.	.	.	.	.	.	8F#\J	.	.	.	.	.	.	.	.	.	.	.	.	.	.	.	.	.	.	.	.	.
4B\	.	.	4f#|\	.	.	4b/	4f#\	.	4dd#X\	.	4B\	.	.	4F#/	no-	.	(4b\	.	(4dd#X\	no-	.	.	.	.	.	.	.	4b\	.	4dd#X\	.	.
4E\	.	.	4e|\	.	.	4ee\	2r\yy	.	4gg#\	.	4E\	.	.	4A#X\	.	.	4ee\	no-	4gg#\	.	.	.	.	.	.	.	.	4r	.	4r	.	.
4D#X\	.	.	4d#X|\	.	.	4dd#X\	.	.	4ff#\	.	4D#X\	.	.	4B\	.	.	4dd#X\)	.	4ff#\	.	.	.	.	.	.	.	.	4r	.	4r	.	.
*	*	*	*	*	*	*v	*v	*	*	*	*	*	*	*	*	*	*	*	*	*	*	*	*	*	*	*	*	*	*	*	*	*
!LO:LB:g=original	!	!	!	!	!	!	!	!	!	!	!	!	!	!	!	!	!	!	!	!	!	!	!	!	!	!	!	!	!	!	!
=29	=29	=29	=29	=29	=29	=29	=29	=29	=29	=29	=29	=29	=29	=29	=29	=29	=29	=29	=29	=29	=29	=29	=29	=29	=29	=29	=29	=29	=29	=29	=29
4E\	6	.	4e\	.	1.ryy	4cc#\	.	4ee\	.	4E\	.	.	(4G#/	.	.	4cc#\	-bis	4ee\	.	.	1.ryy	1.ryy	.	.	.	.	4r	.	4r	.	1.ryy
4F#\	6\ 4	.	4f#\	.	.	4b\	.	4dd#X\	.	4F#\	.	.	4F#/)	-bis	.	4b\	.	4dd\)	.	.	.	.	.	.	.	.	4r	.	4r	.	.
4F#\	5 #	.	4F#/	.	.	4a#X\	.	4cc#\	.	4F#\	-bis	.	4F#/	.	.	4a#X\	.	4cc#\	-bis	.	.	.	.	.	.	.	4r	.	4r	.	.
!	!	!	!	!	!	!	!	!	!	!LO:LB:g=original	!	!	!	!	!	!	!	!	!	!	!	!	!	!	!	!	!	!	!	!	!
4BB/	5 #	.	4d#X\	.	.	4dd#X\	.	4ff#\	.	4BB/	mi-	.	4D#X/	mi-	.	(4dd#X\	Mi-	(4ff#\	mi-	.	.	.	.	.	.	.	4dd#X\	.	4ff#\	.	.
4C#/	.	.	4e\	.	.	4cc#\	.	4ee\	.	4C#/	-se-	.	4E/	-se-	.	4cc#\)	-se-	4ee\)	.	.	.	.	.	.	.	.	4cc#\	.	4ee\	.	.
4D#X\	6\	.	4f#\	.	.	4b\	.	4dd#X\	.	4D#X/	.	.	4F#/	.	.	4b\	.	4dd#X\	-se-	.	.	.	.	.	.	.	4b\	.	4dd#X\	.	.
!	!	!	!	!	!	!	!	!LO:LB:g=original	!	!	!	!	!	!	!	!	!	!	!	!	!	!	!	!	!	!	!	!	!	!	!
=30	=30	=30	=30	=30	=30	=30	=30	=30	=30	=30	=30	=30	=30	=30	=30	=30	=30	=30	=30	=30	=30	=30	=30	=30	=30	=30	=30	=30	=30	=30	=30
4E\	6	.	4g#\	.	1.ryy	4e/	.	4cc#\	.	4E\	-re-	.	4G#/	-re-	.	4e\	-re-	(4cc#\	-re-	.	1.ryy	1.ryy	00.r	.	1.r	.	4e/	.	4cc#\	.	1.ryy
4F#\	6 4	.	4f#\	.	.	4d#X/	.	4b\	.	4F#\	.	.	4F#/	.	.	4d#X\	-re	4b\)	.	.	.	.	.	.	.	.	4f#/	.	4b\	.	.
4FF#/	5 #	.	4f#\	.	.	4c#/	.	4a#X\	.	4FF#/	-re	.	4F#/	-re	.	4c#\	.	4a#X|\	-re	.	.	.	.	.	.	.	4f#/	.	4a#X\	.	.
8.BB/L	#	.	8.d#X\L	.	.	8.dd#X\L	.	8.ff#\L	.	4BB/	.	.	4D#X/	no-	.	4dd#X\	.	4ff#\	no-	.	.	.	.	.	.	.	8.dd#X\L	.	8.ff#\L	.	.
16BB/Jk	.	.	16d#\Jk	.	.	16dd#\Jk	.	16ee\Jk	.	.	.	.	.	.	.	.	.	.	.	.	.	.	.	.	.	.	16dd#\Jk	.	16ff#\Jk	.	.
8.C#/L	.	.	8.e\L	.	.	8.cc#\L	.	8.ee\L	.	4C#/	no:	.	4E/	.	.	4cc#\	no-	(4ee\	.	.	.	.	.	.	.	.	8.cc#\L	.	8.ee\L	.	.
16C#/Jk	.	.	16e\Jk	.	.	16cc#\Jk	.	16ee\Jk	.	.	.	.	.	.	.	.	.	.	.	.	.	.	.	.	.	.	16cc#\Jk	.	16ee\Jk	.	.
8.D#X\L	6\	.	8.f#\L	.	.	8.b\L	.	8.dd#X\L	.	4D#X/	.	.	4F#/	.	.	4b\	.	4dd#X\)	.	.	.	.	.	.	.	.	8.b\L	.	8.dd#X\L	.	.
16D#\Jk	.	.	16f#\Jk	.	.	16b\Jk	.	16dd#\Jk	.	.	.	.	.	.	.	.	.	.	.	.	.	.	.	.	.	.	16b\Jk	.	16dd#\Jk	.	.
!	!	!	!	!	!	!	!	!	!	!	!	!	!LO:LB:g=original	!	!	!	!	!LO:LB:g=original	!	!	!	!	!	!	!	!	!	!	!	!	!
=31	=31	=31	=31	=31	=31	=31	=31	=31	=31	=31	=31	=31	=31	=31	=31	=31	=31	=31	=31	=31	=31	=31	=31	=31	=31	=31	=31	=31	=31	=31	=31
*	*	*	*	*	*	*	*	*^	*	*	*	*	*	*	*	*	*	*	*	*	*	*	*	*	*	*	*	*	*	*	*
8.E\L	.	.	8.g#\L	.	1.ryy	8.e/L	.	8.cc#\L	1ryy\	.	4E\	.	.	4G#/	.	.	4e\	.	4cc#\	.	.	1.ryy	1.ryy	.	.	2r	.	8.ee\L	.	8.cc#/L	.	1.ryy
16E\Jk	.	.	16g#\Jk	.	.	16e/Jk	.	16cc#\Jk	.	.	.	.	.	.	.	.	.	.	.	.	.	.	.	.	.	.	.	16ee\Jk	.	16cc#/Jk	.	.
8.F#\L	.	.	4f#\	.	.	8.d#X/L	.	8.b\L	.	.	4F#\	.	.	4F#/	.	.	(4d#X\	.	4b\	.	.	.	.	.	.	.	.	8.dd#X\L	.	8.b/L	.	.
16F#\Jk	.	.	.	.	.	16d#/Jk	.	16b\Jk	.	.	.	.	.	.	.	.	.	.	.	.	.	.	.	.	.	.	.	16dd#\Jk	.	16b/Jk	.	.
8.F#\L	.	.	4f#\	.	.	8.c#/L	.	8.a#X\L	.	.	4FF#/	.	.	4F#/	.	.	4c#\)	.	4a#X\	.	.	.	.	.	.	4r	.	8.cc#\L	.	8.a#X/L	.	.
16F#\Jk	.	.	.	.	.	16c#/Jk	.	16a#\Jk	.	.	.	.	.	.	.	.	.	.	.	.	.	.	.	.	.	.	.	16cc#\Jk	.	16a#/Jk	.	.
4BB/	.	.	4f#\	.	.	4d#/	.	4b\	.	.	4BB/	.	.	4F#/	-bis	.	4d#\	-bis	4b\	-bis	.	.	.	.	.	4r	.	4b|\	.	4b|\	.	.
!	!	!	!	!	!	!	!	!	!	!	!	!	!	!	!	!	!	!	!	!	!	!	!	!	!	!LO:TX:a:i:t=Solo	!	!	!	!LO:TX:a:i:t=Solo	!	!
4r	.	.	4r	.	.	4r	.	4rg	4b/	.	4r	.	.	4r	.	.	4r	.	4r	.	.	.	.	.	.	4b\	.	4b|\	.	4b|\	.	.
!	!	!	!	!	!	!	!	!LO:TX:t=P:problem=brak ostatniej wartości w takcie	!	!	!	!	!	!	!	!	!	!	!	!	!	!	!	!	!	!	!	!	!	!	!	!
4r	.	.	4r	.	.	4r	.	4eee/yy	4b/	.	4r	.	.	4r	.	.	4r	.	4r	.	.	.	.	.	.	4b\	.	4b|\	.	4b|\	.	.
!	!	!	!	!	!	!	!	!	!	!	!	!	!	!	!	!	!	!	!	!	!	!	!	!	!	!	!	!	!	!LO:LB:g=original	!	!
=32	=32	=32	=32	=32	=32	=32	=32	=32	=32	=32	=32	=32	=32	=32	=32	=32	=32	=32	=32	=32	=32	=32	=32	=32	=32	=32	=32	=32	=32	=32	=32	=32
4r	.	.	4r	.	1.ryy	4r	.	4rg	4b/	.	0.r	.	.	00.r	.	.	00.r	.	00.r	.	.	1.ryy	1.ryy	.	.	4b\	.	4b|\	.	4b|\	.	1.ryy
4r	.	.	4r	.	.	4r	.	4rg	4b/	.	.	.	.	.	.	.	.	.	.	.	.	.	.	.	.	4b\	.	4b|\	.	4b|\	.	.
4r	.	.	4r	.	.	4r	.	4rg	4b/	.	.	.	.	.	.	.	.	.	.	.	.	.	.	.	.	4b\	.	4b|\	.	4b|\	.	.
!	!	!	!LO:LB:g=original	!	!	!	!	!	!	!	!	!	!	!	!	!	!	!	!	!	!	!	!	!	!	!	!	!	!	!	!	!
!LO:TX:b:i:t=pedal	!	!	!	!	!	!	!	!	!	!	!	!	!	!	!	!	!	!	!	!	!	!	!	!	!	!	!	!	!	!	!	!
2BB/	.	.	(8d#X\L	.	.	(8f#/L	.	2bb\	2ryy	p	.	.	.	.	.	.	.	.	.	.	.	.	.	.	.	2.b\	.	(2f#/	.	(2dd#X\	.	.
.	.	.	8c#\	.	.	8e/)	.	.	.	.	.	.	.	.	.	.	.	.	.	.	.	.	.	.	.	.	.	.	.	.	.	.
.	.	.	8d#|\)	.	.	8f#|/	.	.	.	.	.	.	.	.	.	.	.	.	.	.	.	.	.	.	.	.	.	.	.	.	.	.
.	.	.	8e|\	.	.	8g#|/	.	.	.	.	.	.	.	.	.	.	.	.	.	.	.	.	.	.	.	.	.	.	.	.	.	.
4r	.	.	(8f#|\	.	.	8an|/	.	4ryy	4r	.	.	.	.	.	.	.	.	.	.	.	.	.	.	.	.	.	.	4an/)	.	4ff#\)	.	.
.	.	.	8d#|\J)	.	.	8f#|/J	.	.	.	.	.	.	.	.	.	.	.	.	.	.	.	.	.	.	.	.	.	.	.	.	.	.
*	*	*	*	*	*	*	*	*v	*v	*	*	*	*	*	*	*	*	*	*	*	*	*	*	*	*	*	*	*	*	*	*	*
=33	=33	=33	=33	=33	=33	=33	=33	=33	=33	=33	=33	=33	=33	=33	=33	=33	=33	=33	=33	=33	=33	=33	=33	=33	=33	=33	=33	=33	=33	=33	=33
2E\	.	.	(8e\L	.	1.ryy	(8g#/L	.	2bb\	.	.	.	.	.	.	.	.	.	.	.	.	1.ryy	1.ryy	.	.	1.b\	.	(2g#/	.	(2ee\	.	1.ryy
.	.	.	8d#X\	.	.	8f#/)	.	.	.	.	.	.	.	.	.	.	.	.	.	.	.	.	.	.	.	.	.	.	.	.	.
.	.	.	8e\)	.	.	8g#|/	.	.	.	.	.	.	.	.	.	.	.	.	.	.	.	.	.	.	.	.	.	.	.	.	.
.	.	.	8f#|\J	.	.	8a|/J	.	.	.	.	.	.	.	.	.	.	.	.	.	.	.	.	.	.	.	.	.	.	.	.	.
4r	.	.	4g#\	.	.	4b|\	.	4r	.	.	.	.	.	.	.	.	.	.	.	.	.	.	.	.	.	.	4b/)	.	4gg#\)	.	.
!	!	!	!	!	!	!	!	!	!	!	!	!	!	!	!	!	!	!	!	!	!	!	!	!	!	!	!LO:LB:g=original	!	!	!	!
4E\	.	.	(8g#\L	.	.	(8b/L	.	2bb\	.	.	.	.	.	.	.	.	.	.	.	.	.	.	.	.	.	.	(4b/	.	(4gg#\	.	.
.	.	.	8e\)	.	.	8g#/)	.	.	.	.	.	.	.	.	.	.	.	.	.	.	.	.	.	.	.	.	.	.	.	.	.
4D#X\	.	.	(8f#\	.	.	(8a/	.	.	.	.	.	.	.	.	.	.	.	.	.	.	.	.	.	.	.	.	4a/)	.	4ff#\)	.	.
.	.	.	8d#\)	.	.	(8f#/)	.	.	.	.	.	.	.	.	.	.	.	.	.	.	.	.	.	.	.	.	.	.	.	.	.
4E\	.	.	(8e\	.	.	(8g#/)	.	4r	.	.	.	.	.	.	.	.	.	.	.	.	.	.	.	.	.	.	4g#|/	.	4ee|\	.	.
.	.	.	8c#\J)	.	.	8e/J)	.	.	.	.	.	.	.	.	.	.	.	.	.	.	.	.	.	.	.	.	.	.	.	.	.
!LO:LB:g=original	!	!	!	!	!	!LO:LB:g=original	!	!	!	!	!	!	!	!	!	!	!	!	!	!	!	!	!	!	!	!	!	!	!	!	!
=34	=34	=34	=34	=34	=34	=34	=34	=34	=34	=34	=34	=34	=34	=34	=34	=34	=34	=34	=34	=34	=34	=34	=34	=34	=34	=34	=34	=34	=34	=34	=34
4BB/	.	.	4d#X\	.	1.ryy	4f#/	.	4bb\	.	4r	.	.	.	.	.	.	.	.	.	.	1.ryy	1.ryy	0.r	.	4b\	.	4f#/	.	4dd#X|\	.	1.ryy
4BB/	.	.	4d#\	.	.	4f#/	.	4bb\	f	4r	.	.	.	.	.	.	.	.	.	.	.	.	.	.	4b\	.	4f#/	.	4dd#|\	.	.
4BB/	.	.	4d#\	.	.	4f#/	.	4bb\	.	4r	.	.	.	.	.	.	.	.	.	.	.	.	.	.	4b\	.	4f#/	.	4dd#|\	.	.
!	!	!	!	!	!	!LO:TX:t=P:problem=półnuta zaczerniona	!	!	!	!	!	!	!	!	!	!	!	!	!	!	!	!	!	!	!	!	!	!	!	!	!
2BB/	.	.	2d#\	.	.	2f#/	.	2bb\	.	4r	.	.	.	.	.	.	.	.	.	.	.	.	.	.	2b\	.	2f#/	.	2dd#\	.	.
.	.	.	.	.	.	.	.	.	.	4r	.	.	.	.	.	.	.	.	.	.	.	.	.	.	.	.	.	.	.	.	.
!	!	!	!	!	!	!	!	!	!LO:DY:t=p	!LO:TX:a:i:t=S&colon;	!	!	!	!	!	!	!	!	!	!	!	!	!	!	!	!	!	!	!	!	!
4r	.	.	4r	.	.	4r	.	4G#/	p	4BB/	San-	.	.	.	.	.	.	.	.	.	.	.	.	.	4r	.	4r	.	4r	.	.
=35	=35	=35	=35	=35	=35	=35	=35	=35	=35	=35	=35	=35	=35	=35	=35	=35	=35	=35	=35	=35	=35	=35	=35	=35	=35	=35	=35	=35	=35	=35	=35
!LO:TX:b:i:t=organo	!	!	!	!	!	!	!	!	!	!	!	!	!	!	!	!	!	!	!	!	!	!	!	!	!	!	!	!	!	!	!
2E\	.	.	2B/	.	1.ryy	2G#/	.	(2e/	.	2E\	-cta	.	.	.	.	.	.	.	.	.	1.ryy	1.ryy	.	.	0.r	.	0.r	.	0.r	.	1.ryy
!	!	!	!	!	!	!LO:TX:t=P::problem=staccata nierówno&colon; dwa nad pierwszą ćwiercią, nad ostatnią już nie ma. 	!	!	!	!	!	!	!	!	!	!	!	!	!	!	!	!	!	!	!	!	!	!	!	!	!
4BB/	#	.	4B/	.	.	4A'/	.	8f#/L	.	8F#\L	.	.	.	.	.	.	.	.	.	.	.	.	.	.	.	.	.	.	.	.	.
.	.	.	.	.	.	.	.	8d#X/J)	.	8D#X\J	.	.	.	.	.	.	.	.	.	.	.	.	.	.	.	.	.	.	.	.	.
4EE/	.	.	4B/	.	.	4G#'/	.	4e|/	.	4E\	Tri-	.	.	.	.	.	.	.	.	.	.	.	.	.	.	.	.	.	.	.	.
4r	.	.	4r	.	.	4B'/	.	4b|/	.	4B\	-ni-	.	.	.	.	.	.	.	.	.	.	.	.	.	.	.	.	.	.	.	.
4B\	.	.	4B/	.	.	4G#'/	.	4g#|/	.	4G#\	-tas	.	.	.	.	.	.	.	.	.	.	.	.	.	.	.	.	.	.	.	.
!	!	!	!	!	!	!	!	!	!	!LO:LB:g=original	!	!	!	!	!	!	!	!	!	!	!	!	!	!	!	!	!	!	!	!	!
=36	=36	=36	=36	=36	=36	=36	=36	=36	=36	=36	=36	=36	=36	=36	=36	=36	=36	=36	=36	=36	=36	=36	=36	=36	=36	=36	=36	=36	=36	=36	=36
4A\	.	.	4A/	.	1.ryy	4c#/	.	4f#/	.	4F#\	u-	.	1.r	.	.	1.r	.	1.r	.	.	1.ryy	1.ryy	1.r	.	.	.	.	.	.	.	1.ryy
4G#\	.	.	4G#/	.	.	4B/	.	4g#/	.	4G#\	-nos	.	.	.	.	.	.	.	.	.	.	.	.	.	.	.	.	.	.	.	.
4F#\	.	.	4F#/	.	.	4A/	.	4a/	.	4A\	.	.	.	.	.	.	.	.	.	.	.	.	.	.	.	.	.	.	.	.	.
!	!	!	!	!	!	!	!	!LO:LB:g=original	!	!	!	!	!	!	!	!	!	!	!	!	!	!	!	!	!	!	!	!	!	!	!
2B\	.	.	2G#/	.	.	2B/	.	2e/	.	2E\	de-	.	.	.	.	.	.	.	.	.	.	.	.	.	.	.	.	.	.	.	.
4BB/	#	.	4F#/	.	.	4B/	.	4d#X/	.	4D#X\	-us	.	.	.	.	.	.	.	.	.	.	.	.	.	.	.	.	.	.	.	.
!	!	!	!	!	!	!	!	!	!	!	!	!	!	!	!	!	!	!	!	!	!	!	!LO:LB:g=original	!	!	!	!	!	!	!	!
=37	=37	=37	=37	=37	=37	=37	=37	=37	=37	=37	=37	=37	=37	=37	=37	=37	=37	=37	=37	=37	=37	=37	=37	=37	=37	=37	=37	=37	=37	=37	=37
4BB/	.	.	2B/	.	1.ryy	4ff#\	.	(4aa\	.	2BB/	mi-	.	2B\	mi-	.	(4a\	Mi-	4ff#\	mi-	.	1.ryy	1.ryy	4r	.	4r	.	4r	.	4r	.	1.ryy
4r	.	.	.	.	.	4ee\	.	4gg#\)	.	.	.	.	.	.	.	4g#\)	-se-	(4ee\	-se-	.	.	.	4r	.	4r	.	4r	.	4r	.	.
4BB/	.	.	4B/	.	.	4dd#X\	.	4ff#\	.	4BB/	-se-	.	4B\	-se-	.	4f#\	-re-	4dd#X\)	.	.	.	.	4r	.	4r	.	4r	.	4r	.	.
!	!	!	!	!	!	!	!	!	!	!	!	!	!	!	!	!	!	!	!	!	!	!	!	!	!	!	!LO:TX:a:i:t=Solo	!	!LO:TX:a:i:t=Solo	!	!
4E\	.	.	4e\	.	.	4gg#\	.	4bb|\	.	4E\	-re-	.	4B\	-re-	.	4b\	.	4gg#\	-re-	.	.	.	4r	.	4r	.	4g#/	.	4ee\	.	.
!	!	!	!	!	!	!	!	!	!	!	!	!	!	!	!	!	!	!	!	!	!	!	!LO:TX:a:i:t=Solo	!	!LO:TX:a:i:t=Solo	!	!	!	!	!	!
4r	.	.	4r	.	.	4r	.	4r	.	4r	.	.	4r	.	.	4r	.	4r	.	.	.	.	4e/	.	4b\	.	4g#/	.	4ee\	.	.
4E\	.	.	4e\	.	.	4b/	.	4gg#|\	.	4E\	-re	.	4B\	-re	.	4g#\	-re	4ee\	-re	.	.	.	4e/	.	4b\	.	4r	.	4r	.	.
=38	=38	=38	=38	=38	=38	=38	=38	=38	=38	=38	=38	=38	=38	=38	=38	=38	=38	=38	=38	=38	=38	=38	=38	=38	=38	=38	=38	=38	=38	=38	=38
*	*	*	*	*	*	*^	*	*^	*	*	*	*	*	*	*	*	*	*	*	*	*	*	*	*	*	*	*	*	*	*	*
*	*	*	*	*	*	*	*cue	*	*	*	*	*	*	*	*	*	*	*	*	*	*	*	*	*	*	*	*	*	*	*	*	*	*
4A\	.	.	(4cc#\	.	1.ryy	4a/	1ryy	.	(4ff#\	1ryy\	.	4A\	no-	.	4c#\	no-	.	(4a\	no-	4ff#\	no-	.	1.ryy	1.ryy	4r	.	4r	.	4r	.	4r	.	1.ryy
4B\	.	.	4b\	.	.	4g#/	.	.	4ee\	.	.	4B\	.	.	4B\	.	.	4g#\)	.	4ee\	.	.	.	.	4r	.	4r	.	4r	.	4r	.	.
4BB/	.	.	4b\)	.	.	4f#/	.	.	4dd#X\)	.	.	4BB/	.	.	4B\	.	.	4f#\	.	4dd#X\	-bis	.	.	.	4r	.	4r	.	4r	.	4r	.	.
4E\	.	.	4b\	.	.	4g#/	.	.	4ee\	.	.	4E\	-bis.	.	4B\	-bis	.	4g#\	-bis	4ee\	.	.	.	.	4r	.	4r	.	4r	.	4r	.	.
!	!	!	!	!	!	!	!LO:TX:b:t=Oboi	!	!	!	!	!	!	!	!	!	!	!	!	!	!	!	!	!	!	!	!	!	!	!	!	!	!
4r	.	.	4r	.	.	4rff	4g#\	.	4rg	4b/	.	4r	.	.	4r	.	.	4r	.	4r	.	.	.	.	4e/	.	4b\	.	4g#/	.	4b\	.	.
4r	.	.	4r	.	.	4rff	4a\	.	4rg	4cc#/	.	4r	.	.	4r	.	.	4r	.	4r	.	.	.	.	4a\	.	4cc#\	.	4a/	.	4cc#\	.	.
!	!	!	!	!	!	!	!	!	!	!	!	!	!	!	!	!	!	!	!	!	!	!	!	!	!	!	!LO:LB:g=original	!	!	!	!	!	!
=39	=39	=39	=39	=39	=39	=39	=39	=39	=39	=39	=39	=39	=39	=39	=39	=39	=39	=39	=39	=39	=39	=39	=39	=39	=39	=39	=39	=39	=39	=39	=39	=39	=39
!LO:TX:b:i:t=pedal	!	!	!	!	!	!	!	!	!LO:TX:a:i:t=Oboi	!	!	!	!	!	!	!	!	!	!	!	!	!	!	!	!	!	!	!	!	!	!	!	!
.	.	.	.	.	.	.	.	.	.	.	.	.	.	.	.	.	.	.	.	.	.	.	.	.	.	.	.	.	.	.	8qqee/	.	.
2E\	.	.	0.r	.	1.ryy	1.r	4b\	.	1.rg	4ddn/	.	00.r	.	.	00.r	.	.	00.r	.	0.r	.	.	1.ryy	1.ryy	4b\	.	4dd\	.	4b/	.	4ddn\	.	1.ryy
.	.	.	.	.	.	.	8g#\L	.	.	8b/L	.	.	.	.	.	.	.	.	.	.	.	.	.	.	8e\L	.	8b\L	.	(8g#/L	.	8b\L	.	.
.	.	.	.	.	.	.	8b\J	.	.	8dd/J	.	.	.	.	.	.	.	.	.	.	.	.	.	.	8b\J	.	8dd\J	.	8b/J	.	8dd\J	.	.
4A\	.	.	.	.	.	.	4a\	.	.	4cc#/	.	.	.	.	.	.	.	.	.	.	.	.	.	.	4a\	.	4cc#\	.	4a/)	.	4cc#\	.	.
4A\	.	.	.	.	.	.	4cc\	.	.	4ee/	.	.	.	.	.	.	.	.	.	.	.	.	.	.	4cc#\	.	4ee\	.	4cc#/	.	(4ee\	.	.
!	!	!	!	!	!	!	!LO:TX:t=P:problem=mixed beam	!	!	!	!	!	!	!	!	!	!	!	!	!	!	!	!	!	!LO:TX:t=P:problem=mixed beam	!	!	!	!	!	!	!	!
4G#\	.	.	.	.	.	.	8b\L	.	.	8dd/L	.	.	.	.	.	.	.	.	.	.	.	.	.	.	8b\L	.	8dd\L	.	8b/L	.	8dd\L	.	.
.	.	.	.	.	.	.	8g#\	.	.	8b/	.	.	.	.	.	.	.	.	.	.	.	.	.	.	8e\	.	8b\	.	8g#/J	.	8b\J)	.	.
4A\	.	.	.	.	.	.	8a\	.	.	8cc#/	.	.	.	.	.	.	.	.	.	.	.	.	.	.	8a\	.	8cc#\	.	4a/	.	(8cc#\L	.	.
.	.	.	.	.	.	.	8c#/J	.	.	8a/J	.	.	.	.	.	.	.	.	.	.	.	.	.	.	8A/J	.	8a\J	.	.	.	8a\J)	.	.
!LO:LB:g=original	!	!	!	!	!	!	!	!	!	!	!	!	!	!	!	!	!	!	!	!	!	!	!	!	!	!	!	!	!	!	!	!	!
=40	=40	=40	=40	=40	=40	=40	=40	=40	=40	=40	=40	=40	=40	=40	=40	=40	=40	=40	=40	=40	=40	=40	=40	=40	=40	=40	=40	=40	=40	=40	=40	=40	=40
4E\	.	.	.	.	1.ryy	1.r	4g#\	.	1.ra	4b/	.	.	.	.	.	.	.	.	.	.	.	.	1.ryy	1.ryy	4e/	.	4b\	.	4g#/	.	4b|\	.	1.ryy
4EE/	.	.	.	.	.	.	4f#\	.	.	4b/	.	.	.	.	.	.	.	.	.	.	.	.	.	.	4e/	.	4b\	.	4g#/	.	4b|\	.	.
4EE/	.	.	.	.	.	.	4g#\	.	.	4b/	.	.	.	.	.	.	.	.	.	.	.	.	.	.	4e/	.	4b\	.	4g#/	.	4b|\	.	.
2EE/	.	.	.	.	.	.	2g#\	.	.	2b/	.	.	.	.	.	.	.	.	.	.	.	.	.	.	2e/	.	2b\	.	2g#/	.	2b\	.	.
4r	.	.	.	.	.	.	4r	.	.	4r	.	.	.	.	.	.	.	.	.	.	.	.	.	.	4r	.	4r	.	4r	.	4r	.	.
*	*	*	*	*	*	*v	*v	*	*v	*v	*	*	*	*	*	*	*	*	*	*	*	*	*	*	*	*	*	*	*	*	*	*	*
!	!	!	!LO:LB:g=original	!	!	!	!	!	!	!	!	!	!	!	!	!	!	!	!	!	!	!	!	!	!	!	!	!	!	!	!
=41	=41	=41	=41	=41	=41	=41	=41	=41	=41	=41	=41	=41	=41	=41	=41	=41	=41	=41	=41	=41	=41	=41	=41	=41	=41	=41	=41	=41	=41	=41	=41
!LO:TX:b:i:t=org&colon;	!	!	!	!	!	!	!	!	!	!	!	!	!	!	!	!	!	!	!	!	!	!	!	!	!	!	!	!	!	!	!
4AA/	.	.	4e\	.	1.ryy	4cc#\	.	4aa\	f	.	.	.	.	.	.	.	.	4aa\	San-	.	1.ryy	1.ryy	1.r	.	1.r	.	1.r	.	1.ryy	.	1.ryy
4r	.	.	4r	.	.	8cc#\L	.	(8ee\L	.	.	.	.	.	.	.	.	.	(8ee\L	.	.	.	.	.	.	.	.	.	.	.	.	.
.	.	.	.	.	.	8a\	.	8cc#\	.	.	.	.	.	.	.	.	.	8cc#\	.	.	.	.	.	.	.	.	.	.	.	.	.
4D\	.	.	4d\	.	.	8dd\	.	8ff#\	.	.	.	.	.	.	.	.	.	8ff#\)	.	.	.	.	.	.	.	.	.	.	.	.	.
.	.	.	.	.	.	8b\J	.	8dd\J)	.	.	.	.	.	.	.	.	.	8dd\J	.	.	.	.	.	.	.	.	.	.	.	.	.
4E\	.	.	4e\	.	.	2g#/	.	2e/ 2b/	.	.	.	.	.	.	.	.	.	2b\	-cta	.	.	.	.	.	.	.	.	.	.	.	.
4EE/	.	.	4E/	.	.	.	.	.	.	.	.	.	.	.	.	.	.	.	.	.	.	.	.	.	.	.	.	.	.	.	.
4D\	.	.	4d\	.	.	(8a/L	.	(8cc#\L	.	.	.	.	.	.	.	.	.	8cc#\L	Ma-	.	.	.	.	.	.	.	.	.	.	.	.
.	.	.	.	.	.	8b/J)	.	8dd\J)	.	.	.	.	.	.	.	.	.	8dd\J	.	.	.	.	.	.	.	.	.	.	.	.	.
!	!	!	!	!	!	!LO:LB:g=original	!	!	!	!	!	!	!	!	!	!	!	!	!	!	!	!	!	!	!	!	!	!	!	!	!
=42	=42	=42	=42	=42	=42	=42	=42	=42	=42	=42	=42	=42	=42	=42	=42	=42	=42	=42	=42	=42	=42	=42	=42	=42	=42	=42	=42	=42	=42	=42	=42
*	*	*	*	*	*	*^	*	*^	*	*	*	*	*	*	*	*	*	*	*	*	*	*	*	*	*	*	*	*	*	*	*
8C#\L	.	.	8c#\L	.	1.ryy	8cc#\L	1ryy	.	8ee/L	1ryy\	.	.	.	.	.	.	.	.	.	8ee\L	.	.	1.ryy	1.ryy	4r	.	4r	.	4r	.	4r	.	1.ryy
8D\J	.	.	8d\J	.	.	8a\J	.	.	8cc#/J	.	.	.	.	.	.	.	.	.	.	8cc#\J	.	.	.	.	.	.	.	.	.	.	.	.	.
4E\	.	.	4e\	.	.	4c#/	.	.	4a/	.	.	.	.	.	.	.	.	.	.	(4a\	-ri-	.	.	.	4r	.	4r	.	4r	.	4r	.	.
4EE/	.	.	4E/	.	.	4B/	.	.	4g#/	.	.	.	.	.	.	.	.	.	.	4g#\)	.	.	.	.	4r	.	4r	.	4r	.	4r	.	.
!	!	!	!	!	!	!	!	!	!	!	!	!	!	!	!	!	!	!	!	!	!	!	!	!	!	!	!	!	!	!	!LO:LB:g=original	!	!
!	!	!	!	!	!	!LO:N:vis=2	!	!	!	!	!	!	!	!	!	!	!	!	!	!	!	!	!	!	!	!	!	!	!	!	!	!	!
4AA/	.	.	4A/	.	.	4c#/	.	.	2a/	.	.	.	.	.	.	.	.	.	.	2a\	-a	.	.	.	4r	.	4r	.	4r	.	4r	.	.
4r	.	.	4r	.	.	4r	4c#\	.	.	4a\	.	.	.	.	.	.	.	.	.	.	.	.	.	.	4c#/	.	4a\	.	4a/	.	4a/	.	.
4r	.	.	4r	.	.	4r	4c#\	.	4rgg	4a\	.	.	.	.	.	.	.	.	.	4r	.	.	.	.	4c#/	.	4a\	.	4a/	.	4a/	.	.
=43	=43	=43	=43	=43	=43	=43	=43	=43	=43	=43	=43	=43	=43	=43	=43	=43	=43	=43	=43	=43	=43	=43	=43	=43	=43	=43	=43	=43	=43	=43	=43	=43	=43
4E\	.	.	2g#\	.	1.ryy	2b\	4rff	.	2dd\	4r	p	0.r	.	.	0.r	.	.	00.r	.	1.r	.	.	1.ryy	1.ryy	4r	.	4r	.	4r	.	4r	.	1.ryy
4r	.	.	.	.	.	.	4g#\	.	.	4dd\	.	.	.	.	.	.	.	.	.	.	.	.	.	.	4e/	.	4b\	.	4g#/	.	4dd|\	.	.
4r	.	.	4r	.	.	4ryy	4g#\	.	4rg	4dd\	.	.	.	.	.	.	.	.	.	.	.	.	.	.	4e/	.	4b\	.	4g#/	.	4dd|\	.	.
!	!	!	!	!	!	!	!	!	!	!	!	!	!	!	!	!	!	!	!	!	!	!	!	!	!	!	!	!	!LO:LB:g=original	!	!	!	!
4A\	.	.	4A/	.	.	4a/	2.ryy	.	4cc#|\	2.ryy	.	.	.	.	.	.	.	.	.	.	.	.	.	.	4a\	.	4cc#\	.	4a\	.	4cc#|\	.	.
4D\	.	.	4d\	.	.	(8cc#\L	.	.	(8ee\L	.	.	.	.	.	.	.	.	.	.	.	.	.	.	.	8cc#\L	.	8ee\L	.	8cc#\L	.	(8ee\L	.	.
.	.	.	.	.	.	8b\	.	.	8dd\	.	.	.	.	.	.	.	.	.	.	.	.	.	.	.	8b\	.	8dd\	.	8b\	.	8dd\	.	.
4E\	.	.	4e\	.	.	8a\	.	.	8cc#\	.	.	.	.	.	.	.	.	.	.	.	.	.	.	.	8a\	.	8cc#\	.	8a\	.	8cc#\)	.	.
.	.	.	.	.	.	8e\J)	.	.	8b\J)	.	.	.	.	.	.	.	.	.	.	.	.	.	.	.	8e\J	.	8b\J	.	8g#\J	.	8b\J	.	.
*	*	*	*	*	*	*v	*v	*	*v	*v	*	*	*	*	*	*	*	*	*	*	*	*	*	*	*	*	*	*	*	*	*	*	*
!	!	!	!	!	!	!	!	!LO:LB:g=original	!	!	!	!	!	!	!	!	!	!LO:LB:g=original	!	!	!	!	!	!	!	!	!	!	!	!	!
=44	=44	=44	=44	=44	=44	=44	=44	=44	=44	=44	=44	=44	=44	=44	=44	=44	=44	=44	=44	=44	=44	=44	=44	=44	=44	=44	=44	=44	=44	=44	=44
4AA/	.	.	4A/	f	1.ryy	4c#/	.	4a\ 4aa\	f	.	.	.	.	.	.	.	.	4aa\	San-	.	1.ryy	1.ryy	4A/	.	4a\	.	4a/	.	4a/	.	1.ryy
4r	.	.	4r	.	.	8cc#\L	.	(8ee\L	.	.	.	.	.	.	.	.	.	(8ee\L	.	.	.	.	4r	.	4r	.	4r	.	4r	.	.
.	.	.	.	.	.	8a\	.	8cc#\	.	.	.	.	.	.	.	.	.	8cc#\J)	.	.	.	.	.	.	.	.	.	.	.	.	.
4D\	.	.	4d\	.	.	8dd\	.	8ff#\	.	.	.	.	.	.	.	.	.	(8ff#\L	-cta	.	.	.	4r	.	4r	.	4r	.	4r	.	.
.	.	.	.	.	.	8b\J	.	8dd\J)	.	.	.	.	.	.	.	.	.	8dd\J)	.	.	.	.	.	.	.	.	.	.	.	.	.
4E\	.	.	4e\	.	.	2g#/	.	2e/ 2b/	.	.	.	.	.	.	.	.	.	2b\	de-	.	.	.	4r	.	4r	.	2r	.	2r	.	.
4EE/	.	.	4E/	.	.	.	.	.	.	.	.	.	.	.	.	.	.	.	.	.	.	.	4r	.	4r	.	.	.	.	.	.
4D\	.	.	4d\	.	.	8a/L	.	(8cc#\L	.	.	.	.	.	.	.	.	.	(8cc#\L	-i	.	.	.	4r	.	4r	.	4r	.	4r	.	.
.	.	.	.	.	.	8b/J	.	8dd\J)	.	.	.	.	.	.	.	.	.	8dd\J)	.	.	.	.	.	.	.	.	.	.	.	.	.
=45	=45	=45	=45	=45	=45	=45	=45	=45	=45	=45	=45	=45	=45	=45	=45	=45	=45	=45	=45	=45	=45	=45	=45	=45	=45	=45	=45	=45	=45	=45	=45
8C#\L	.	.	8c#\L	.	1.ryy	8cc#/L	.	(8ee\L	.	1.r	.	.	1.r	.	.	.	.	8ee\L	ge-	.	1.ryy	1.ryy	1.r	.	1.r	.	1.r	.	1.r	.	1.ryy
8D\J	.	.	8d\J	.	.	8a/J	.	8cc#\J	.	.	.	.	.	.	.	.	.	8cc#\J	.	.	.	.	.	.	.	.	.	.	.	.	.
4E\	.	.	4e\	.	.	4c#/	.	4a/)	.	.	.	.	.	.	.	.	.	4a\	.	.	.	.	.	.	.	.	.	.	.	.	.
4EE/	.	.	4E/	.	.	4B/	.	4g#/	.	.	.	.	.	.	.	.	.	4g#\	-ni-	.	.	.	.	.	.	.	.	.	.	.	.
4A\	.	.	2e\	.	.	2B/	.	(2g#/	.	.	.	.	.	.	.	.	.	2g#\	-trix	.	.	.	.	.	.	.	.	.	.	.	.
4E\	.	.	.	.	.	.	.	.	.	.	.	.	.	.	.	.	.	.	.	.	.	.	.	.	.	.	.	.	.	.	.
4AA/	.	.	4e\	.	.	4c#/	.	4a/)	.	.	.	.	.	.	.	.	.	4a\	.	.	.	.	.	.	.	.	.	.	.	.	.
!LO:LB:g=original	!	!	!	!	!	!	!	!	!	!	!	!	!	!	!	!	!	!	!	!	!	!	!	!	!	!	!	!	!	!	!
=46	=46	=46	=46	=46	=46	=46	=46	=46	=46	=46	=46	=46	=46	=46	=46	=46	=46	=46	=46	=46	=46	=46	=46	=46	=46	=46	=46	=46	=46	=46	=46
*	*	*	*	*	*	*	*^	*	*	*	*	*	*	*	*	*	*	*	*	*	*	*	*	*	*	*	*	*	*	*	*
!	!	!LO:DY:b:t=piano	!	!LO:DY:t=po.	!	!	!LO:DY:a	!LO:DY:b:t=po.	!	!	!.	!	!LO:DY:a:t=po.	!	!	!LO:DY:a:t=piano	!	!	!	!	!	!	!	!	!	!	!	!LO:TX:a:i:t=dolce	!	!	!	!
2E\	7 5	p	(8B/L	p	1.ryy	(16e/LL	p	p	(16ee\LL	.	2.B\	San-	p	2.d\	San-	p	.	.	1.r	.	.	1.ryy	1.ryy	2.e/	.	2.b\	.	2.b\	p	2.dd\	p	1.ryy
*	*	*	*	*	*	*	*v	*v	*	*	*	*	*	*	*	*	*	*	*	*	*	*	*	*	*	*	*	*	*	*	*	*
.	.	.	.	.	.	16b/	.	16gg#\	.	.	.	.	.	.	.	.	.	.	.	.	.	.	.	.	.	.	.	.	.	.	.
.	.	.	8E/)	.	.	16dd/	.	16bb\	.	.	.	.	.	.	.	.	.	.	.	.	.	.	.	.	.	.	.	.	.	.	.
!	!	!	!	!	!	!	!	!	!LO:DY:t=po&colon;	!	!	!	!	!	!	!	!	!	!	!	!	!	!	!	!	!	!	!	!	!	!
.	.	.	.	.	.	16b/JJ)	.	16gg#\JJ)	p	.	.	.	.	.	.	.	.	.	.	.	.	.	.	.	.	.	.	.	.	.	.
.	.	.	(8B/	.	.	(16e/LL	.	(8ee'\L	.	.	.	.	.	.	.	.	.	.	.	.	.	.	.	.	.	.	.	.	.	.	.
.	.	.	.	.	.	16b/	.	.	.	.	.	.	.	.	.	.	.	.	.	.	.	.	.	.	.	.	.	.	.	.	.
.	.	.	8E/)	.	.	16dd/	.	8ee'\	.	.	.	.	.	.	.	.	.	.	.	.	.	.	.	.	.	.	.	.	.	.	.
.	.	.	.	.	.	16b/JJ)	.	.	.	.	.	.	.	.	.	.	.	.	.	.	.	.	.	.	.	.	.	.	.	.	.
4r	.	.	(8B/	.	.	(16e/LL	.	8ee'\	.	.	.	.	.	.	.	.	.	.	.	.	.	.	.	.	.	.	.	.	.	.	.
.	.	.	.	.	.	16b/	.	.	.	.	.	.	.	.	.	.	.	.	.	.	.	.	.	.	.	.	.	.	.	.	.
.	.	.	8E/J)	.	.	16dd/	.	8ee'\J)	.	.	.	.	.	.	.	.	.	.	.	.	.	.	.	.	.	.	.	.	.	.	.
.	.	.	.	.	.	16b/JJ)	.	.	.	.	.	.	.	.	.	.	.	.	.	.	.	.	.	.	.	.	.	.	.	.	.
2A\	.	.	(8c#/L	.	.	(16e/LL	.	8ee\L	.	2A\	-cta	.	2c#\	-cta	.	.	.	.	.	.	.	.	2.a\	.	2.cc#\	.	2.a\	.	2.cc#\	.	.
.	.	.	.	.	.	16a/	.	.	.	.	.	.	.	.	.	.	.	.	.	.	.	.	.	.	.	.	.	.	.	.	.
.	.	.	8E/)	.	.	16cc#/	.	(16ccc#\L	.	.	.	.	.	.	.	.	.	.	.	.	.	.	.	.	.	.	.	.	.	.	.
.	.	.	.	.	.	16a/JJ)	.	16aa\JJ)	.	.	.	.	.	.	.	.	.	.	.	.	.	.	.	.	.	.	.	.	.	.	.
.	.	.	(8c#/	.	.	(16e/LL	.	(8ee|\L	.	.	.	.	.	.	.	.	.	.	.	.	.	.	.	.	.	.	.	.	.	.	.
.	.	.	.	.	.	16a/	.	.	.	.	.	.	.	.	.	.	.	.	.	.	.	.	.	.	.	.	.	.	.	.	.
.	.	.	8E/)	.	.	16cc#/	.	8ee|\	.	.	.	.	.	.	.	.	.	.	.	.	.	.	.	.	.	.	.	.	.	.	.
.	.	.	.	.	.	16a/JJ)	.	.	.	.	.	.	.	.	.	.	.	.	.	.	.	.	.	.	.	.	.	.	.	.	.
4r	.	.	(8c#/	.	.	(16e/LL	.	8ee|\	.	4A\	Ma-	.	4c#\	Ma-	.	.	.	.	.	.	.	.	.	.	.	.	.	.	.	.	.
.	.	.	.	.	.	16a/	.	.	.	.	.	.	.	.	.	.	.	.	.	.	.	.	.	.	.	.	.	.	.	.	.
.	.	.	8E/J)	.	.	16cc#/	.	8ee|\J)	.	.	.	.	.	.	.	.	.	.	.	.	.	.	.	.	.	.	.	.	.	.	.
.	.	.	.	.	.	16a/JJ)	.	.	.	.	.	.	.	.	.	.	.	.	.	.	.	.	.	.	.	.	.	.	.	.	.
!	!	!	!	!	!	!LO:LB:g=original	!	!	!	!	!	!	!	!	!	!	!	!	!	!	!	!	!LO:LB:g=original	!	!	!	!	!	!	!	!
=47	=47	=47	=47	=47	=47	=47	=47	=47	=47	=47	=47	=47	=47	=47	=47	=47	=47	=47	=47	=47	=47	=47	=47	=47	=47	=47	=47	=47	=47	=47	=47
!	!	!	!LO:TX:t=P:problem=mixed beam	!	!	!	!	!	!	!	!	!	!	!	!	!	!	!	!	!	!	!	!	!	!	!	!	!	!	!	!
2E\	.	.	(8d\L	.	1.ryy	(16e/LL	.	8ee\L	.	2.G#\	-ri-	.	2.B\	-ri-	.	4r	.	4r	.	.	1.ryy	1.ryy	2.e/	.	2.b\	.	2.g#/	.	2.b\	.	1.ryy
.	.	.	.	.	.	16g#/	.	.	.	.	.	.	.	.	.	.	.	.	.	.	.	.	.	.	.	.	.	.	.	.	.
.	.	.	8E/)	.	.	16b/	.	(16ddd\L	.	.	.	.	.	.	.	.	.	.	.	.	.	.	.	.	.	.	.	.	.	.	.
.	.	.	.	.	.	16g#/JJ)	.	16bb\JJ)	.	.	.	.	.	.	.	.	.	.	.	.	.	.	.	.	.	.	.	.	.	.	.
*	*	*	*	*	*	*rep	*	*	*	*	*	*	*	*	*	*	*	*	*	*	*	*	*	*	*	*	*	*	*	*	*
.	.	.	(8d\	.	.	(16e/LL	.	(8ee'\L	.	.	.	.	.	.	.	4r	.	4r	.	.	.	.	.	.	.	.	.	.	.	.	.
.	.	.	.	.	.	16g#/	.	.	.	.	.	.	.	.	.	.	.	.	.	.	.	.	.	.	.	.	.	.	.	.	.
.	.	.	8E/)	.	.	16b/	.	8ee'\	.	.	.	.	.	.	.	.	.	.	.	.	.	.	.	.	.	.	.	.	.	.	.
.	.	.	.	.	.	16g#/JJ)	.	.	.	.	.	.	.	.	.	.	.	.	.	.	.	.	.	.	.	.	.	.	.	.	.
*	*	*	*	*	*	*Xrep	*	*	*	*	*	*	*	*	*	*	*	*	*	*	*	*	*	*	*	*	*	*	*	*	*
4r	.	.	(8d\	.	.	(16e/LL	.	8ee'\	.	.	.	.	.	.	.	8r	.	8r	.	.	.	.	.	.	.	.	.	.	.	.	.
.	.	.	.	.	.	16g#/	.	.	.	.	.	.	.	.	.	.	.	.	.	.	.	.	.	.	.	.	.	.	.	.	.
.	.	.	8E/J)	.	.	16b/	.	8ddd'\J)	.	.	.	.	.	.	.	8g#\	o-	(8b\	o-	.	.	.	.	.	.	.	.	.	.	.	.
.	.	.	.	.	.	16g#/JJ)	.	.	.	.	.	.	.	.	.	.	.	.	.	.	.	.	.	.	.	.	.	.	.	.	.
!	!	!	!LO:LB:g=original	!	!	!	!	!	!	!	!	!	!	!	!	!	!	!	!	!	!	!	!	!	!	!	!	!	!	!	!
4AA/	.	.	4e\	.	.	16a/LL	.	(8ddd\L	.	4A\	-a	.	4c#\	-a	.	(4a\	.	4cc#\	.	.	.	.	4c#/	.	4a\	.	4a/	.	4cc#\	.	.
.	.	.	.	.	.	16g#/	.	.	.	.	.	.	.	.	.	.	.	.	.	.	.	.	.	.	.	.	.	.	.	.	.
.	.	.	.	.	.	16a/	.	8ccc#\)	.	.	.	.	.	.	.	.	.	.	.	.	.	.	.	.	.	.	.	.	.	.	.
.	.	.	.	.	.	16f#/JJ	.	.	.	.	.	.	.	.	.	.	.	.	.	.	.	.	.	.	.	.	.	.	.	.	.
!	!	!	!	!	!	!LO:TX:t=P:problem=mixed beam	!	!	!	!	!	!	!	!	!	!	!	!	!	!	!	!	!	!	!	!	!	!	!	!	!
4E\	.	.	4g#\	.	.	(16dd\LL	.	(8ccc#\	.	4r	.	.	4r	.	.	4b\)	-ra	4dd\)	.	.	.	.	4e/	.	4b\	.	4b/	.	4dd\	.	.
.	.	.	.	.	.	16cc#\	.	.	.	.	.	.	.	.	.	.	.	.	.	.	.	.	.	.	.	.	.	.	.	.	.
.	.	.	.	.	.	16dd\)	.	8bb\)	.	.	.	.	.	.	.	.	.	.	.	.	.	.	.	.	.	.	.	.	.	.	.
.	.	.	.	.	.	16e|/JJ	.	.	.	.	.	.	.	.	.	.	.	.	.	.	.	.	.	.	.	.	.	.	.	.	.
!	!	!	!	!	!	!LO:TX:t=P:problem=mixed beam	!	!	!	!	!	!	!	!	!	!	!	!	!	!	!	!	!	!	!	!	!	!	!	!	!
4A\	.	.	4a\	.	.	(16cc#\LL	.	(8bb\	.	4r	.	.	4r	.	.	4cc#\	.	4ee\	-ra	.	.	.	4a/	.	4cc#\	.	4cc#/	.	4ee\	.	.
.	.	.	.	.	.	16b\	.	.	.	.	.	.	.	.	.	.	.	.	.	.	.	.	.	.	.	.	.	.	.	.	.
.	.	.	.	.	.	16cc#\)	.	8aa\J)	.	.	.	.	.	.	.	.	.	.	.	.	.	.	.	.	.	.	.	.	.	.	.
.	.	.	.	.	.	16e|/JJ	.	.	.	.	.	.	.	.	.	.	.	.	.	.	.	.	.	.	.	.	.	.	.	.	.
!	!	!	!	!	!	!	!	!	!	!LO:LB:g=original	!	!	!	!	!	!LO:LB:g=original	!	!	!	!	!	!	!	!	!	!	!	!	!	!	!
=48	=48	=48	=48	=48	=48	=48	=48	=48	=48	=48	=48	=48	=48	=48	=48	=48	=48	=48	=48	=48	=48	=48	=48	=48	=48	=48	=48	=48	=48	=48	=48
2E\	7 5	.	(8B/L	.	1.ryy	(16e/LL	.	8ee|\L	.	2B\	San-	.	2d\	San-	.	1.r	.	1.r	.	.	1.ryy	1.ryy	2.e/	.	2.b\	.	2.b\	.	2.dd\	.	1.ryy
.	.	.	.	.	.	16b/	.	.	.	.	.	.	.	.	.	.	.	.	.	.	.	.	.	.	.	.	.	.	.	.	.
.	.	.	8E/)	.	.	16dd/	.	(16bb\L	.	.	.	.	.	.	.	.	.	.	.	.	.	.	.	.	.	.	.	.	.	.	.
.	.	.	.	.	.	16b/JJ)	.	16gg#\JJ)	.	.	.	.	.	.	.	.	.	.	.	.	.	.	.	.	.	.	.	.	.	.	.
*	*	*	*	*	*	*rep	*	*	*	*	*	*	*	*	*	*	*	*	*	*	*	*	*	*	*	*	*	*	*	*	*
.	.	.	(8B/	.	.	(16e/LL	.	(8ee|\L	.	.	.	.	.	.	.	.	.	.	.	.	.	.	.	.	.	.	.	.	.	.	.
.	.	.	.	.	.	16b/	.	.	.	.	.	.	.	.	.	.	.	.	.	.	.	.	.	.	.	.	.	.	.	.	.
.	.	.	8E/)	.	.	16dd/	.	8ee|\	.	.	.	.	.	.	.	.	.	.	.	.	.	.	.	.	.	.	.	.	.	.	.
.	.	.	.	.	.	16b/JJ)	.	.	.	.	.	.	.	.	.	.	.	.	.	.	.	.	.	.	.	.	.	.	.	.	.
*	*	*	*	*	*	*Xrep	*	*	*	*	*	*	*	*	*	*	*	*	*	*	*	*	*	*	*	*	*	*	*	*	*
*	*	*	*	*	*	*rep	*	*	*	*	*	*	*	*	*	*	*	*	*	*	*	*	*	*	*	*	*	*	*	*	*
4r	.	.	(8B/	.	.	(16e/LL	.	8ee|\	.	4B\	-cta	.	4d\	-cta	.	.	.	.	.	.	.	.	.	.	.	.	.	.	.	.	.
.	.	.	.	.	.	16b/	.	.	.	.	.	.	.	.	.	.	.	.	.	.	.	.	.	.	.	.	.	.	.	.	.
.	.	.	8E/J)	.	.	16dd/	.	8ee|\J)	.	.	.	.	.	.	.	.	.	.	.	.	.	.	.	.	.	.	.	.	.	.	.
.	.	.	.	.	.	16b/JJ)	.	.	.	.	.	.	.	.	.	.	.	.	.	.	.	.	.	.	.	.	.	.	.	.	.
*	*	*	*	*	*	*Xrep	*	*	*	*	*	*	*	*	*	*	*	*	*	*	*	*	*	*	*	*	*	*	*	*	*
2A\	.	.	(8c#/L	.	.	16e/LL	.	8ee\L	.	2A\	de-	.	2c#\	De-	.	.	.	.	.	.	.	.	2.a\	.	2.cc#\	.	2.a\	.	2.cc#\	.	.
.	.	.	.	.	.	16a/	.	.	.	.	.	.	.	.	.	.	.	.	.	.	.	.	.	.	.	.	.	.	.	.	.
.	.	.	8E/)	.	.	16cc#/	.	(16ccc#\L	.	.	.	.	.	.	.	.	.	.	.	.	.	.	.	.	.	.	.	.	.	.	.
.	.	.	.	.	.	16a/JJ	.	16aa\JJ)	.	.	.	.	.	.	.	.	.	.	.	.	.	.	.	.	.	.	.	.	.	.	.
*	*	*	*	*	*	*rep	*	*	*	*	*	*	*	*	*	*	*	*	*	*	*	*	*	*	*	*	*	*	*	*	*
.	.	.	(8c#/	.	.	16e/LL	.	(8ee'\L	.	.	.	.	.	.	.	.	.	.	.	.	.	.	.	.	.	.	.	.	.	.	.
.	.	.	.	.	.	16a/	.	.	.	.	.	.	.	.	.	.	.	.	.	.	.	.	.	.	.	.	.	.	.	.	.
.	.	.	8E/)	.	.	16cc#/	.	8ee'\	.	.	.	.	.	.	.	.	.	.	.	.	.	.	.	.	.	.	.	.	.	.	.
.	.	.	.	.	.	16a/JJ	.	.	.	.	.	.	.	.	.	.	.	.	.	.	.	.	.	.	.	.	.	.	.	.	.
*	*	*	*	*	*	*Xrep	*	*	*	*	*	*	*	*	*	*	*	*	*	*	*	*	*	*	*	*	*	*	*	*	*
*	*	*	*	*	*	*rep	*	*	*	*	*	*	*	*	*	*	*	*	*	*	*	*	*	*	*	*	*	*	*	*	*
4r	.	.	(8c#/	.	.	16e/LL	.	8ee'\	.	4A\	-i	.	4c#\	-i	.	.	.	.	.	.	.	.	.	.	.	.	.	.	.	.	.
.	.	.	.	.	.	16a/	.	.	.	.	.	.	.	.	.	.	.	.	.	.	.	.	.	.	.	.	.	.	.	.	.
.	.	.	8E/J)	.	.	16cc#/	.	8ee'\J)	.	.	.	.	.	.	.	.	.	.	.	.	.	.	.	.	.	.	.	.	.	.	.
.	.	.	.	.	.	16a/JJ	.	.	.	.	.	.	.	.	.	.	.	.	.	.	.	.	.	.	.	.	.	.	.	.	.
*	*	*	*	*	*	*Xrep	*	*	*	*	*	*	*	*	*	*	*	*	*	*	*	*	*	*	*	*	*	*	*	*	*
!	!	!	!	!	!	!	!	!LO:LB:g=original	!	!	!	!	!LO:LB:g=original	!	!	!	!	!	!	!	!	!	!	!	!LO:LB:g=original	!	!	!	!	!	!
=49	=49	=49	=49	=49	=49	=49	=49	=49	=49	=49	=49	=49	=49	=49	=49	=49	=49	=49	=49	=49	=49	=49	=49	=49	=49	=49	=49	=49	=49	=49	=49
!	!	!	!LO:TX:t=P:problem=mixed beam	!	!	!	!	!	!	!	!	!	!	!	!	!	!	!	!	!	!	!	!	!	!	!	!	!	!	!	!
2E\	.	.	(8d\L	.	1.ryy	16e/LL	.	(16ee\LL	.	2G#\	ge-	.	2B\	Ge-	.	4r	.	4r	.	.	1.ryy	1.ryy	2.e/	.	2.b\	.	2.g#\	.	2.b\	.	1.ryy
.	.	.	.	.	.	16g#/	.	16bb\	.	.	.	.	.	.	.	.	.	.	.	.	.	.	.	.	.	.	.	.	.	.	.
.	.	.	8E/)	.	.	16b/	.	16ddd\	.	.	.	.	.	.	.	.	.	.	.	.	.	.	.	.	.	.	.	.	.	.	.
.	.	.	.	.	.	16g#/JJ	.	16bb\JJ)	.	.	.	.	.	.	.	.	.	.	.	.	.	.	.	.	.	.	.	.	.	.	.
*	*	*	*	*	*	*rep	*	*	*	*	*	*	*	*	*	*	*	*	*	*	*	*	*	*	*	*	*	*	*	*	*
.	.	.	(8d\	.	.	16e/LL	.	8ee|\L	.	.	.	.	.	.	.	4r	.	4r	.	.	.	.	.	.	.	.	.	.	.	.	.
.	.	.	.	.	.	16g#/	.	.	.	.	.	.	.	.	.	.	.	.	.	.	.	.	.	.	.	.	.	.	.	.	.
.	.	.	8E/)	.	.	16b/	.	8ee|\	.	.	.	.	.	.	.	.	.	.	.	.	.	.	.	.	.	.	.	.	.	.	.
.	.	.	.	.	.	16g#/JJ	.	.	.	.	.	.	.	.	.	.	.	.	.	.	.	.	.	.	.	.	.	.	.	.	.
*	*	*	*	*	*	*Xrep	*	*	*	*	*	*	*	*	*	*	*	*	*	*	*	*	*	*	*	*	*	*	*	*	*
*	*	*	*	*	*	*rep	*	*	*	*	*	*	*	*	*	*	*	*	*	*	*	*	*	*	*	*	*	*	*	*	*
4r	.	.	(8d\	.	.	16e/LL	.	8ee|\	.	4G#\	-ni-	.	4B\	-ni-	.	8r	.	8r	.	.	.	.	.	.	.	.	.	.	.	.	.
.	.	.	.	.	.	16g#/	.	.	.	.	.	.	.	.	.	.	.	.	.	.	.	.	.	.	.	.	.	.	.	.	.
.	.	.	8E/J)	.	.	16b/	.	8ddd|\J	.	.	.	.	.	.	.	8g#\	o-	(8b\	o-	.	.	.	.	.	.	.	.	.	.	.	.
.	.	.	.	.	.	16g#/JJ	.	.	.	.	.	.	.	.	.	.	.	.	.	.	.	.	.	.	.	.	.	.	.	.	.
*	*	*	*	*	*	*Xrep	*	*	*	*	*	*	*	*	*	*	*	*	*	*	*	*	*	*	*	*	*	*	*	*	*
4AA/	.	.	4e\	.	.	16a/LL	.	(8ddd\L	.	4A\	-trix	.	4c#\	-trix	.	4a\	.	4cc#\	.	.	.	.	4c#/	.	4a\	.	4a\	.	4cc#\	.	.
.	.	.	.	.	.	16g#/	.	.	.	.	.	.	.	.	.	.	.	.	.	.	.	.	.	.	.	.	.	.	.	.	.
.	.	.	.	.	.	16a/	.	8ccc#\J)	.	.	.	.	.	.	.	.	.	.	.	.	.	.	.	.	.	.	.	.	.	.	.
.	.	.	.	.	.	16e/JJ	.	.	.	.	.	.	.	.	.	.	.	.	.	.	.	.	.	.	.	.	.	.	.	.	.
!	!	!	!	!	!	!LO:TX:t=P:problem=mixed beam	!	!	!	!	!	!	!	!	!	!	!	!	!	!	!	!	!	!	!	!	!	!	!	!	!
4E\	.	.	4g#\	.	.	(16dd\LL	.	(8ccc#\L	.	4r	.	.	4r	.	.	4b\	.	4dd\)	.	.	.	.	4e/	.	4b\	.	4b\	.	4dd\	.	.
.	.	.	.	.	.	16cc#\	.	.	.	.	.	.	.	.	.	.	.	.	.	.	.	.	.	.	.	.	.	.	.	.	.
.	.	.	.	.	.	16dd\)	.	8bb\J)	.	.	.	.	.	.	.	.	.	.	.	.	.	.	.	.	.	.	.	.	.	.	.
.	.	.	.	.	.	16e|/JJ	.	.	.	.	.	.	.	.	.	.	.	.	.	.	.	.	.	.	.	.	.	.	.	.	.
!	!	!	!	!	!	!LO:TX:t=P:problem=mixed beam	!	!	!	!	!	!	!	!	!	!	!	!	!	!	!	!	!	!	!	!	!	!	!	!	!
4A\	.	.	4a\	.	.	(16cc#\LL	.	(8bb\L	.	4r	.	.	4r	.	.	4cc#\	-ra	4ee\	-ra	.	.	.	4a\	.	4cc#\	.	4cc#\	.	4ee\	.	.
.	.	.	.	.	.	16b\	.	.	.	.	.	.	.	.	.	.	.	.	.	.	.	.	.	.	.	.	.	.	.	.	.
.	.	.	.	.	.	16cc#\)	.	8aa\J)	.	.	.	.	.	.	.	.	.	.	.	.	.	.	.	.	.	.	.	.	.	.	.
.	.	.	.	.	.	16e|/JJ	.	.	.	.	.	.	.	.	.	.	.	.	.	.	.	.	.	.	.	.	.	.	.	.	.
=50	=50	=50	=50	=50	=50	=50	=50	=50	=50	=50	=50	=50	=50	=50	=50	=50	=50	=50	=50	=50	=50	=50	=50	=50	=50	=50	=50	=50	=50	=50	=50
2E\	.	.	(8B/L	.	1.ryy	16e/LL	.	(16ee\LL	.	2B\	Sanc-	.	2d\	San-	.	1.r	.	1.r	.	.	1.ryy	1.ryy	2.e/	.	2.b\	.	2.b\	.	2.dd\	.	1.ryy
.	.	.	.	.	.	16b/	.	16gg#\	.	.	.	.	.	.	.	.	.	.	.	.	.	.	.	.	.	.	.	.	.	.	.
.	.	.	8E/)	.	.	16dd/	.	16bb\	.	.	.	.	.	.	.	.	.	.	.	.	.	.	.	.	.	.	.	.	.	.	.
.	.	.	.	.	.	16b/JJ	.	16gg#\JJ)	.	.	.	.	.	.	.	.	.	.	.	.	.	.	.	.	.	.	.	.	.	.	.
*	*	*	*	*	*	*rep	*	*	*	*	*	*	*	*	*	*	*	*	*	*	*	*	*	*	*	*	*	*	*	*	*
.	.	.	(8B/	.	.	16e/LL	.	(8ee|\L	.	.	.	.	.	.	.	.	.	.	.	.	.	.	.	.	.	.	.	.	.	.	.
.	.	.	.	.	.	16b/	.	.	.	.	.	.	.	.	.	.	.	.	.	.	.	.	.	.	.	.	.	.	.	.	.
.	.	.	8E/)	.	.	16dd/	.	8ee|\	.	.	.	.	.	.	.	.	.	.	.	.	.	.	.	.	.	.	.	.	.	.	.
.	.	.	.	.	.	16b/JJ	.	.	.	.	.	.	.	.	.	.	.	.	.	.	.	.	.	.	.	.	.	.	.	.	.
*	*	*	*	*	*	*Xrep	*	*	*	*	*	*	*	*	*	*	*	*	*	*	*	*	*	*	*	*	*	*	*	*	*
*	*	*	*	*	*	*rep	*	*	*	*	*	*	*	*	*	*	*	*	*	*	*	*	*	*	*	*	*	*	*	*	*
4r	.	.	(8B/	.	.	16e/LL	.	8ee|\	.	4B\	-ta	.	4d\	-cta	.	.	.	.	.	.	.	.	.	.	.	.	.	.	.	.	.
.	.	.	.	.	.	16b/	.	.	.	.	.	.	.	.	.	.	.	.	.	.	.	.	.	.	.	.	.	.	.	.	.
.	.	.	8E/J)	.	.	16dd/	.	8ee|\J)	.	.	.	.	.	.	.	.	.	.	.	.	.	.	.	.	.	.	.	.	.	.	.
.	.	.	.	.	.	16b/JJ	.	.	.	.	.	.	.	.	.	.	.	.	.	.	.	.	.	.	.	.	.	.	.	.	.
*	*	*	*	*	*	*Xrep	*	*	*	*	*	*	*	*	*	*	*	*	*	*	*	*	*	*	*	*	*	*	*	*	*
!	!	!	!	!	!	!LO:LB:g=original	!	!	!	!	!	!	!	!	!	!	!	!	!	!	!	!	!	!	!	!	!	!	!	!	!
2A\	.	.	(8c#/L	.	.	16e/LL	.	8ee\L	.	2A\	Vir-	.	2c#\	Vir-	.	.	.	.	.	.	.	.	2.a\	.	2.cc#\	.	2.a\	.	2.cc#\	.	.
.	.	.	.	.	.	16a/	.	.	.	.	.	.	.	.	.	.	.	.	.	.	.	.	.	.	.	.	.	.	.	.	.
.	.	.	8E/)	.	.	16cc#/	.	(16ccc#\L	.	.	.	.	.	.	.	.	.	.	.	.	.	.	.	.	.	.	.	.	.	.	.
.	.	.	.	.	.	16a/JJ	.	16aa\JJ)	.	.	.	.	.	.	.	.	.	.	.	.	.	.	.	.	.	.	.	.	.	.	.
*	*	*	*	*	*	*rep	*	*	*	*	*	*	*	*	*	*	*	*	*	*	*	*	*	*	*	*	*	*	*	*	*
.	.	.	(8c#/	.	.	16e/LL	.	(8ee'\L	.	.	.	.	.	.	.	.	.	.	.	.	.	.	.	.	.	.	.	.	.	.	.
.	.	.	.	.	.	16a/	.	.	.	.	.	.	.	.	.	.	.	.	.	.	.	.	.	.	.	.	.	.	.	.	.
.	.	.	8E/)	.	.	16cc#/	.	8ee'\	.	.	.	.	.	.	.	.	.	.	.	.	.	.	.	.	.	.	.	.	.	.	.
.	.	.	.	.	.	16a/JJ	.	.	.	.	.	.	.	.	.	.	.	.	.	.	.	.	.	.	.	.	.	.	.	.	.
*	*	*	*	*	*	*Xrep	*	*	*	*	*	*	*	*	*	*	*	*	*	*	*	*	*	*	*	*	*	*	*	*	*
*	*	*	*	*	*	*rep	*	*	*	*	*	*	*	*	*	*	*	*	*	*	*	*	*	*	*	*	*	*	*	*	*
4r	.	.	(8c#/	.	.	16e/LL	.	8ee'\	.	4A\	-go	.	4c#\	-go	.	.	.	.	.	.	.	.	.	.	.	.	.	.	.	.	.
.	.	.	.	.	.	16a/	.	.	.	.	.	.	.	.	.	.	.	.	.	.	.	.	.	.	.	.	.	.	.	.	.
.	.	.	8E/J)	.	.	16cc#/	.	8ee'\J)	.	.	.	.	.	.	.	.	.	.	.	.	.	.	.	.	.	.	.	.	.	.	.
.	.	.	.	.	.	16a/JJ	.	.	.	.	.	.	.	.	.	.	.	.	.	.	.	.	.	.	.	.	.	.	.	.	.
*	*	*	*	*	*	*Xrep	*	*	*	*	*	*	*	*	*	*	*	*	*	*	*	*	*	*	*	*	*	*	*	*	*
=51	=51	=51	=51	=51	=51	=51	=51	=51	=51	=51	=51	=51	=51	=51	=51	=51	=51	=51	=51	=51	=51	=51	=51	=51	=51	=51	=51	=51	=51	=51	=51
!	!	!	!LO:TX:t=P:problem=mixed beam	!	!	!	!	!	!	!	!	!	!	!	!	!	!	!	!	!	!	!	!	!	!	!	!	!	!	!	!
2E\	.	.	(8d\L	.	1.ryy	(16e/LL	.	16ee\LL	.	2G#\	Vir-	.	2B\	Vir-	.	4r	.	4r	.	.	1.ryy	1.ryy	2.e/	.	2.b\	.	2.g#/	.	2.b\	.	1.ryy
.	.	.	.	.	.	16g#/	.	16bb\	.	.	.	.	.	.	.	.	.	.	.	.	.	.	.	.	.	.	.	.	.	.	.
.	.	.	8E/)	.	.	16b/	.	16ddd\	.	.	.	.	.	.	.	.	.	.	.	.	.	.	.	.	.	.	.	.	.	.	.
.	.	.	.	.	.	16g#/JJ)	.	16bb\JJ	.	.	.	.	.	.	.	.	.	.	.	.	.	.	.	.	.	.	.	.	.	.	.
*	*	*	*	*	*	*rep	*	*	*	*	*	*	*	*	*	*	*	*	*	*	*	*	*	*	*	*	*	*	*	*	*
.	.	.	(8d\	.	.	(16e/LL	.	8ee|\L	.	.	.	.	.	.	.	4r	.	4r	.	.	.	.	.	.	.	.	.	.	.	.	.
.	.	.	.	.	.	16g#/	.	.	.	.	.	.	.	.	.	.	.	.	.	.	.	.	.	.	.	.	.	.	.	.	.
.	.	.	8E/)	.	.	16b/	.	8ee|\	.	.	.	.	.	.	.	.	.	.	.	.	.	.	.	.	.	.	.	.	.	.	.
.	.	.	.	.	.	16g#/JJ)	.	.	.	.	.	.	.	.	.	.	.	.	.	.	.	.	.	.	.	.	.	.	.	.	.
*	*	*	*	*	*	*Xrep	*	*	*	*	*	*	*	*	*	*	*	*	*	*	*	*	*	*	*	*	*	*	*	*	*
*	*	*	*	*	*	*rep	*	*	*	*	*	*	*	*	*	*	*	*	*	*	*	*	*	*	*	*	*	*	*	*	*
4r	.	.	(8d\	.	.	(16e/LL	.	8ee|\	.	4G#\	-gi-	.	4B\	-gi-	.	8r	.	8r	.	.	.	.	.	.	.	.	.	.	.	.	.
.	.	.	.	.	.	16g#/	.	.	.	.	.	.	.	.	.	.	.	.	.	.	.	.	.	.	.	.	.	.	.	.	.
.	.	.	8E/J)	.	.	16b/	.	8ddd\J	.	.	.	.	.	.	.	8g#\	o-	(8b\	o-	.	.	.	.	.	.	.	.	.	.	.	.
.	.	.	.	.	.	16g#/JJ)	.	.	.	.	.	.	.	.	.	.	.	.	.	.	.	.	.	.	.	.	.	.	.	.	.
*	*	*	*	*	*	*Xrep	*	*	*	*	*	*	*	*	*	*	*	*	*	*	*	*	*	*	*	*	*	*	*	*	*
4AA/	.	.	4e\	.	.	(16a/LL	.	8ddd\L	.	4A\	-num	.	4c#\	-num	.	4a\	.	4cc#\	-ra	.	.	.	4c#/	.	4a\	.	4a/	.	4cc#\	.	.
.	.	.	.	.	.	16g#/	.	.	.	.	.	.	.	.	.	.	.	.	.	.	.	.	.	.	.	.	.	.	.	.	.
.	.	.	.	.	.	16a/)	.	(8ccc#\J	.	.	.	.	.	.	.	.	.	.	.	.	.	.	.	.	.	.	.	.	.	.	.
.	.	.	.	.	.	16e|/JJ	.	.	.	.	.	.	.	.	.	.	.	.	.	.	.	.	.	.	.	.	.	.	.	.	.
!	!	!	!	!	!	!LO:TX:t=P:problem=mixed beam	!	!	!	!	!	!	!	!	!	!	!	!	!	!	!	!	!	!	!	!	!	!	!	!	!
4E\	.	.	4g#\	.	.	(16dd\LL	.	(8ccc#\L)	.	4r	.	.	4r	.	.	4b\	.	4dd\	.	.	.	.	4e/	.	4b\	.	4b/	.	4dd\	.	.
.	.	.	.	.	.	16cc#\)	.	.	.	.	.	.	.	.	.	.	.	.	.	.	.	.	.	.	.	.	.	.	.	.	.
.	.	.	.	.	.	16dd\	.	8bb\J)	.	.	.	.	.	.	.	.	.	.	.	.	.	.	.	.	.	.	.	.	.	.	.
.	.	.	.	.	.	16e|/JJ	.	.	.	.	.	.	.	.	.	.	.	.	.	.	.	.	.	.	.	.	.	.	.	.	.
!	!	!	!	!	!	!LO:TX:t=P:problem=mixed beam	!	!	!	!	!	!	!	!	!	!	!	!	!	!	!	!	!	!	!	!	!	!	!	!	!
4A\	.	.	4a\	.	.	(16cc#\LL	.	(8bb\L	.	4r	.	.	4r	.	.	4cc#\	-ra	4ee\)	.	.	.	.	4a/	.	4cc#\	.	4cc#/	.	4ee\	.	.
.	.	.	.	.	.	16b\	.	.	.	.	.	.	.	.	.	.	.	.	.	.	.	.	.	.	.	.	.	.	.	.	.
.	.	.	.	.	.	16cc#\)	.	8aa\J)	.	.	.	.	.	.	.	.	.	.	.	.	.	.	.	.	.	.	.	.	.	.	.
.	.	.	.	.	.	16e|/JJ	.	.	.	.	.	.	.	.	.	.	.	.	.	.	.	.	.	.	.	.	.	.	.	.	.
!	!	!	!	!	!	!	!	!	!	!	!	!	!	!	!	!	!	!LO:LB:g=original	!	!	!	!	!	!	!	!	!	!	!	!	!
=52	=52	=52	=52	=52	=52	=52	=52	=52	=52	=52	=52	=52	=52	=52	=52	=52	=52	=52	=52	=52	=52	=52	=52	=52	=52	=52	=52	=52	=52	=52	=52
4D\	.	.	8a\	.	1.ryy	4dd\	f	8ff#\L	f	4D\	o-	.	2.d\	o-	.	2.a\	o-	2.ff#\	o-	.	1.ryy	1.ryy	4A/	f	4a\	f	4dd\	.	4ff#\	.	1.ryy
.	.	.	4a\	.	.	.	.	8a\	.	.	.	.	.	.	.	.	.	.	.	.	.	.	.	.	.	.	.	.	.	.	.
4r	.	.	.	.	.	4ff#\	.	8aa\	.	4F#\	.	.	.	.	.	.	.	.	.	.	.	.	4A/	.	4a\	.	4ff#\	f	4aa\	f	.
.	.	.	4a\	.	.	.	.	8a\	.	.	.	.	.	.	.	.	.	.	.	.	.	.	.	.	.	.	.	.	.	.	.
!LO:TX:a:i:t=Tutti	!	!	!	!	!	!	!	!	!	!	!	!	!	!	!	!	!	!	!	!	!	!	!	!	!	!	!	!	!	!	!
4D\	.	.	.	.	.	4dd\	.	8ff#\	.	4D\	-ra	.	.	.	.	.	.	.	.	.	.	.	4A/	.	4a\	.	4dd\	.	4ff#\	.	.
.	.	.	4a\	.	.	.	.	8a\J	.	.	.	.	.	.	.	.	.	.	.	.	.	.	.	.	.	.	.	.	.	.	.
!	!	!	!	!	!	!	!	!	!	!	!	!	!	!	!	!	!	!	!	!	!	!	!LO:TUP:a:klamra łukowa z kropką zamiast cyfry	!	!LO:TUP:a:klamra łukowa z kropką zamiast cyfry	!	!	!	!LO:LB:g=original	!	!
4C#/	.	.	.	.	.	4cc#\	.	8ee\L	.	4C#\	.	.	4c#\	-ra	.	4g#\	-ra	4ee\	-ra	.	.	.	12A/L	.	12a\L	.	4cc#\	.	4ee\	.	.
.	.	.	.	.	.	.	.	.	.	.	.	.	.	.	.	.	.	.	.	.	.	.	12A/	.	12a\	.	.	.	.	.	.
.	.	.	4a\	.	.	.	.	8a\	.	.	.	.	.	.	.	.	.	.	.	.	.	.	.	.	.	.	.	.	.	.	.
.	.	.	.	.	.	.	.	.	.	.	.	.	.	.	.	.	.	.	.	.	.	.	12A/J	.	12a\J	.	.	.	.	.	.
4AA/	.	.	.	.	.	4a\	.	8cc#\	.	4r	.	.	4r	.	.	4r	.	4r	.	.	.	.	4A/	.	4a\	.	4a\	.	4cc#\	.	.
.	.	.	4a\	.	.	.	.	8a\	.	.	.	.	.	.	.	.	.	.	.	.	.	.	.	.	.	.	.	.	.	.	.
4C#/	.	.	.	.	.	4cc#\	.	8ee\	.	4r	.	.	4r	.	.	4r	.	4r	.	.	.	.	4r	.	4r	.	4cc#\	.	4ee\	.	.
.	.	.	[8a\	.	.	.	.	8a\J	.	.	.	.	.	.	.	.	.	.	.	.	.	.	.	.	.	.	.	.	.	.	.
!LO:LB:g=original	!	!	!LO:LB:g=original	!	!	!	!	!	!	!LO:LB:g=original	!	!	!	!	!	!	!	!	!	!	!	!	!	!	!	!	!LO:LB:g=original	!	!	!	!
=53	=53	=53	=53	=53	=53	=53	=53	=53	=53	=53	=53	=53	=53	=53	=53	=53	=53	=53	=53	=53	=53	=53	=53	=53	=53	=53	=53	=53	=53	=53	=53
!	!	!	!	!	!	!	!	!	!	!	!	!	!	!	!	!LO:N:vis=2	!	!	!	!	!	!	!	!	!	!	!	!	!	!	!
*	*	*	*	*	*	*	*	*	*	*	*	*	*	*ij	*	*	*	*	*ij	*	*	*	*	*	*	*	*	*	*	*	*
4D\	.	.	8a\]	.	1.ryy	4dd\	.	8ff#\L	.	4D\	o-	.	2.d\	o-	.	2.a\	o-	2.ff#\	o-	.	1.ryy	1.ryy	4A/	.	4a\	.	4dd\	.	4ff#\	.	1.ryy
.	.	.	4a\	.	.	.	.	8a\	.	.	.	.	.	.	.	.	.	.	.	.	.	.	.	.	.	.	.	.	.	.	.
4r	.	.	.	.	.	4ff#\	.	8aa\	.	4F#\	.	.	.	.	.	.	.	.	.	.	.	.	4A/	.	4a\	.	4ff#\	.	4aa\	.	.
.	.	.	4a\	.	.	.	.	8a\	.	.	.	.	.	.	.	.	.	.	.	.	.	.	.	.	.	.	.	.	.	.	.
4D\	.	.	.	.	.	4dd\	.	8ff#\	.	4D\	-ra	.	.	.	.	.	.	.	.	.	.	.	4A/	.	4a\	.	4dd\	.	4ff#\	.	.
.	.	.	4a\	.	.	.	.	8a\J	.	.	.	.	.	.	.	.	.	.	.	.	.	.	.	.	.	.	.	.	.	.	.
!	!	!	!	!	!	!	!	!LO:LB:g=original	!	!	!	!	!	!	!	!	!	!	!	!	!	!	!LO:TUP:a:klamra łukowa z kropką zamiast cyfry	!	!LO:TUP:a:klamra łukowa z kropką zamiast cyfry	!	!	!	!	!	!
4C#/	.	.	.	.	.	4cc#\	.	8ee\L	.	4C#\	.	.	4c#\	-ra	.	4a\	-ra	4ee\	-ra	.	.	.	12A/L	.	12a\L	.	4cc#\	.	4ee\	.	.
*	*	*	*	*	*	*	*	*	*	*	*	*	*	*Xij	*	*	*	*	*Xij	*	*	*	*	*	*	*	*	*	*	*	*
.	.	.	.	.	.	.	.	.	.	.	.	.	.	.	.	.	.	.	.	.	.	.	12A/	.	12a\	.	.	.	.	.	.
.	.	.	4a\	.	.	.	.	8a\	.	.	.	.	.	.	.	.	.	.	.	.	.	.	.	.	.	.	.	.	.	.	.
.	.	.	.	.	.	.	.	.	.	.	.	.	.	.	.	.	.	.	.	.	.	.	12A/J	.	12a\J	.	.	.	.	.	.
4AA/	.	.	.	.	.	4a\	.	8cc#\	.	4r	.	.	4r	.	.	4r	.	4r	.	.	.	.	4A/	.	4a\	.	4a\	.	4cc#\	.	.
.	.	.	4a\	.	.	.	.	8a\	.	.	.	.	.	.	.	.	.	.	.	.	.	.	.	.	.	.	.	.	.	.	.
4C#/	.	.	.	.	.	4cc#\	.	8ee\	.	4C#\	pro	.	4c#\	pro	.	4a\	pro	4ee\	pro	.	.	.	4r	.	4r	.	4cc#\	.	4ee\	.	.
.	.	.	8a\	.	.	.	.	8a\J	.	.	.	.	.	.	.	.	.	.	.	.	.	.	.	.	.	.	.	.	.	.	.
=54	=54	=54	=54	=54	=54	=54	=54	=54	=54	=54	=54	=54	=54	=54	=54	=54	=54	=54	=54	=54	=54	=54	=54	=54	=54	=54	=54	=54	=54	=54	=54
4D\	.	.	4f#\	.	1.ryy	4A/	.	8dd\L	.	4D\	no-	.	4B\	no-	.	(4f#\	no-	(4dd\	no-	.	1.ryy	1.ryy	4r	.	4r	.	4b/	.	4dd\	.	1.ryy
.	.	.	.	.	.	.	.	8b\	.	.	.	.	.	.	.	.	.	.	.	.	.	.	.	.	.	.	.	.	.	.	.
4E\	.	.	4e\	.	.	8A/L	.	8cc#\	.	4E\	.	.	4A\	.	.	2e\)	.	4cc#\	.	.	.	.	4a\	.	4cc#\	.	4a/	.	4cc#\	.	.
.	.	.	.	.	.	8c#/	.	8a\	.	.	.	.	.	.	.	.	.	.	.	.	.	.	.	.	.	.	.	.	.	.	.
4EE/	.	.	4e\	.	.	8d/	.	8b\	.	4EE/	.	.	4G#\	.	.	.	.	4b\)	.	.	.	.	4e/	.	4b\	.	4g#/	.	4b\	.	.
.	.	.	.	.	.	8B/J	.	8g#\J	.	.	.	.	.	.	.	.	.	.	.	.	.	.	.	.	.	.	.	.	.	.	.
4A\	.	.	2e\	.	.	2d/	.	2b\	.	2.AA/	-bis	.	2G#\	-bis.	.	(2e\	-bis	(2b\	-bis	.	.	.	2e/	.	2b\	.	2g#/	.	2b\	.	.
4E\	.	.	.	.	.	.	.	.	.	.	.	.	.	.	.	.	.	.	.	.	.	.	.	.	.	.	.	.	.	.	.
4AA/	.	.	4A/	.	.	4c#/	.	4a\	.	.	.	.	4A\	.	.	4c#\)	.	4a\)	.	.	.	.	4c#/	.	4a\	.	4a/	.	4a\	.	.
=55	=55	=55	=55	=55	=55	=55	=55	=55	=55	=55	=55	=55	=55	=55	=55	=55	=55	=55	=55	=55	=55	=55	=55	=55	=55	=55	=55	=55	=55	=55	=55
!	!	!LO:DY:b:t=pp&colon;	!	!LO:DY:t=pp&colon;	!	!LO:TX:t=P:problem=mixed beam	!	!LO:TX:a:i:t=dolce	!	!	!	!	!	!	!	!	!	!	!	!LO:DY:t=po	!	!	!	!	!	!LO:DY:t=po&colon;	!LO:TX:a:i:t=dolce	!	!	!LO:DY:t=pp&colon;	!
2E\	7 5	pp	4b\	pp	1.ryy	(8dd\L	.	16ee\LL	p	1.r	.	.	1.r	.	.	2.e\	Sanc-	2.e/	San-	p	1.ryy	1.ryy	2.e/	.	2.b\	p	2.b\	.	2.dd\	pp	1.ryy
.	.	.	.	.	.	.	.	16gg#\	.	.	.	.	.	.	.	.	.	.	.	.	.	.	.	.	.	.	.	.	.	.	.
.	.	.	.	.	.	8e/	.	16bb\	.	.	.	.	.	.	.	.	.	.	.	.	.	.	.	.	.	.	.	.	.	.	.
.	.	.	.	.	.	.	.	16gg#\JJ	.	.	.	.	.	.	.	.	.	.	.	.	.	.	.	.	.	.	.	.	.	.	.
.	.	.	4b\	.	.	8dd\	.	(8ee|\L	.	.	.	.	.	.	.	.	.	.	.	.	.	.	.	.	.	.	.	.	.	.	.
.	.	.	.	.	.	8e/	.	8ee|\	.	.	.	.	.	.	.	.	.	.	.	.	.	.	.	.	.	.	.	.	.	.	.
4r	.	.	4b\	.	.	8dd\)	.	8ee|\	.	.	.	.	.	.	.	.	.	.	.	.	.	.	.	.	.	.	.	.	.	.	.
.	.	.	.	.	.	8e/J	.	8ee|\J)	.	.	.	.	.	.	.	.	.	.	.	.	.	.	.	.	.	.	.	.	.	.	.
!	!	!	!	!	!	!LO:TX:t=P:problem=mixed beam	!	!	!	!	!	!	!	!	!	!LO:N:vis=2.	!	!	!	!	!	!	!	!LO:DY:t=po&colon;	!	!	!	!	!	!	!
2AA/	.	.	4a\	.	.	(8cc#\L	.	(16ee\LL	.	.	.	.	.	.	.	2e\	-ta	2e/	-cta	.	.	.	2.a\	p	2.cc#\	.	2.a\	.	2.cc#\	.	.
.	.	.	.	.	.	.	.	16aa\	.	.	.	.	.	.	.	.	.	.	.	.	.	.	.	.	.	.	.	.	.	.	.
.	.	.	.	.	.	8e/	.	16ccc#\	.	.	.	.	.	.	.	.	.	.	.	.	.	.	.	.	.	.	.	.	.	.	.
.	.	.	.	.	.	.	.	16aa\JJ)	.	.	.	.	.	.	.	.	.	.	.	.	.	.	.	.	.	.	.	.	.	.	.
.	.	.	4a\	.	.	8cc#\	.	(8ee|\L	.	.	.	.	.	.	.	.	.	.	.	.	.	.	.	.	.	.	.	.	.	.	.
.	.	.	.	.	.	8e/	.	8ee|\	.	.	.	.	.	.	.	.	.	.	.	.	.	.	.	.	.	.	.	.	.	.	.
4r	.	.	4a\	.	.	8cc#\)	.	8ee|\	.	.	.	.	.	.	.	4e\	Ma-	4e/	Ma-	.	.	.	.	.	.	.	.	.	.	.	.
.	.	.	.	.	.	8e/J	.	8ee|\J)	.	.	.	.	.	.	.	.	.	.	.	.	.	.	.	.	.	.	.	.	.	.	.
!	!	!	!	!	!	!	!	!	!	!	!	!	!LO:LB:g=original	!	!	!	!	!	!	!	!	!	!LO:LB:g=original	!	!	!	!	!	!	!	!
=56	=56	=56	=56	=56	=56	=56	=56	=56	=56	=56	=56	=56	=56	=56	=56	=56	=56	=56	=56	=56	=56	=56	=56	=56	=56	=56	=56	=56	=56	=56	=56
2E\	.	.	4g#\	.	1.ryy	8b/L	.	(16ee\LL	.	4r	.	.	4r	.	.	2.e\	-ri-	2.e/	-ri-	.	1.ryy	1.ryy	2.e/	.	2.b\	.	2.g#/	.	2.b\	.	1.ryy
.	.	.	.	.	.	.	.	16bb\	.	.	.	.	.	.	.	.	.	.	.	.	.	.	.	.	.	.	.	.	.	.	.
.	.	.	.	.	.	(8e/	.	16ddd\	.	.	.	.	.	.	.	.	.	.	.	.	.	.	.	.	.	.	.	.	.	.	.
.	.	.	.	.	.	.	.	16bb\JJ)	.	.	.	.	.	.	.	.	.	.	.	.	.	.	.	.	.	.	.	.	.	.	.
.	.	.	4g#\	.	.	8b/	.	8ee|\L	.	4r	.	.	4r	.	.	.	.	.	.	.	.	.	.	.	.	.	.	.	.	.	.
.	.	.	.	.	.	8e/	.	8ee|\	.	.	.	.	.	.	.	.	.	.	.	.	.	.	.	.	.	.	.	.	.	.	.
4r	.	.	8g#\L	.	.	8b/	.	(8ee|\	.	8r	.	.	8r	.	.	.	.	.	.	.	.	.	.	.	.	.	.	.	.	.	.
.	.	.	8e\J	.	.	8e/J)	.	8ddd|\J)	.	8G#\	o-	.	8B\	o-	.	.	.	.	.	.	.	.	.	.	.	.	.	.	.	.	.
!	!	!	!	!	!	!LO:LB:g=original	!	!	!	!	!	!	!	!	!	!	!	!	!	!	!	!	!	!	!	!	!	!	!	!	!
4A\	.	.	4c#/	.	.	4a/	.	(8ddd\L	.	4A\	.	.	(4c#\	-ra	.	4e\	-a	4e/	-a	.	.	.	4c#/	.	4a\	.	4a/	.	4cc#\	.	.
.	.	.	.	.	.	.	.	8ccc#\)	.	.	.	.	.	.	.	.	.	.	.	.	.	.	.	.	.	.	.	.	.	.	.
4E\	.	.	4B/	.	.	4e/	.	(8ccc#\	.	4B\	-ra	.	4d\	.	.	4r	.	4r	.	.	.	.	4r	.	4r	.	4b/	.	4dd\	.	.
.	.	.	.	.	.	.	.	8bb\)	.	.	.	.	.	.	.	.	.	.	.	.	.	.	.	.	.	.	.	.	.	.	.
4AA/	.	.	4A/	.	.	4c#/	.	(8bb\	.	4c#\	.	.	4e\)	.	.	4r	.	4r	.	.	.	.	4r	.	4r	.	4cc#/	.	4ee\	.	.
.	.	.	.	.	.	.	.	8aa\J)	.	.	.	.	.	.	.	.	.	.	.	.	.	.	.	.	.	.	.	.	.	.	.
=57	=57	=57	=57	=57	=57	=57	=57	=57	=57	=57	=57	=57	=57	=57	=57	=57	=57	=57	=57	=57	=57	=57	=57	=57	=57	=57	=57	=57	=57	=57	=57
2E\	7 5	.	4b\	.	1.ryy	8dd/L	.	(16aa\LL	.	1.r	.	.	1.r	.	.	2e\	San-	2e/	San-	.	1.ryy	1.ryy	2.e/	.	2.b\	.	2.b\	.	2.dd\	.	1.ryy
.	.	.	.	.	.	.	.	16gg#\)	.	.	.	.	.	.	.	.	.	.	.	.	.	.	.	.	.	.	.	.	.	.	.
.	.	.	.	.	.	(8e/	.	(16bb\	.	.	.	.	.	.	.	.	.	.	.	.	.	.	.	.	.	.	.	.	.	.	.
.	.	.	.	.	.	.	.	16gg#\JJ)	.	.	.	.	.	.	.	.	.	.	.	.	.	.	.	.	.	.	.	.	.	.	.
.	.	.	4b\	.	.	8dd/	.	8ee|\L	.	.	.	.	.	.	.	.	.	.	.	.	.	.	.	.	.	.	.	.	.	.	.
.	.	.	.	.	.	8e/)	.	8ee|\	.	.	.	.	.	.	.	.	.	.	.	.	.	.	.	.	.	.	.	.	.	.	.
!	!	!	!LO:TX:t=P:problem=między nutami 3 i 4 kreska taktowa	!	!	!	!	!	!	!	!	!	!	!	!	!	!	!	!	!	!	!	!	!	!	!	!	!	!	!	!
4r	.	.	4b\	.	.	8dd/	.	8ee|\	.	.	.	.	.	.	.	4e\	-cta	4e/	-cta	.	.	.	.	.	.	.	.	.	.	.	.
.	.	.	.	.	.	8e/J	.	8ee|\J	.	.	.	.	.	.	.	.	.	.	.	.	.	.	.	.	.	.	.	.	.	.	.
2AA/	.	.	4a\	.	.	8cc#/L	.	(16ee\LL	.	.	.	.	.	.	.	2e\	De-	2e/	de-	.	.	.	2.a\	.	2.cc#\	.	2.a\	.	2.cc#\	.	.
.	.	.	.	.	.	.	.	16aa\	.	.	.	.	.	.	.	.	.	.	.	.	.	.	.	.	.	.	.	.	.	.	.
.	.	.	.	.	.	(8e/	.	16ccc#\	.	.	.	.	.	.	.	.	.	.	.	.	.	.	.	.	.	.	.	.	.	.	.
.	.	.	.	.	.	.	.	16aa\JJ)	.	.	.	.	.	.	.	.	.	.	.	.	.	.	.	.	.	.	.	.	.	.	.
.	.	.	4a\	.	.	8cc#/	.	(8ee|\L	.	.	.	.	.	.	.	.	.	.	.	.	.	.	.	.	.	.	.	.	.	.	.
.	.	.	.	.	.	8e/	.	8ee|\	.	.	.	.	.	.	.	.	.	.	.	.	.	.	.	.	.	.	.	.	.	.	.
4r	.	.	4a\	.	.	8cc#/	.	8ee'\	.	.	.	.	.	.	.	4e\	-i	4e/	-i	.	.	.	.	.	.	.	.	.	.	.	.
.	.	.	.	.	.	8e/J)	.	8ee'\J)	.	.	.	.	.	.	.	.	.	.	.	.	.	.	.	.	.	.	.	.	.	.	.
!	!	!	!	!	!	!	!	!LO:LB:g=original	!	!	!	!	!	!	!	!LO:LB:g=original	!	!	!	!	!	!	!	!	!	!	!	!	!	!	!
=58	=58	=58	=58	=58	=58	=58	=58	=58	=58	=58	=58	=58	=58	=58	=58	=58	=58	=58	=58	=58	=58	=58	=58	=58	=58	=58	=58	=58	=58	=58	=58
2E\	.	.	4g#\	.	1.ryy	8b/L	.	(16ee\LL	.	4r	.	.	4r	.	.	2e\	ge-	2e/	ge-	.	1.ryy	1.ryy	2.e/	.	2.b\	.	2.g#/	.	2.b\	.	1.ryy
.	.	.	.	.	.	.	.	16bb\	.	.	.	.	.	.	.	.	.	.	.	.	.	.	.	.	.	.	.	.	.	.	.
.	.	.	.	.	.	8e/	.	16ddd\	.	.	.	.	.	.	.	.	.	.	.	.	.	.	.	.	.	.	.	.	.	.	.
.	.	.	.	.	.	.	.	16bb\JJ)	.	.	.	.	.	.	.	.	.	.	.	.	.	.	.	.	.	.	.	.	.	.	.
.	.	.	4g#\	.	.	8b/	.	(8ee|\L	.	4r	.	.	4r	.	.	.	.	.	.	.	.	.	.	.	.	.	.	.	.	.	.
.	.	.	.	.	.	8e/	.	8ee|\	.	.	.	.	.	.	.	.	.	.	.	.	.	.	.	.	.	.	.	.	.	.	.
4r	.	.	8g#\L	.	.	8b/	.	8ee|\	.	8r	.	.	8r	.	.	4e\	-ni-	4e/	-ni-	.	.	.	.	.	.	.	.	.	.	.	.
*	*	*	*	*	*	*	*	*	*	*	*ij	*	*	*ij	*	*	*	*	*	*	*	*	*	*	*	*	*	*	*	*	*
.	.	.	8e\J	.	.	8e/J	.	8ddd|\J)	.	8G#\	o-	.	(8B\	o-	.	.	.	.	.	.	.	.	.	.	.	.	.	.	.	.	.
!	!	!	!	!	!	!	!	!	!	!	!	!	!	!	!	!	!	!	!	!	!	!	!	!	!LO:LB:g=original	!	!	!	!	!	!
4A\	.	.	4c#/	.	.	4a/	.	(8ddd\L	.	4A\	.	.	4c#\	.	.	4e\	-trix	4e/	-trix	.	.	.	4c#/	.	4a\	.	4a/	.	4cc#\	.	.
.	.	.	.	.	.	.	.	8ccc#\J)	.	.	.	.	.	.	.	.	.	.	.	.	.	.	.	.	.	.	.	.	.	.	.
4E\	.	.	4B/	.	.	4e/	.	(8ccc#\L	.	4B\	.	.	4d\)	.	.	4r	.	4r	.	.	.	.	4r	.	4r	.	4b/	.	4dd\	.	.
.	.	.	.	.	.	.	.	8bb\J)	.	.	.	.	.	.	.	.	.	.	.	.	.	.	.	.	.	.	.	.	.	.	.
4AA/	.	.	4A/	.	.	4c#/	.	(8bb\L	.	4c#\	-ra	.	4e\	-ra	.	4r	.	4r	.	.	.	.	4r	.	4r	.	4cc#/	.	4ee\	.	.
*	*	*	*	*	*	*	*	*	*	*	*Xij	*	*	*Xij	*	*	*	*	*	*	*	*	*	*	*	*	*	*	*	*	*
.	.	.	.	.	.	.	.	8aa\J)	.	.	.	.	.	.	.	.	.	.	.	.	.	.	.	.	.	.	.	.	.	.	.
=59	=59	=59	=59	=59	=59	=59	=59	=59	=59	=59	=59	=59	=59	=59	=59	=59	=59	=59	=59	=59	=59	=59	=59	=59	=59	=59	=59	=59	=59	=59	=59
2E\	.	.	(8dd\L	.	1.ryy	16e/LL	.	(16aa\LL	.	1.r	.	.	1.r	.	.	2e\	San-	2e/	San-	.	1.ryy	1.ryy	2.e/	.	2.b\	.	2.b/	.	2.dd\	.	1.ryy
.	.	.	.	.	.	16b/	.	16gg#\	.	.	.	.	.	.	.	.	.	.	.	.	.	.	.	.	.	.	.	.	.	.	.
.	.	.	8b\	.	.	16dd/	.	16bb\	.	.	.	.	.	.	.	.	.	.	.	.	.	.	.	.	.	.	.	.	.	.	.
.	.	.	.	.	.	16b/JJ	.	16gg#\JJ)	.	.	.	.	.	.	.	.	.	.	.	.	.	.	.	.	.	.	.	.	.	.	.
*	*	*	*	*	*	*rep	*	*	*	*	*	*	*	*	*	*	*	*	*	*	*	*	*	*	*	*	*	*	*	*	*
.	.	.	8dd\)	.	.	16e/LL	.	8ee|\L	.	.	.	.	.	.	.	.	.	.	.	.	.	.	.	.	.	.	.	.	.	.	.
.	.	.	.	.	.	16b/	.	.	.	.	.	.	.	.	.	.	.	.	.	.	.	.	.	.	.	.	.	.	.	.	.
.	.	.	(8b\	.	.	16dd/	.	8ee|\	.	.	.	.	.	.	.	.	.	.	.	.	.	.	.	.	.	.	.	.	.	.	.
.	.	.	.	.	.	16b/JJ	.	.	.	.	.	.	.	.	.	.	.	.	.	.	.	.	.	.	.	.	.	.	.	.	.
*	*	*	*	*	*	*Xrep	*	*	*	*	*	*	*	*	*	*	*	*	*	*	*	*	*	*	*	*	*	*	*	*	*
*	*	*	*	*	*	*rep	*	*	*	*	*	*	*	*	*	*	*	*	*	*	*	*	*	*	*	*	*	*	*	*	*
4r	.	.	8e\	.	.	16e/LL	.	8ee|\	.	.	.	.	.	.	.	4e\	-cta	4e/	-cta	.	.	.	.	.	.	.	.	.	.	.	.
.	.	.	.	.	.	16b/	.	.	.	.	.	.	.	.	.	.	.	.	.	.	.	.	.	.	.	.	.	.	.	.	.
.	.	.	8b\J)	.	.	16dd/	.	8ee|\J	.	.	.	.	.	.	.	.	.	.	.	.	.	.	.	.	.	.	.	.	.	.	.
.	.	.	.	.	.	16b/JJ	.	.	.	.	.	.	.	.	.	.	.	.	.	.	.	.	.	.	.	.	.	.	.	.	.
*	*	*	*	*	*	*Xrep	*	*	*	*	*	*	*	*	*	*	*	*	*	*	*	*	*	*	*	*	*	*	*	*	*
!	!	!	!LO:LB:g=original	!	!	!	!	!	!	!	!	!	!	!	!	!	!	!LO:LB:g=original	!	!	!	!	!	!	!	!	!	!	!	!	!
2AA/	.	.	(8cc#\L	.	.	16e/LL	.	(16ee\LL	.	.	.	.	.	.	.	2f#\	Vir-	2e/	Vir-	.	.	.	2.a\	.	2.cc#\	.	2.a/	.	2.cc#\	.	.
.	.	.	.	.	.	16a/	.	16aa\	.	.	.	.	.	.	.	.	.	.	.	.	.	.	.	.	.	.	.	.	.	.	.
.	.	.	8a\	.	.	16cc#/	.	16ccc#\	.	.	.	.	.	.	.	.	.	.	.	.	.	.	.	.	.	.	.	.	.	.	.
.	.	.	.	.	.	16a/JJ	.	16aa\JJ)	.	.	.	.	.	.	.	.	.	.	.	.	.	.	.	.	.	.	.	.	.	.	.
*	*	*	*	*	*	*rep	*	*	*	*	*	*	*	*	*	*	*	*	*	*	*	*	*	*	*	*	*	*	*	*	*
.	.	.	(8cc#\)	.	.	16e/LL	.	8ee|\L	.	.	.	.	.	.	.	.	.	.	.	.	.	.	.	.	.	.	.	.	.	.	.
.	.	.	.	.	.	16a/	.	.	.	.	.	.	.	.	.	.	.	.	.	.	.	.	.	.	.	.	.	.	.	.	.
.	.	.	8a\)	.	.	16cc#/	.	8ee|\	.	.	.	.	.	.	.	.	.	.	.	.	.	.	.	.	.	.	.	.	.	.	.
.	.	.	.	.	.	16a/JJ	.	.	.	.	.	.	.	.	.	.	.	.	.	.	.	.	.	.	.	.	.	.	.	.	.
*	*	*	*	*	*	*Xrep	*	*	*	*	*	*	*	*	*	*	*	*	*	*	*	*	*	*	*	*	*	*	*	*	*
*	*	*	*	*	*	*rep	*	*	*	*	*	*	*	*	*	*	*	*	*	*	*	*	*	*	*	*	*	*	*	*	*
4r	.	.	8e\	.	.	16e/LL	.	8ee|\	.	.	.	.	.	.	.	4e\	-go	4e/	-go	.	.	.	.	.	.	.	.	.	.	.	.
.	.	.	.	.	.	16a/	.	.	.	.	.	.	.	.	.	.	.	.	.	.	.	.	.	.	.	.	.	.	.	.	.
.	.	.	8a\J	.	.	16cc#/	.	8ee|\J	.	.	.	.	.	.	.	.	.	.	.	.	.	.	.	.	.	.	.	.	.	.	.
.	.	.	.	.	.	16a/JJ	.	.	.	.	.	.	.	.	.	.	.	.	.	.	.	.	.	.	.	.	.	.	.	.	.
*	*	*	*	*	*	*Xrep	*	*	*	*	*	*	*	*	*	*	*	*	*	*	*	*	*	*	*	*	*	*	*	*	*
!LO:LB:g=original	!	!	!	!	!	!	!	!	!	!LO:LB:g=original	!	!	!	!	!	!	!	!	!	!	!	!	!	!	!	!	!	!	!	!	!
=60	=60	=60	=60	=60	=60	=60	=60	=60	=60	=60	=60	=60	=60	=60	=60	=60	=60	=60	=60	=60	=60	=60	=60	=60	=60	=60	=60	=60	=60	=60	=60
2E\	.	.	(8b\L	.	1.ryy	16e/LL	.	(16ee\LL	.	4r	.	.	4r	.	.	2e\	Vir-	2e/	Vir-	.	1.ryy	1.ryy	2.e/	.	2.b\	.	2.g#/	.	2.b\	.	1.ryy
.	.	.	.	.	.	16g#/	.	16bb\	.	.	.	.	.	.	.	.	.	.	.	.	.	.	.	.	.	.	.	.	.	.	.
.	.	.	8g#\)	.	.	16b/	.	16ddd\	.	.	.	.	.	.	.	.	.	.	.	.	.	.	.	.	.	.	.	.	.	.	.
.	.	.	.	.	.	16g#/JJ	.	16bb\JJ)	.	.	.	.	.	.	.	.	.	.	.	.	.	.	.	.	.	.	.	.	.	.	.
*	*	*	*	*	*	*rep	*	*	*	*	*	*	*	*	*	*	*	*	*	*	*	*	*	*	*	*	*	*	*	*	*
.	.	.	(8b\	.	.	16e/LL	.	8ee|\L	.	4r	.	.	4r	.	.	.	.	.	.	.	.	.	.	.	.	.	.	.	.	.	.
.	.	.	.	.	.	16g#/	.	.	.	.	.	.	.	.	.	.	.	.	.	.	.	.	.	.	.	.	.	.	.	.	.
.	.	.	8g#\)	.	.	16b/	.	8ee|\	.	.	.	.	.	.	.	.	.	.	.	.	.	.	.	.	.	.	.	.	.	.	.
.	.	.	.	.	.	16g#/JJ	.	.	.	.	.	.	.	.	.	.	.	.	.	.	.	.	.	.	.	.	.	.	.	.	.
*	*	*	*	*	*	*Xrep	*	*	*	*	*	*	*	*	*	*	*	*	*	*	*	*	*	*	*	*	*	*	*	*	*
*	*	*	*	*	*	*rep	*	*	*	*	*	*	*	*	*	*	*	*	*	*	*	*	*	*	*	*	*	*	*	*	*
4r	.	.	(8e\	.	.	16e/LL	.	(8ee|\	.	8r	.	.	8r	.	.	4e\	-gi-	4e/	-gi-	.	.	.	.	.	.	.	.	.	.	.	.
.	.	.	.	.	.	16g#/	.	.	.	.	.	.	.	.	.	.	.	.	.	.	.	.	.	.	.	.	.	.	.	.	.
.	.	.	8g#\J)	.	.	16b/	.	8ddd\J)	.	8G#\	o-	.	8B\	o-	.	.	.	.	.	.	.	.	.	.	.	.	.	.	.	.	.
.	.	.	.	.	.	16g#/JJ	.	.	.	.	.	.	.	.	.	.	.	.	.	.	.	.	.	.	.	.	.	.	.	.	.
*	*	*	*	*	*	*Xrep	*	*	*	*	*	*	*	*	*	*	*	*	*	*	*	*	*	*	*	*	*	*	*	*	*
4A\	.	.	4e\	.	.	8a/L	.	(8ddd\L	.	4A\	.	.	4c#\	.	.	4e\	-num	4e/	-num	.	.	.	4c#/	.	4a\	.	4a\	.	4cc#\	.	.
.	.	.	.	.	.	8e/	.	8ccc#\J)	.	.	.	.	.	.	.	.	.	.	.	.	.	.	.	.	.	.	.	.	.	.	.
4E\	.	.	4g#\	.	.	8dd/	.	(8ccc#\L	.	4B\	-ra	.	4d\	-ra	.	4r	.	4r	.	.	.	.	4r	.	4r	.	4b\	.	4dd\	.	.
.	.	.	.	.	.	8e/	.	8bb\J)	.	.	.	.	.	.	.	.	.	.	.	.	.	.	.	.	.	.	.	.	.	.	.
4AA/	.	.	4a\	.	.	8cc#/	.	(8bb\L	.	4c#\	.	.	4e\	.	.	4r	.	4r	.	.	.	.	4r	.	4r	.	4cc#\	.	4ee\	.	.
.	.	.	.	.	.	8e/J	.	8aa\J)	.	.	.	.	.	.	.	.	.	.	.	.	.	.	.	.	.	.	.	.	.	.	.
=61	=61	=61	=61	=61	=61	=61	=61	=61	=61	=61	=61	=61	=61	=61	=61	=61	=61	=61	=61	=61	=61	=61	=61	=61	=61	=61	=61	=61	=61	=61	=61
!LO:TX:a:i:t=Tutti	!	!	!	!	!	!	!	!	!	!	!	!LO:DY:a:t=for	!	!	!	!	!	!	!	!	!	!	!	!	!	!	!	!	!	!	!
*	*	*	*	*	*	*	*	*	*	*	*ij	*	*	*ij	*	*	*	*	*	*	*	*	*	*	*	*	*	*	*	*	*
8D\L	.	.	8a\	.	1.ryy	4dd\	f	(8ff#\L	f	4D\	o-	f	2.d\	o-	.	2.a\	o-	2.ff#\	o-	.	1.ryy	1.ryy	4A/	.	4a\	.	2.dd\	.	2.ff#\	f	1.ryy
8A\	.	.	4a\	.	.	.	.	8a\)	.	.	.	.	.	.	.	.	.	.	.	.	.	.	.	.	.	.	.	.	.	.	.
8F#\	.	.	.	.	.	4ff#\	.	(8aa\	.	4F#\	.	.	.	.	.	.	.	.	.	.	.	.	4A/	.	4a\	.	.	.	.	.	.
8A\	.	.	4a\	.	.	.	.	8a\)	.	.	.	.	.	.	.	.	.	.	.	.	.	.	.	.	.	.	.	.	.	.	.
8D\	.	.	.	.	.	4dd\	.	(8ff#\	.	4D\	.	.	.	.	.	.	.	.	.	.	.	.	4A/	.	4a\	.	.	.	.	.	.
8A\J	.	.	4a\	.	.	.	.	8a\J)	.	.	.	.	.	.	.	.	.	.	.	.	.	.	.	.	.	.	.	.	.	.	.
!	!	!	!	!	!	!	!	!	!	!	!	!	!	!	!	!	!	!	!	!	!	!	!LO:TUP:a:klamra łukowa z kropką zamiast cyfry	!	!LO:TUP:a:klamra łukowa z kropką zamiast cyfry	!	!	!	!	!	!
8C#\L	.	.	.	.	.	4cc#\	.	(8ee\L	.	4C#\	-ra	.	4c#\	-ra	.	4a\	-ra	4ee\	-ra	.	.	.	12A/L	.	12a\L	.	4cc#\	.	4ee\	.	.
*	*	*	*	*	*	*	*	*	*	*	*Xij	*	*	*Xij	*	*	*	*	*	*	*	*	*	*	*	*	*	*	*	*	*
.	.	.	.	.	.	.	.	.	.	.	.	.	.	.	.	.	.	.	.	.	.	.	12A/	.	12a\	.	.	.	.	.	.
8A\	.	.	4a\	.	.	.	.	8a\)	.	.	.	.	.	.	.	.	.	.	.	.	.	.	.	.	.	.	.	.	.	.	.
.	.	.	.	.	.	.	.	.	.	.	.	.	.	.	.	.	.	.	.	.	.	.	12A/J	.	12a\J	.	.	.	.	.	.
8BB\	.	.	.	.	.	4b\	.	(8dd\	.	4r	.	.	4r	.	.	4r	.	4r	.	.	.	.	4A/	.	4a\	.	4b\	.	4dd\	.	.
8A\	.	.	4a\	.	.	.	.	8a\)	.	.	.	.	.	.	.	.	.	.	.	.	.	.	.	.	.	.	.	.	.	.	.
8AA\	.	.	.	.	.	4a\	.	(8cc#\	.	4r	.	.	4r	.	.	4r	.	4r	.	.	.	.	4r	.	4r	.	4a\	.	4cc#\	.	.
8A\J	.	.	[8a\	.	.	.	.	8a\J)	.	.	.	.	.	.	.	.	.	.	.	.	.	.	.	.	.	.	.	.	.	.	.
=62	=62	=62	=62	=62	=62	=62	=62	=62	=62	=62	=62	=62	=62	=62	=62	=62	=62	=62	=62	=62	=62	=62	=62	=62	=62	=62	=62	=62	=62	=62	=62
*	*	*	*	*	*	*	*	*	*	*	*ij	*	*	*ij	*	*	*	*	*	*	*	*	*	*	*	*	*	*	*	*	*
8D\L	.	.	8a\]	.	1.ryy	4dd\	.	(8ff#\L	.	4D\	o-	.	2.d\	o-	.	2.a\	o-	2.ff#\	o-	.	1.ryy	1.ryy	4A/	.	4a\	.	2.dd\	.	2.ff#\	.	1.ryy
8A\	.	.	4a\	.	.	.	.	8a\)	.	.	.	.	.	.	.	.	.	.	.	.	.	.	.	.	.	.	.	.	.	.	.
8F#\	.	.	.	.	.	4ff#\	.	(8aa\	.	4F#\	.	.	.	.	.	.	.	.	.	.	.	.	4A/	.	4a\	.	.	.	.	.	.
8A\	.	.	4a\	.	.	.	.	8a\)	.	.	.	.	.	.	.	.	.	.	.	.	.	.	.	.	.	.	.	.	.	.	.
8D\	.	.	.	.	.	4dd\	.	(8ff#\	.	4D\	.	.	.	.	.	.	.	.	.	.	.	.	4A/	.	4a\	.	.	.	.	.	.
8A\J	.	.	4a\	.	.	.	.	8a\J)	.	.	.	.	.	.	.	.	.	.	.	.	.	.	.	.	.	.	.	.	.	.	.
!	!	!	!	!	!	!LO:LB:g=original	!	!LO:LB:g=original	!	!	!	!	!	!	!	!	!	!	!	!	!	!	!LO:TUP:a:klamra łukowa z kropką zamiast cyfry	!	!LO:TUP:a:klamra łukowa z kropką zamiast cyfry	!	!	!	!	!	!
8C#\L	.	.	.	.	.	4cc#\	.	(8ee\L	.	4C#\	-ra	.	4c#\	-ra	.	4g#\	-ra	4ee\	-ra	.	.	.	12A/L	.	12a\L	.	4cc#\	.	4ee\	.	.
*	*	*	*	*	*	*	*	*	*	*	*Xij	*	*	*Xij	*	*	*	*	*	*	*	*	*	*	*	*	*	*	*	*	*
.	.	.	.	.	.	.	.	.	.	.	.	.	.	.	.	.	.	.	.	.	.	.	12A/	.	12a\	.	.	.	.	.	.
8A\	.	.	4a\	.	.	.	.	8a\)	.	.	.	.	.	.	.	.	.	.	.	.	.	.	.	.	.	.	.	.	.	.	.
.	.	.	.	.	.	.	.	.	.	.	.	.	.	.	.	.	.	.	.	.	.	.	12A/J	.	12a\J	.	.	.	.	.	.
8BB\	.	.	.	.	.	4b\	.	(8dd\	.	4r	.	.	4r	.	.	4r	.	4r	.	.	.	.	4A/	.	4a\	.	4b\	.	4dd\	.	.
8A\	.	.	4a\	.	.	.	.	8a\)	.	.	.	.	.	.	.	.	.	.	.	.	.	.	.	.	.	.	.	.	.	.	.
8AA\	.	.	.	.	.	4a\	.	(8cc#\	.	4r	.	.	4r	.	.	4r	.	4r	.	.	.	.	4r	.	4r	.	4a\	.	4cc#\	.	.
8A\J	.	.	8a\	.	.	.	.	8a\J)	.	.	.	.	.	.	.	.	.	.	.	.	.	.	.	.	.	.	.	.	.	.	.
!	!	!	!	!	!	!	!	!	!	!	!	!	!	!	!	!	!	!	!	!	!	!	!	!	!	!	!LO:LB:g=original	!	!LO:LB:g=original	!	!
=63	=63	=63	=63	=63	=63	=63	=63	=63	=63	=63	=63	=63	=63	=63	=63	=63	=63	=63	=63	=63	=63	=63	=63	=63	=63	=63	=63	=63	=63	=63	=63
*	*	*	*	*	*	*	*	*	*	*	*	*	*	*ij	*	*	*	*	*	*	*	*	*	*	*	*	*	*	*	*	*
4EE/	.	.	2e\	.	1.ryy	4b/	.	(8dd\L	.	2E\	o-	.	2B\	o-	.	2g#\	o-	2dd\	o-	.	1.ryy	1.ryy	2.e/	.	2.b\	.	2.b\	.	1.ee\	.	1.ryy
.	.	.	.	.	.	.	.	8ee\)	.	.	.	.	.	.	.	.	.	.	.	.	.	.	.	.	.	.	.	.	.	.	.
4E\	.	.	.	.	.	4g#/	.	(8b\	.	.	.	.	.	.	.	.	.	.	.	.	.	.	.	.	.	.	.	.	.	.	.
.	.	.	.	.	.	.	.	8ee\)	.	.	.	.	.	.	.	.	.	.	.	.	.	.	.	.	.	.	.	.	.	.	.
4D\	.	.	4e\	.	.	4b/	.	(8dd\	.	4D\	-ra	.	4B\	-ra	.	4g#\	-ra	(4dd\	-ra	.	.	.	.	.	.	.	.	.	.	.	.
.	.	.	.	.	.	.	.	8ee\J)	.	.	.	.	.	.	.	.	.	.	.	.	.	.	.	.	.	.	.	.	.	.	.
*	*	*	*	*	*	*	*	*	*	*	*ij	*	*	*	*	*	*	*	*	*	*	*	*	*	*	*	*	*	*	*	*
4C#/	.	.	4a\	.	.	8a/L	.	(8cc#\L	.	4C#/	o-	.	4c#\	o-	.	(4a\	o-	4cc#\)	o-	.	.	.	4a\	.	4cc#\	.	4a\	.	.	.	.
.	.	.	.	.	.	8e/	.	8ee\)	.	.	.	.	.	.	.	.	.	.	.	.	.	.	.	.	.	.	.	.	.	.	.
4BB/	.	.	4e\	.	.	8dd/	.	(8g#\	.	4BB/	.	.	4d\	.	.	4b\)	.	4g#\	-ra	.	.	.	4b\	.	4dd\	.	4dd\	.	.	.	.
.	.	.	.	.	.	8e/	.	8b\)	.	.	.	.	.	.	.	.	.	.	.	.	.	.	.	.	.	.	.	.	.	.	.
4AA/	.	.	4c#\	.	.	8cc#/	.	(8a\	.	4AA/	-ra	.	4e\	-ra	.	4cc#\	-ra	4a\	.	.	.	.	4cc#\	.	4ee\	.	4cc#\	.	.	.	.
*	*	*	*	*	*	*	*	*	*	*	*	*	*	*Xij	*	*	*	*	*	*	*	*	*	*	*	*	*	*	*	*	*
.	.	.	.	.	.	8e/J	.	8cc#\J)	.	.	.	.	.	.	.	.	.	.	.	.	.	.	.	.	.	.	.	.	.	.	.
!	!	!	!	!	!	!	!	!	!	!	!	!	!LO:LB:g=original	!	!	!	!	!	!	!	!	!	!	!	!	!	!	!	!	!	!
=64	=64	=64	=64	=64	=64	=64	=64	=64	=64	=64	=64	=64	=64	=64	=64	=64	=64	=64	=64	=64	=64	=64	=64	=64	=64	=64	=64	=64	=64!|:	=64	=64
4EE/	.	.	2e\	.	1.ryy	4b/	.	(8dd\L	.	2E\	o-	.	2B\	o-	.	2g#\	o-	2dd\	o-	.	1.ryy	1.ryy	2.e\	.	2.b\	.	2.b\	.	1.ee\	.	1.ryy
.	.	.	.	.	.	.	.	8ee\	.	.	.	.	.	.	.	.	.	.	.	.	.	.	.	.	.	.	.	.	.	.	.
4E\	.	.	.	.	.	4g#/	.	8b\	.	.	.	.	.	.	.	.	.	.	.	.	.	.	.	.	.	.	.	.	.	.	.
.	.	.	.	.	.	.	.	8ee\	.	.	.	.	.	.	.	.	.	.	.	.	.	.	.	.	.	.	.	.	.	.	.
4D\	.	.	4e\	.	.	4b/	.	8dd\)	.	4D\	-ra	.	4B\	-ra	.	4g#\	-ra	4dd\	-ra	.	.	.	.	.	.	.	.	.	.	.	.
.	.	.	.	.	.	.	.	8ee\J	.	.	.	.	.	.	.	.	.	.	.	.	.	.	.	.	.	.	.	.	.	.	.
!	!	!	!	!	!	!LO:TX:t=P:problem=mixed beam	!	!	!	!	!	!	!	!	!	!	!	!	!	!	!	!	!	!	!	!	!	!	!	!	!
*	*	*	*	*	*	*	*	*	*	*	*	*	*	*ij	*	*	*	*	*	*	*	*	*	*	*	*	*	*	*	*	*
4C#/	.	.	4a\	.	.	8a/L	.	(8cc#\L	.	4C#/	o-	.	4c#\	o-	.	(4a\	o-	(4cc#\	o-	.	.	.	4a\	.	4cc#\	.	4a\	.	.	.	.
.	.	.	.	.	.	8e/	.	8ee\	.	.	.	.	.	.	.	.	.	.	.	.	.	.	.	.	.	.	.	.	.	.	.
4BB/	.	.	4e\	.	.	8ee\	.	8g#\	.	4BB/	.	.	4d\	.	.	4b\)	.	4g#\)	-ra	.	.	.	4b\	.	4dd\	.	4dd\	.	.	.	.
.	.	.	.	.	.	8e/J	.	8b\	.	.	.	.	.	.	.	.	.	.	.	.	.	.	.	.	.	.	.	.	.	.	.
4AA/	.	.	4A/	.	.	4cc#\	.	8a\	.	4AA/	-ra	.	4e\	-ra	.	4cc#\	-ra	4a\	.	.	.	.	4cc#\	.	4ee\	.	4cc#\	.	.	.	.
*	*	*	*	*	*	*	*	*	*	*	*Xij	*	*	*Xij	*	*	*	*	*	*	*	*	*	*	*	*	*	*	*	*	*
.	.	.	.	.	.	.	.	8aa\J)	.	.	.	.	.	.	.	.	.	.	.	.	.	.	.	.	.	.	.	.	.	.	.
!LO:LB:g=original	!	!	!	!	!	!	!	!	!	!LO:LB:g=original	!	!	!	!	!	!	!	!	!	!	!	!	!LO:LB:g=original	!	!	!	!	!	!	!	!
=65	=65	=65	=65	=65	=65	=65	=65	=65	=65	=65	=65	=65	=65	=65	=65	=65	=65	=65	=65	=65	=65	=65	=65	=65	=65	=65	=65	=65	=65:|!	=65	=65
!	!	!	!	!	!	!	!	!	!	!	!	!	!	!	!	!	!	!	!	!	!	!	!	!	!	!	!	!	!LO:TX:t=P:problem=takt zapisany powtórką	!	!
1.ryy	.	.	1.ryy	.	1.ryy	1.ryy	.	1.ryy	.	1.ryy	.	.	1.ryy	.	.	1.ryy	.	1.ryy	.	.	1.ryy	1.ryy	2.e/	.	2.b\	.	1.ryy	.	1.ee\yy	.	1.ryy
.	.	.	.	.	.	.	.	.	.	.	.	.	.	.	.	.	.	.	.	.	.	.	4a\	.	4cc#\	.	.	.	.	.	.
.	.	.	.	.	.	.	.	.	.	.	.	.	.	.	.	.	.	.	.	.	.	.	4b\	.	4dd\	.	.	.	.	.	.
.	.	.	.	.	.	.	.	.	.	.	.	.	.	.	.	.	.	.	.	.	.	.	4cc#\	.	4ee\	.	.	.	.	.	.
=66	=66	=66	=66	=66	=66	=66	=66	=66	=66	=66	=66	=66	=66	=66	=66	=66	=66	=66	=66	=66	=66	=66	=66	=66	=66	=66	=66	=66	=66	=66	=66
!	!	!	!	!	!	!LO:TX:t=P:problem=mixed beam	!	!	!	!	!	!	!	!	!	!	!	!	!	!	!	!	!	!	!	!	!	!	!	!	!
4D\	.	.	4d\	.	1.ryy	8dd\L	.	(8ff#\L	.	4D\	pro	.	4f#\	pro	.	4b\	pro	4dd\	pro	.	1.ryy	1.ryy	4r	.	4r	.	4b/	.	8ff#\L	.	1.ryy
.	.	.	.	.	.	8b\	.	8dd\	.	.	.	.	.	.	.	.	.	.	.	.	.	.	.	.	.	.	.	.	8dd\J	.	.
4E\	4	.	4e\	.	.	8a\	.	8cc#\	.	4E\	no-	.	4e\	.	.	4a\	.	4cc#\	.	.	.	.	4a\	.	4cc#\	.	4a/	.	4cc#\	.	.
.	.	.	.	.	.	8c#/	.	8ee\	.	.	.	.	.	.	.	.	.	.	.	.	.	.	.	.	.	.	.	.	.	.	.
4EE/	3	.	4E/	.	.	8B/	.	8g#\	.	4EE/	.	.	4E/	no-	.	4d\	no-	4b\	no-	.	.	.	4e/	.	4b\	.	4g#/	.	4b\	.	.
.	.	.	.	.	.	8d/J	.	8b\J)	.	.	.	.	.	.	.	.	.	.	.	.	.	.	.	.	.	.	.	.	.	.	.
4AA/	.	.	4A/	.	.	4c#/	.	4a/	.	4AA/	-bis:	.	4A\	-bis	.	4c#\	-bis.	4a\	-bis.	.	.	.	4c#/	.	4a\	.	4a/	.	4a\	.	.
4r	.	.	4r	.	.	4r	.	4r	.	4r	.	.	4r	.	.	4r	.	4r	.	.	.	.	4r	.	4r	.	4r	.	4r	.	.
!	!	!	!	!	!	!	!	!.	!LO:DY:t=po.	!	!	!	!	!	!	!	!	!	!	!	!	!	!	!	!	!	!	!	!	!	!
4r	.	.	4r	.	.	4e/	p	4e/	p	4r	.	.	4r	.	.	4r	.	4r	.	.	.	.	4r	.	4r	.	4r	.	4r	.	.
=67	=67	=67	=67	=67	=67	=67	=67	=67	=67	=67	=67	=67	=67	=67	=67	=67	=67	=67	=67	=67	=67	=67	=67	=67	=67	=67	=67	=67	=67	=67	=67
!	!	!	!	!	!	!	!	!	!	!	!	!	!	!	!	!	!	!	!	!	!	!	!LO:TX:a:i:t=Solo	!	!	!	!	!	!	!	!
2A\	.	.	2E/	.	1.ryy	(2c#/	.	2a/	.	00.r	.	.	00.r	.	.	00.r	.	00.r	.	.	1.ryy	1.ryy	0.r	.	0.r	.	0.r	.	0.r	.	1.ryy
4E\	7	.	4E/	.	.	4d/)	.	(8b/L	.	.	.	.	.	.	.	.	.	.	.	.	.	.	.	.	.	.	.	.	.	.	.
.	.	.	.	.	.	.	.	8g#/J)	.	.	.	.	.	.	.	.	.	.	.	.	.	.	.	.	.	.	.	.	.	.	.
!LO:TX:a:i:t=Solo	!	!	!	!	!	!	!	!	!	!	!	!	!	!	!	!	!	!	!	!	!	!	!	!	!	!	!	!	!	!	!
4AA/	.	.	4A/	.	.	(4c#/	.	(4a/	.	.	.	.	.	.	.	.	.	.	.	.	.	.	.	.	.	.	.	.	.	.	.
4r	.	.	4r	.	.	4e/)	.	4ee\)	.	.	.	.	.	.	.	.	.	.	.	.	.	.	.	.	.	.	.	.	.	.	.
4r	.	.	4r	.	.	4c#|/	.	4cc#|\	.	.	.	.	.	.	.	.	.	.	.	.	.	.	.	.	.	.	.	.	.	.	.
!	!	!	!LO:LB:g=original	!	!	!	!	!	!	!	!	!	!	!	!	!	!	!	!	!	!	!	!	!	!	!	!	!	!	!	!
=68	=68	=68	=68	=68	=68	=68	=68	=68	=68	=68	=68	=68	=68	=68	=68	=68	=68	=68	=68	=68	=68	=68	=68	=68	=68	=68	=68	=68	=68	=68	=68
4D\	6 3	.	4d\	.	1.ryy	(4f#/	.	(4b\	.	.	.	.	.	.	.	.	.	.	.	.	1.ryy	1.ryy	.	.	.	.	.	.	.	.	1.ryy
4C#\	8 3	.	4c#\	.	.	4e/	.	4cc#\)	.	.	.	.	.	.	.	.	.	.	.	.	.	.	.	.	.	.	.	.	.	.	.
4BB\	x 3	.	4B\	.	.	4d/)	.	4dd\	.	.	.	.	.	.	.	.	.	.	.	.	.	.	.	.	.	.	.	.	.	.	.
2E\	6 4	.	2e\	.	.	2c#/	.	2a/	.	.	.	.	.	.	.	.	.	.	.	.	.	.	.	.	.	.	.	.	.	.	.
4EE/	5 3	.	4e\	.	.	4B/	.	4g#/	.	.	.	.	.	.	.	.	.	.	.	.	.	.	.	.	.	.	.	.	.	.	.
!	!	!	!	!	!	!	!	!	!	!	!	!	!	!	!	!	!	!	!	!	!	!	!	!	!LO:LB:g=original	!	!	!	!	!	!
=69	=69	=69	=69	=69	=69	=69	=69	=69	=69	=69	=69	=69	=69	=69	=69	=69	=69	=69	=69	=69	=69	=69	=69	=69	=69	=69	=69	=69	=69	=69	=69
*	*	*	*	*	*	*^	*	*^	*	*	*	*	*	*	*	*	*	*	*	*	*	*	*	*	*	*	*	*	*	*	*
.	.	.	.	.	.	.	.	.	8qqee/	.	.	.	.	.	.	.	.	.	.	.	.	.	.	.	.	.	.	.	.	.	.	.	.
4E\	7	.	4g#\	.	1.ryy	4b\	4ryy	.	4dd\	4ryy	.	.	.	.	.	.	.	.	.	.	.	.	1.ryy	1.ryy	4r	.	4r	.	4r	.	4r	.	1.ryy
.	5	.	.	.	.	.	.	.	.	.	.	.	.	.	.	.	.	.	.	.	.	.	.	.	.	.	.	.	.	.	.	.	.
!	!	!	!	!	!	!	!	!	!	!	!	!	!	!	!	!	!	!	!	!	!	!	!	!	!	!	!LO:TX:a:i:t=Solo	!	!	!	!	!	!
4r	.	.	4r	.	.	4r	4g#\	.	4rdd	4b\	.	.	.	.	.	.	.	.	.	.	.	.	.	.	4e/	.	4b\	.	4g#/	.	4b|\	.	.
!	!	!	!	!	!	!	!	!	!	!	!	!	!	!	!	!	!	!	!	!	!	!	!	!	!	!	!	!	!LO:TX:a:i:t=Solo	!	!	!	!
4r	.	.	4r	.	.	4r	4g#\	.	4rdd	4b\	.	.	.	.	.	.	.	.	.	.	.	.	.	.	4e/	.	4b\	.	4g#/	.	4b|\	.	.
!	!	!	!	!	!	!	!	!	!LO:LB:g=original	!	!	!	!	!	!	!	!	!	!	!	!	!	!	!	!	!	!	!	!	!	!	!	!
!	!	!	!	!	!	!	!	!	!	!	!	!	!	!	!	!	!	!	!	!	!	!	!	!	!	!	!	!	!	!	!LO:TX:a:i:t=Solo	!	!
4AA/	.	.	2e\	.	.	4cc#\	2.ryy	.	4ee|\	2.ryy	.	.	.	.	.	.	.	.	.	.	.	.	.	.	4cc#\	.	4ee\	.	4cc#\	.	4ee\	.	.
4BB/	.	.	.	.	.	4b\	.	.	4dd|\	.	.	.	.	.	.	.	.	.	.	.	.	.	.	.	4b\	.	4dd\	.	4b\	.	4dd\	.	.
4C#/	.	.	4e\	.	.	4a\	.	.	4cc#|\	.	.	.	.	.	.	.	.	.	.	.	.	.	.	.	4a\	.	4cc#\	.	4a\	.	4cc#\	.	.
*	*	*	*	*	*	*v	*v	*	*v	*v	*	*	*	*	*	*	*	*	*	*	*	*	*	*	*	*	*	*	*	*	*	*	*
=70	=70	=70	=70	=70	=70	=70	=70	=70	=70	=70	=70	=70	=70	=70	=70	=70	=70	=70	=70	=70	=70	=70	=70	=70	=70	=70	=70	=70	=70	=70	=70
4D\	.	.	4f#\	.	1.ryy	8d/L	f	(8b\L	.	.	.	.	.	.	.	.	.	.	.	.	1.ryy	1.ryy	4r	.	4r	.	4b/	.	4dd\	.	1.ryy
.	.	.	.	.	.	8B/	.	8dd\	.	.	.	.	.	.	.	.	.	.	.	.	.	.	.	.	.	.	.	.	.	.	.
4E\	.	.	4e\	.	.	8A/	.	8cc#\	f	.	.	.	.	.	.	.	.	.	.	.	.	.	4a\	.	4cc#\	.	4a/	.	4cc#\	.	.
.	.	.	.	.	.	8c#/	.	8ee\	.	.	.	.	.	.	.	.	.	.	.	.	.	.	.	.	.	.	.	.	.	.	.
4EE/	.	.	4e\	.	.	8B/	.	8g#\)	.	.	.	.	.	.	.	.	.	.	.	.	.	.	4e/	.	4b\	.	4g#/	.	4b\	.	.
.	.	.	.	.	.	8d/J	.	8b\J	.	.	.	.	.	.	.	.	.	.	.	.	.	.	.	.	.	.	.	.	.	.	.
8A|\L	.	.	8e|\L	.	.	4c#/	.	4a/	.	.	.	.	.	.	.	.	.	.	.	.	.	.	4A/	.	4a\	.	4a/	.	4a\	.	.
8B|\	.	.	8b|\	.	.	.	.	.	.	.	.	.	.	.	.	.	.	.	.	.	.	.	.	.	.	.	.	.	.	.	.
8A|\	.	.	8a|\	.	.	4r	.	4r	.	.	.	.	.	.	.	.	.	.	.	.	.	.	4r	.	4r	.	4r	.	4r	.	.
8Gn|\	.	.	8gn|\	.	.	.	.	.	.	.	.	.	.	.	.	.	.	.	.	.	.	.	.	.	.	.	.	.	.	.	.
!	!	!	!	!	!	!LO:TX:b:i:t=Mater (Chri)sti VS&colon;	!	!LO:TX:b:i:t=Mater (Chri)sti VS&colon;	!	!	!	!	!	!	!	!	!	!	!	!	!	!	!	!	!	!	!	!	!	!	!
8F#|\	.	.	8f#|\	.	.	4r	.	4r	.	.	.	.	.	.	.	.	.	.	.	.	.	.	4r	.	4r	.	4r	.	4r	.	.
8E|\J	.	.	8e|\J	.	.	.	.	.	.	.	.	.	.	.	.	.	.	.	.	.	.	.	.	.	.	.	.	.	.	.	.
==	==	==	==	==	==	==	==	==	==	==	==	==	==	==	==	==	==	==	==	==	==	==	==	==	==	==	==	==	==	==	==
*-	*-	*-	*-	*-	*-	*-	*-	*-	*-	*-	*-	*-	*-	*-	*-	*-	*-	*-	*-	*-	*-	*-	*-	*-	*-	*-	*-	*-	*-	*-	*-
!!!system-decoration: [(s1,s2,s3)][(s4,s5,s6)]s7[(s8,s9,s10,s11)][(s12,s13,s14,s15)]s16
!!!RDF**kern: | = vertical stroke
!!!RDF**dynam: p = po
!!!RDF**dynam: f = for
!!!ENC: Solarz Mateusz
!!!END: 2020-10-20
!!!AIN: 1 alto 8 empty 2 oboe 1 organ 1 tenor 2 violn 1 vox
!!!ENC: Leszek Kubiak
!!!END: 2022-04-09
